public/luts/Fuji XTrans III - Mono.3dl
#Fujifilm Fuji XTrans III - Mono — analytically generated
0 64 128 192 256 320 384 448 512 575 639 703 767 831 895 959 1023
0 0 0
18 18 18
38 38 38
60 60 60
83 83 83
106 106 106
130 130 130
155 155 155
180 180 180
205 205 205
231 231 231
257 257 257
283 283 283
310 310 310
337 337 337
364 364 364
391 391 391
110 110 110
134 134 134
159 159 159
184 184 184
209 209 209
235 235 235
261 261 261
288 288 288
314 314 314
341 341 341
368 368 368
395 395 395
423 423 423
450 450 450
478 478 478
506 506 506
534 534 534
239 239 239
265 265 265
291 291 291
318 318 318
345 345 345
372 372 372
400 400 400
427 427 427
455 455 455
482 482 482
510 510 510
539 539 539
567 567 567
596 596 596
624 624 624
653 653 653
682 682 682
376 376 376
404 404 404
431 431 431
459 459 459
487 487 487
515 515 515
543 543 543
572 572 572
600 600 600
629 629 629
658 658 658
687 687 687
716 716 716
745 745 745
775 775 775
804 804 804
834 834 834
519 519 519
548 548 548
576 576 576
605 605 605
634 634 634
662 662 662
691 691 691
721 721 721
750 750 750
779 779 779
808 808 808
838 838 838
868 868 868
898 898 898
928 928 928
958 958 958
988 988 988
667 667 667
696 696 696
725 725 725
754 754 754
784 784 784
813 813 813
843 843 843
873 873 873
903 903 903
932 932 932
962 962 962
993 993 993
1023 1023 1023
1053 1053 1053
1084 1084 1084
1114 1114 1114
1145 1145 1145
818 818 818
847 847 847
877 877 877
907 907 907
937 937 937
967 967 967
998 998 998
1028 1028 1028
1058 1058 1058
1088 1088 1088
1119 1119 1119
1150 1150 1150
1181 1181 1181
1211 1211 1211
1242 1242 1242
1273 1273 1273
1305 1305 1305
972 972 972
1002 1002 1002
1033 1033 1033
1063 1063 1063
1093 1093 1093
1124 1124 1124
1155 1155 1155
1186 1186 1186
1217 1217 1217
1247 1247 1247
1278 1278 1278
1309 1309 1309
1340 1340 1340
1372 1372 1372
1403 1403 1403
1435 1435 1435
1466 1466 1466
1129 1129 1129
1159 1159 1159
1190 1190 1190
1221 1221 1221
1252 1252 1252
1283 1283 1283
1314 1314 1314
1346 1346 1346
1377 1377 1377
1408 1408 1408
1439 1439 1439
1471 1471 1471
1502 1502 1502
1534 1534 1534
1566 1566 1566
1598 1598 1598
1630 1630 1630
1285 1285 1285
1317 1317 1317
1348 1348 1348
1379 1379 1379
1410 1410 1410
1442 1442 1442
1473 1473 1473
1505 1505 1505
1537 1537 1537
1568 1568 1568
1600 1600 1600
1632 1632 1632
1664 1664 1664
1696 1696 1696
1728 1728 1728
1760 1760 1760
1792 1792 1792
1447 1447 1447
1478 1478 1478
1510 1510 1510
1541 1541 1541
1573 1573 1573
1605 1605 1605
1637 1637 1637
1669 1669 1669
1701 1701 1701
1733 1733 1733
1765 1765 1765
1797 1797 1797
1829 1829 1829
1862 1862 1862
1894 1894 1894
1926 1926 1926
1959 1959 1959
1610 1610 1610
1642 1642 1642
1674 1674 1674
1706 1706 1706
1738 1738 1738
1770 1770 1770
1802 1802 1802
1835 1835 1835
1867 1867 1867
1899 1899 1899
1931 1931 1931
1964 1964 1964
1996 1996 1996
2029 2029 2029
2061 2061 2061
2092 2092 2092
2123 2123 2123
1775 1775 1775
1807 1807 1807
1839 1839 1839
1872 1872 1872
1904 1904 1904
1937 1937 1937
1969 1969 1969
2002 2002 2002
2034 2034 2034
2066 2066 2066
2097 2097 2097
2127 2127 2127
2158 2158 2158
2189 2189 2189
2220 2220 2220
2251 2251 2251
2282 2282 2282
1942 1942 1942
1974 1974 1974
2007 2007 2007
2039 2039 2039
2071 2071 2071
2102 2102 2102
2133 2133 2133
2163 2163 2163
2194 2194 2194
2225 2225 2225
2255 2255 2255
2286 2286 2286
2317 2317 2317
2348 2348 2348
2378 2378 2378
2409 2409 2409
2439 2439 2439
2106 2106 2106
2137 2137 2137
2168 2168 2168
2199 2199 2199
2230 2230 2230
2260 2260 2260
2291 2291 2291
2322 2322 2322
2353 2353 2353
2383 2383 2383
2413 2413 2413
2444 2444 2444
2475 2475 2475
2505 2505 2505
2536 2536 2536
2566 2566 2566
2597 2597 2597
2265 2265 2265
2296 2296 2296
2327 2327 2327
2357 2357 2357
2388 2388 2388
2418 2418 2418
2449 2449 2449
2480 2480 2480
2510 2510 2510
2540 2540 2540
2571 2571 2571
2601 2601 2601
2631 2631 2631
2662 2662 2662
2692 2692 2692
2722 2722 2722
2753 2753 2753
2423 2423 2423
2454 2454 2454
2484 2484 2484
2515 2515 2515
2545 2545 2545
2576 2576 2576
2606 2606 2606
2636 2636 2636
2667 2667 2667
2697 2697 2697
2727 2727 2727
2757 2757 2757
2787 2787 2787
2818 2818 2818
2848 2848 2848
2878 2878 2878
2908 2908 2908
52 52 52
74 74 74
97 97 97
121 121 121
146 146 146
171 171 171
196 196 196
221 221 221
247 247 247
273 273 273
300 300 300
326 326 326
353 353 353
381 381 381
408 408 408
436 436 436
463 463 463
174 174 174
200 200 200
225 225 225
251 251 251
278 278 278
304 304 304
331 331 331
358 358 358
385 385 385
412 412 412
440 440 440
468 468 468
496 496 496
524 524 524
552 552 552
581 581 581
609 609 609
308 308 308
335 335 335
362 362 362
389 389 389
417 417 417
444 444 444
472 472 472
500 500 500
528 528 528
556 556 556
585 585 585
614 614 614
642 642 642
671 671 671
700 700 700
730 730 730
759 759 759
449 449 449
476 476 476
504 504 504
533 533 533
561 561 561
590 590 590
618 618 618
647 647 647
676 676 676
705 705 705
734 734 734
763 763 763
793 793 793
823 823 823
852 852 852
882 882 882
912 912 912
594 594 594
623 623 623
651 651 651
680 680 680
710 710 710
739 739 739
768 768 768
798 798 798
827 827 827
857 857 857
887 887 887
917 917 917
947 947 947
977 977 977
1007 1007 1007
1037 1037 1037
1068 1068 1068
743 743 743
773 773 773
802 802 802
832 832 832
862 862 862
891 891 891
921 921 921
952 952 952
982 982 982
1012 1012 1012
1042 1042 1042
1072 1072 1072
1103 1103 1103
1134 1134 1134
1164 1164 1164
1195 1195 1195
1226 1226 1226
896 896 896
926 926 926
956 956 956
986 986 986
1017 1017 1017
1047 1047 1047
1077 1077 1077
1108 1108 1108
1139 1139 1139
1169 1169 1169
1200 1200 1200
1231 1231 1231
1262 1262 1262
1293 1293 1293
1324 1324 1324
1355 1355 1355
1387 1387 1387
1051 1051 1051
1082 1082 1082
1113 1113 1113
1143 1143 1143
1174 1174 1174
1205 1205 1205
1236 1236 1236
1267 1267 1267
1298 1298 1298
1329 1329 1329
1360 1360 1360
1391 1391 1391
1423 1423 1423
1454 1454 1454
1486 1486 1486
1517 1517 1517
1549 1549 1549
1209 1209 1209
1240 1240 1240
1271 1271 1271
1303 1303 1303
1334 1334 1334
1365 1365 1365
1396 1396 1396
1428 1428 1428
1459 1459 1459
1490 1490 1490
1522 1522 1522
1554 1554 1554
1586 1586 1586
1617 1617 1617
1649 1649 1649
1681 1681 1681
1713 1713 1713
1367 1367 1367
1399 1399 1399
1430 1430 1430
1462 1462 1462
1493 1493 1493
1525 1525 1525
1557 1557 1557
1588 1588 1588
1620 1620 1620
1652 1652 1652
1684 1684 1684
1716 1716 1716
1748 1748 1748
1780 1780 1780
1812 1812 1812
1845 1845 1845
1877 1877 1877
1530 1530 1530
1561 1561 1561
1593 1593 1593
1625 1625 1625
1657 1657 1657
1689 1689 1689
1721 1721 1721
1753 1753 1753
1785 1785 1785
1817 1817 1817
1849 1849 1849
1882 1882 1882
1914 1914 1914
1947 1947 1947
1979 1979 1979
2012 2012 2012
2045 2045 2045
1694 1694 1694
1726 1726 1726
1758 1758 1758
1790 1790 1790
1822 1822 1822
1855 1855 1855
1887 1887 1887
1920 1920 1920
1952 1952 1952
1984 1984 1984
2017 2017 2017
2049 2049 2049
2080 2080 2080
2111 2111 2111
2142 2142 2142
2173 2173 2173
2204 2204 2204
1860 1860 1860
1892 1892 1892
1924 1924 1924
1957 1957 1957
1990 1990 1990
2022 2022 2022
2054 2054 2054
2085 2085 2085
2116 2116 2116
2147 2147 2147
2178 2178 2178
2208 2208 2208
2239 2239 2239
2270 2270 2270
2301 2301 2301
2331 2331 2331
2362 2362 2362
2027 2027 2027
2059 2059 2059
2090 2090 2090
2121 2121 2121
2152 2152 2152
2183 2183 2183
2213 2213 2213
2244 2244 2244
2275 2275 2275
2305 2305 2305
2336 2336 2336
2367 2367 2367
2397 2397 2397
2428 2428 2428
2459 2459 2459
2489 2489 2489
2520 2520 2520
2187 2187 2187
2218 2218 2218
2249 2249 2249
2280 2280 2280
2310 2310 2310
2341 2341 2341
2372 2372 2372
2402 2402 2402
2433 2433 2433
2463 2463 2463
2494 2494 2494
2524 2524 2524
2555 2555 2555
2585 2585 2585
2615 2615 2615
2646 2646 2646
2676 2676 2676
2346 2346 2346
2376 2376 2376
2407 2407 2407
2438 2438 2438
2468 2468 2468
2499 2499 2499
2529 2529 2529
2560 2560 2560
2590 2590 2590
2620 2620 2620
2650 2650 2650
2681 2681 2681
2711 2711 2711
2741 2741 2741
2771 2771 2771
2802 2802 2802
2832 2832 2832
2503 2503 2503
2534 2534 2534
2564 2564 2564
2595 2595 2595
2625 2625 2625
2655 2655 2655
2686 2686 2686
2716 2716 2716
2746 2746 2746
2776 2776 2776
2806 2806 2806
2836 2836 2836
2866 2866 2866
2896 2896 2896
2926 2926 2926
2956 2956 2956
2986 2986 2986
112 112 112
136 136 136
161 161 161
186 186 186
212 212 212
238 238 238
264 264 264
290 290 290
317 317 317
343 343 343
370 370 370
398 398 398
425 425 425
453 453 453
481 481 481
509 509 509
537 537 537
241 241 241
268 268 268
294 294 294
321 321 321
348 348 348
375 375 375
402 402 402
430 430 430
458 458 458
485 485 485
513 513 513
541 541 541
570 570 570
598 598 598
627 627 627
656 656 656
685 685 685
379 379 379
406 406 406
434 434 434
462 462 462
490 490 490
518 518 518
546 546 546
575 575 575
603 603 603
632 632 632
660 660 660
689 689 689
719 719 719
748 748 748
777 777 777
807 807 807
837 837 837
522 522 522
550 550 550
579 579 579
607 607 607
636 636 636
665 665 665
694 694 694
723 723 723
753 753 753
782 782 782
811 811 811
841 841 841
871 871 871
901 901 901
931 931 931
961 961 961
991 991 991
670 670 670
699 699 699
728 728 728
757 757 757
787 787 787
816 816 816
846 846 846
876 876 876
906 906 906
935 935 935
965 965 965
996 996 996
1026 1026 1026
1056 1056 1056
1087 1087 1087
1117 1117 1117
1148 1148 1148
821 821 821
850 850 850
880 880 880
910 910 910
940 940 940
970 970 970
1001 1001 1001
1031 1031 1031
1061 1061 1061
1091 1091 1091
1122 1122 1122
1153 1153 1153
1184 1184 1184
1214 1214 1214
1245 1245 1245
1276 1276 1276
1308 1308 1308
975 975 975
1005 1005 1005
1035 1035 1035
1066 1066 1066
1096 1096 1096
1127 1127 1127
1158 1158 1158
1189 1189 1189
1220 1220 1220
1250 1250 1250
1281 1281 1281
1312 1312 1312
1343 1343 1343
1375 1375 1375
1406 1406 1406
1438 1438 1438
1469 1469 1469
1132 1132 1132
1162 1162 1162
1193 1193 1193
1224 1224 1224
1255 1255 1255
1286 1286 1286
1317 1317 1317
1349 1349 1349
1380 1380 1380
1411 1411 1411
1442 1442 1442
1474 1474 1474
1505 1505 1505
1537 1537 1537
1569 1569 1569
1601 1601 1601
1633 1633 1633
1291 1291 1291
1322 1322 1322
1353 1353 1353
1385 1385 1385
1416 1416 1416
1447 1447 1447
1479 1479 1479
1511 1511 1511
1542 1542 1542
1574 1574 1574
1605 1605 1605
1637 1637 1637
1669 1669 1669
1701 1701 1701
1733 1733 1733
1766 1766 1766
1798 1798 1798
1450 1450 1450
1481 1481 1481
1513 1513 1513
1545 1545 1545
1576 1576 1576
1608 1608 1608
1640 1640 1640
1672 1672 1672
1704 1704 1704
1736 1736 1736
1768 1768 1768
1800 1800 1800
1832 1832 1832
1865 1865 1865
1897 1897 1897
1930 1930 1930
1962 1962 1962
1613 1613 1613
1645 1645 1645
1677 1677 1677
1709 1709 1709
1741 1741 1741
1773 1773 1773
1805 1805 1805
1838 1838 1838
1870 1870 1870
1902 1902 1902
1934 1934 1934
1967 1967 1967
2000 2000 2000
2032 2032 2032
2064 2064 2064
2095 2095 2095
2126 2126 2126
1778 1778 1778
1810 1810 1810
1843 1843 1843
1875 1875 1875
1907 1907 1907
1940 1940 1940
1972 1972 1972
2005 2005 2005
2038 2038 2038
2069 2069 2069
2100 2100 2100
2130 2130 2130
2161 2161 2161
2192 2192 2192
2223 2223 2223
2254 2254 2254
2285 2285 2285
1945 1945 1945
1977 1977 1977
2010 2010 2010
2043 2043 2043
2074 2074 2074
2105 2105 2105
2136 2136 2136
2166 2166 2166
2197 2197 2197
2228 2228 2228
2258 2258 2258
2289 2289 2289
2320 2320 2320
2351 2351 2351
2381 2381 2381
2412 2412 2412
2442 2442 2442
2109 2109 2109
2140 2140 2140
2171 2171 2171
2202 2202 2202
2233 2233 2233
2263 2263 2263
2294 2294 2294
2325 2325 2325
2356 2356 2356
2386 2386 2386
2416 2416 2416
2447 2447 2447
2478 2478 2478
2508 2508 2508
2539 2539 2539
2569 2569 2569
2599 2599 2599
2268 2268 2268
2299 2299 2299
2329 2329 2329
2360 2360 2360
2391 2391 2391
2421 2421 2421
2452 2452 2452
2483 2483 2483
2513 2513 2513
2543 2543 2543
2574 2574 2574
2604 2604 2604
2634 2634 2634
2665 2665 2665
2695 2695 2695
2725 2725 2725
2756 2756 2756
2426 2426 2426
2457 2457 2457
2487 2487 2487
2518 2518 2518
2548 2548 2548
2579 2579 2579
2609 2609 2609
2639 2639 2639
2670 2670 2670
2700 2700 2700
2730 2730 2730
2760 2760 2760
2790 2790 2790
2820 2820 2820
2851 2851 2851
2881 2881 2881
2911 2911 2911
2583 2583 2583
2614 2614 2614
2644 2644 2644
2674 2674 2674
2705 2705 2705
2735 2735 2735
2765 2765 2765
2795 2795 2795
2825 2825 2825
2855 2855 2855
2885 2885 2885
2915 2915 2915
2945 2945 2945
2975 2975 2975
3005 3005 3005
3035 3035 3035
3065 3065 3065
177 177 177
202 202 202
228 228 228
254 254 254
280 280 280
307 307 307
333 333 333
361 361 361
388 388 388
415 415 415
442 442 442
470 470 470
498 498 498
527 527 527
555 555 555
583 583 583
612 612 612
311 311 311
337 337 337
365 365 365
392 392 392
419 419 419
447 447 447
475 475 475
503 503 503
531 531 531
559 559 559
588 588 588
616 616 616
645 645 645
674 674 674
703 703 703
733 733 733
