public/luts/Fuji XTrans III - Provia.3dl
#Fujifilm Fuji XTrans III - Provia — analytically generated
0 256 512 767 1023
53 0 0
40 0 1050
26 0 2230
11 0 3397
0 0 4095
0 1016 0
0 1003 981
0 988 2161
0 974 3329
0 960 4095
0 2149 0
0 2136 905
0 2122 2085
0 2107 3253
0 2094 4095
0 3264 0
0 3251 830
0 3237 2010
0 3222 3178
0 3209 4095
0 4095 0
0 4095 761
0 4095 1941
0 4095 3109
0 4095 4095
1090 0 0
1077 0 1015
1062 0 2195
1048 0 3363
1034 0 4095
1022 982 0
1009 969 947
994 954 2127
980 939 3295
966 926 4095
946 2115 0
933 2102 871
918 2088 2051
904 2073 3219
890 2060 4095
871 3230 0
858 3217 796
843 3203 1976
829 3188 3144
815 3175 4095
801 4095 0
788 4095 727
774 4095 1907
759 4095 3074
746 4095 4095
2275 0 0
2262 0 976
2248 0 2156
2233 0 3324
2220 0 4095
2207 942 0
2194 929 908
2179 915 2088
2165 900 3255
2151 887 4095
2131 2076 0
2118 2063 832
2103 2048 2012
2089 2034 3179
2075 2020 4095
2056 3191 0
2043 3178 757
2029 3163 1937
2014 3149 3104
2001 3135 4095
1987 4095 0
1974 4095 688
1959 4095 1868
1945 4095 3035
1931 4095 4095
3442 0 0
3429 0 937
3414 0 2117
3400 0 3285
3386 0 4095
3373 904 0
3360 891 869
3346 876 2049
3331 862 3217
3318 848 4095
3297 2037 0
3284 2024 793
3270 2010 1973
3255 1995 3141
3242 1982 4095
3222 3152 0
3209 3139 718
3195 3125 1898
3180 3110 3066
3167 3097 4095
3153 4095 0
3140 4095 649
3126 4095 1829
3111 4095 2997
3098 4095 4092
4095 0 0
4095 0 904
4095 0 2084
4095 0 3252
4095 0 4095
4095 871 0
4095 858 836
4095 843 2016
4095 829 3184
4095 815 4095
4095 2004 0
4095 1991 760
4095 1977 1940
4095 1962 3108
4095 1949 4095
4095 3119 0
4095 3106 685
4095 3092 1865
4095 3077 3033
4095 3064 4095
4095 4095 0
4095 4095 616
4095 4095 1796
4095 4095 2964
4095 4095 4059
