public/luts/Fuji XTrans III - Astia.3dl
#Fujifilm Fuji XTrans III - Astia — analytically generated
0 256 512 767 1023
193 124 78
201 133 1098
208 140 1943
215 147 2770
224 156 3804
238 1187 123
246 1196 1143
253 1203 1988
260 1210 2815
269 1219 3849
274 2054 160
283 2063 1180
290 2070 2024
297 2077 2851
306 2086 3886
310 2903 196
319 2912 1216
326 2919 2060
333 2926 2887
342 2935 3922
356 3981 242
364 3990 1262
372 3997 2106
379 4004 2933
387 4013 3967
1220 147 101
1228 155 1121
1236 162 1965
1243 170 2792
1251 178 3827
1265 1210 146
1273 1219 1166
1281 1226 2010
1288 1233 2837
1296 1242 3872
1301 2077 183
1310 2086 1203
1317 2093 2047
1324 2100 2874
1333 2109 3908
1337 2926 218
1346 2934 1239
1353 2941 2083
1360 2949 2910
1369 2957 3944
1383 4004 264
1392 4013 1284
1399 4020 2129
1406 4027 2956
1415 4036 3990
2083 166 120
2091 174 1140
2099 181 1984
2106 189 2811
2114 197 3846
2128 1229 165
2136 1238 1185
2144 1245 2029
2151 1252 2856
2159 1261 3891
2164 2096 202
2173 2105 1222
2180 2112 2066
2187 2119 2893
2196 2128 3927
2200 2945 237
2209 2953 1258
2216 2960 2102
2223 2968 2929
2232 2976 3963
2246 4023 283
2255 4032 1303
2262 4039 2148
2269 4046 2975
2278 4055 4009
2928 184 139
2937 193 1159
2944 200 2003
2951 207 2830
2960 216 3864
2973 1248 184
2982 1256 1204
2989 1264 2048
2996 1271 2875
3005 1279 3909
3010 2114 220
3019 2123 1240
3026 2130 2085
3033 2137 2912
3042 2146 3946
3046 2963 256
3055 2972 1276
3062 2979 2121
3069 2986 2948
3078 2995 3982
3092 4042 302
3100 4050 1322
3107 4057 2166
3114 4064 2993
3123 4073 4028
3900 206 160
3908 214 1180
3916 221 2024
3923 228 2851
3931 237 3886
3945 1269 205
3953 1278 1225
3961 1285 2069
3968 1292 2896
3976 1301 3931
3981 2136 242
3990 2145 1262
3997 2152 2106
4004 2159 2933
4013 2168 3967
4017 2985 277
4026 2993 1298
4033 3000 2142
4040 3007 2969
4049 3016 4003
4063 4063 323
4072 4072 1343
4079 4079 2188
4086 4086 3015
4095 4095 4049
