public/luts/Fuji XTrans III - Astia.3dl
#Fujifilm Fuji XTrans III - Astia — analytically generated
0 128 256 384 512 639 767 895 1023
193 124 78
197 129 636
201 133 1098
205 136 1530
208 140 1943
212 143 2344
215 147 2770
219 151 3230
224 156 3804
217 710 103
222 715 661
226 719 1123
230 722 1555
233 726 1968
237 729 2369
240 733 2795
244 737 3255
249 742 3829
238 1187 123
242 1192 681
246 1196 1143
250 1200 1575
253 1203 1988
257 1207 2389
260 1210 2815
264 1214 3275
269 1219 3849
256 1631 142
261 1636 700
265 1640 1162
269 1644 1594
272 1647 2007
276 1650 2408
279 1654 2834
283 1658 3294
288 1663 3868
274 2054 160
279 2059 718
283 2063 1180
287 2067 1612
290 2070 2024
294 2074 2426
297 2077 2851
301 2081 3312
306 2086 3886
292 2465 177
296 2470 736
300 2474 1198
304 2478 1629
307 2481 2042
311 2485 2443
315 2488 2869
318 2492 3329
323 2497 3903
310 2903 196
315 2908 754
319 2912 1216
322 2915 1648
326 2919 2060
329 2922 2462
333 2926 2887
337 2930 3348
342 2935 3922
330 3379 216
335 3384 774
339 3388 1236
343 3391 1668
346 3395 2080
350 3398 2482
353 3402 2907
357 3406 3368
362 3411 3942
356 3981 242
361 3986 800
364 3990 1262
368 3994 1693
372 3997 2106
375 4001 2507
379 4004 2933
383 4008 3393
387 4013 3967
751 136 91
755 141 649
759 145 1111
763 149 1542
767 152 1955
770 156 2356
774 159 2782
777 163 3243
782 168 3816
775 722 115
780 727 674
784 731 1136
788 735 1567
791 738 1980
795 741 2381
798 745 2807
802 749 3267
807 754 3841
796 1200 136
800 1205 694
804 1208 1156
808 1212 1587
812 1216 2000
815 1219 2401
819 1223 2827
822 1227 3288
827 1231 3861
814 1643 154
819 1648 713
823 1652 1175
827 1656 1606
830 1659 2019
834 1663 2420
837 1666 2846
841 1670 3306
846 1675 3880
832 2067 172
837 2071 730
841 2075 1192
845 2079 1624
848 2082 2037
852 2086 2438
855 2089 2864
859 2093 3324
864 2098 3898
850 2478 190
854 2482 748
858 2486 1210
862 2490 1641
866 2494 2054
869 2497 2455
873 2501 2881
877 2505 3342
881 2509 3915
868 2915 208
873 2920 766
877 2924 1228
881 2928 1660
884 2931 2073
888 2935 2474
891 2938 2900
895 2942 3360
900 2947 3934
888 3391 228
893 3396 786
897 3400 1248
901 3404 1680
904 3407 2093
908 3410 2494
911 3414 2920
915 3418 3380
920 3423 3954
914 3994 254
919 3998 812
923 4002 1274
926 4006 1705
930 4009 2118
933 4013 2520
937 4016 2945
941 4020 3406
946 4025 3980
1220 147 101
1224 151 659
1228 155 1121
1232 159 1553
1236 162 1965
1239 166 2367
1243 170 2792
1246 173 3253
1251 178 3827
1244 733 126
1249 737 684
1253 741 1146
1257 745 1577
1260 748 1990
1264 752 2391
1267 755 2817
1271 759 3278
1276 764 3851
1265 1210 146
1269 1215 704
1273 1219 1166
1277 1222 1598
1281 1226 2010
1284 1229 2412
1288 1233 2837
1291 1237 3298
1296 1242 3872
1283 1654 165
1288 1659 723
1292 1662 1185
1296 1666 1616
1299 1670 2029
1303 1673 2430
1306 1677 2856
1310 1681 3317
1315 1686 3890
1301 2077 183
1306 2082 741
1310 2086 1203
1314 2089 1634
1317 2093 2047
1321 2096 2448
1324 2100 2874
1328 2104 3335
1333 2109 3908
1319 2488 200
1323 2493 758
1327 2497 1220
1331 2500 1652
1335 2504 2064
1338 2507 2466
1342 2511 2891
1346 2515 3352
1350 2520 3926
1337 2926 218
1342 2930 777
1346 2934 1239
1350 2938 1670
1353 2941 2083
1357 2945 2484
1360 2949 2910
1364 2952 3370
1369 2957 3944
1357 3402 239
1362 3406 797
1366 3410 1259
1370 3414 1690
1373 3417 2103
1377 3421 2504
1380 3424 2930
1384 3428 3391
1389 3433 3964
1383 4004 264
1388 4009 822
1392 4013 1284
1395 4016 1716
1399 4020 2129
1402 4023 2530
1406 4027 2956
1410 4031 3416
1415 4036 3990
1660 156 111
1665 161 669
1669 165 1131
1672 169 1562
1676 172 1975
1679 176 2376
1683 179 2802
1687 183 3263
1692 188 3836
1685 742 135
1690 747 694
1694 751 1156
1697 755 1587
1701 758 2000
1704 762 2401
1708 765 2827
1712 769 3287
1717 774 3861
1705 1220 156
1710 1225 714
1714 1228 1176
1717 1232 1607
1721 1236 2020
1724 1239 2421
1728 1243 2847
1732 1247 3308
1737 1251 3881
1724 1664 174
1729 1668 733
1732 1672 1195
1736 1676 1626
1740 1679 2039
1743 1683 2440
1747 1686 2866
1751 1690 3326
1756 1695 3900
1742 2087 192
1746 2091 750
1750 2095 1212
1754 2099 1644
1758 2102 2057
1761 2106 2458
1765 2109 2884
1769 2113 3344
1773 2118 3918
1759 2498 210
1764 2502 768
1768 2506 1230
1771 2510 1661
1775 2514 2074
1778 2517 2475
1782 2521 2901
1786 2525 3362
1791 2529 3935
1778 2935 228
1782 2940 786
1786 2944 1248
1790 2948 1680
1793 2951 2093
1797 2955 2494
1801 2958 2920
1804 2962 3380
1809 2967 3954
1798 3411 248
1803 3416 806
1806 3420 1268
1810 3424 1700
1814 3427 2113
1817 3430 2514
1821 3434 2940
1825 3438 3400
1829 3443 3974
1823 4014 274
1828 4018 832
1832 4022 1294
1836 4026 1725
1839 4029 2138
1843 4033 2540
1846 4037 2965
1850 4040 3426
1855 4045 4000
2083 166 120
2088 170 678
2091 174 1140
2095 178 1572
2099 181 1984
2102 185 2386
2106 189 2811
2110 192 3272
2114 197 3846
2108 752 145
2112 756 703
2116 760 1165
2120 764 1596
2123 767 2009
2127 771 2410
2130 774 2836
2134 778 3297
2139 783 3870
2128 1229 165
2133 1234 723
2136 1238 1185
2140 1241 1617
2144 1245 2029
2147 1248 2431
2151 1252 2856
2155 1256 3317
2159 1261 3891
2147 1673 184
2151 1678 742
2155 1681 1204
2159 1685 1635
2162 1689 2048
2166 1692 2449
2169 1696 2875
2173 1700 3336
2178 1705 3909
2164 2096 202
2169 2101 760
2173 2105 1222
2177 2108 1653
2180 2112 2066
2184 2115 2467
2187 2119 2893
2191 2123 3354
2196 2128 3927
2182 2507 219
2187 2512 777
2191 2516 1239
2194 2519 1671
2198 2523 2083
2201 2526 2485
2205 2530 2910
2209 2534 3371
2214 2539 3945
2200 2945 237
2205 2949 796
2209 2953 1258
2213 2957 1689
2216 2960 2102
2220 2964 2503
2223 2968 2929
2227 2971 3389
2232 2976 3963
2220 3421 258
2225 3425 816
2229 3429 1278
2233 3433 1709
2236 3436 2122
2240 3440 2523
2243 3443 2949
2247 3447 3410
2252 3452 3983
2246 4023 283
2251 4028 841
2255 4032 1303
2258 4035 1735
2262 4039 2148
2265 4042 2549
2269 4046 2975
2273 4050 3435
2278 4055 4009
2494 175 129
2499 179 687
2503 183 1149
2506 187 1581
2510 191 1993
2513 194 2395
2517 198 2820
2521 201 3281
2526 206 3855
2519 761 154
2523 765 712
2527 769 1174
2531 773 1605
2535 776 2018
2538 780 2420
2542 783 2845
2545 787 3306
2550 792 3880
2539 1238 174
2544 1243 732
2548 1247 1194
2551 1250 1626
2555 1254 2038
2558 1257 2440
2562 1261 2865
2566 1265 3326
2571 1270 3900
2558 1682 193
2562 1687 751
2566 1691 1213
2570 1694 1644
2574 1698 2057
2577 1701 2459
2581 1705 2884
2584 1709 3345
2589 1714 3919
2576 2105 211
2580 2110 769
2584 2114 1231
2588 2117 1662
2591 2121 2075
2595 2124 2476
2598 2128 2902
2602 2132 3363
2607 2137 3936
2593 2516 228
2598 2521 786
2602 2525 1248
2605 2528 1680
2609 2532 2092
2612 2535 2494
2616 2539 2919
2620 2543 3380
2625 2548 3954
2611 2954 247
2616 2958 805
2620 2962 1267
2624 2966 1698
2627 2970 2111
2631 2973 2512
2634 2977 2938
2638 2980 3398
2643 2985 3972
2632 3430 267
2636 3434 825
2640 3438 1287
2644 3442 1718
2647 3445 2131
2651 3449 2532
2654 3452 2958
2658 3456 3419
2663 3461 3992
2657 4032 292
2662 4037 850
2666 4041 1312
2669 4044 1744
2673 4048 2157
2676 4051 2558
2680 4055 2984
2684 4059 3444
2689 4064 4018
2928 184 139
2933 189 697
2937 193 1159
2941 197 1590
2944 200 2003
2948 203 2404
2951 207 2830
2955 211 3290
2960 216 3864
2953 770 163
2958 775 721
2962 779 1183
2966 782 1615
2969 786 2028
2972 789 2429
2976 793 2855
2980 797 3315
2985 802 3889
2973 1248 184
2978 1252 742
2982 1256 1204
2986 1260 1635
2989 1264 2048
2993 1267 2449
2996 1271 2875
3000 1275 3335
3005 1279 3909
2992 1691 202
2997 1696 760
3001 1700 1222
3004 1704 1654
3008 1707 2067
3011 1711 2468
3015 1714 2894
3019 1718 3354
3024 1723 3928
3010 2114 220
3015 2119 778
3019 2123 1240
3022 2127 1672
3026 2130 2085
3029 2134 2486
3033 2137 2912
3037 2141 3372
3042 2146 3946
3027 2526 238
3032 2530 796
3036 2534 1258
3040 2538 1689
3043 2542 2102
3047 2545 2503
3050 2549 2929
3054 2552 3390
3059 2557 3963
3046 2963 256
3051 2968 814
3055 2972 1276
3058 2976 1708
3062 2979 2121
3065 2982 2522
3069 2986 2948
3073 2990 3408
3078 2995 3982
3066 3439 276
3071 3444 834
3075 3448 1296
3078 3451 1728
3082 3455 2141
3085 3458 2542
3089 3462 2968
3093 3466 3428
3098 3471 4002
3092 4042 302
3096 4046 860
3100 4050 1322
3104 4054 1753
3107 4057 2166
3111 4061 2568
3114 4064 2993
3118 4068 3454
3123 4073 4028
3396 195 149
3401 199 707
3405 203 1169
3408 207 1600
3412 210 2013
3415 214 2415
3419 217 2840
3423 221 3301
3428 226 3875
3421 780 174
3426 785 732
3429 789 1194
3433 793 1625
3437 796 2038
3440 800 2439
3444 803 2865
3448 807 3326
3453 812 3899
3441 1258 194
3446 1263 752
3450 1267 1214
3453 1270 1645
3457 1274 2058
3460 1277 2460
3464 1281 2885
3468 1285 3346
3473 1290 3920
3460 1702 213
3465 1706 771
3468 1710 1233
3472 1714 1664
3476 1718 2077
3479 1721 2478
3483 1725 2904
3487 1729 3365
3491 1733 3938
3478 2125 230
3482 2129 789
3486 2133 1251
3490 2137 1682
3494 2141 2095
3497 2144 2496
3501 2148 2922
3505 2152 3382
3509 2156 3956
3495 2536 248
3500 2541 806
3504 2545 1268
3507 2548 1700
3511 2552 2112
3514 2555 2514
3518 2559 2939
3522 2563 3400
3527 2568 3974
3514 2974 266
3518 2978 825
3522 2982 1287
3526 2986 1718
3529 2989 2131
3533 2993 2532
3537 2996 2958
3540 3000 3418
3545 3005 3992
3534 3449 287
3538 3454 845
3542 3458 1307
3546 3462 1738
3550 3465 2151
3553 3469 2552
3557 3472 2978
3561 3476 3438
3565 3481 4012
3559 4052 312
3564 4057 870
3568 4061 1332
3572 4064 1764
3575 4068 2176
3579 4071 2578
3582 4075 3003
3586 4079 3464
3591 4084 4038
3900 206 160
3904 210 718
3908 214 1180
3912 218 1612
3916 221 2024
3919 225 2426
3923 228 2851
3927 232 3312
3931 237 3886
3924 792 185
3929 796 743
3933 800 1205
3937 804 1636
3940 807 2049
3944 811 2450
3947 814 2876
3951 818 3337
3956 823 3910
3945 1269 205
3949 1274 763
3953 1278 1225
3957 1281 1657
3961 1285 2069
3964 1288 2471
3968 1292 2896
3972 1296 3357
3976 1301 3931
3963 1713 224
3968 1718 782
3972 1721 1244
3976 1725 1675
3979 1729 2088
3983 1732 2489
3986 1736 2915
3990 1740 3376
3995 1744 3949
3981 2136 242
3986 2141 800
3990 2145 1262
3994 2148 1693
3997 2152 2106
4001 2155 2507
4004 2159 2933
4008 2163 3394
4013 2168 3967
3999 2547 259
4004 2552 817
4007 2556 1279
4011 2559 1711
4015 2563 2123
4018 2566 2525
4022 2570 2950
4026 2574 3411
4030 2579 3985
4017 2985 277
4022 2989 836
4026 2993 1298
4030 2997 1729
4033 3000 2142
4037 3004 2543
4040 3007 2969
4044 3011 3429
4049 3016 4003
4037 3461 298
4042 3465 856
4046 3469 1318
4050 3473 1749
4053 3476 2162
4057 3480 2563
4060 3483 2989
4064 3487 3450
4069 3492 4023
4063 4063 323
4068 4068 881
4072 4072 1343
4075 4075 1775
4079 4079 2188
4082 4082 2589
4086 4086 3015
4090 4090 3475
4095 4095 4049
