public/luts/Fuji XTrans III - Mono+Ye.3dl
#Fujifilm Fuji XTrans III - Mono+Ye — analytically generated
0 128 256 384 512 639 767 895 1023
0 0 0
22 22 22
48 48 48
76 76 76
104 104 104
134 134 134
164 164 164
195 195 195
226 226 226
245 245 245
277 277 277
310 310 310
343 343 343
376 376 376
409 409 409
443 443 443
478 478 478
512 512 512
532 532 532
567 567 567
602 602 602
638 638 638
673 673 673
709 709 709
745 745 745
781 781 781
817 817 817
838 838 838
875 875 875
911 911 911
948 948 948
985 985 985
1022 1022 1022
1060 1060 1060
1097 1097 1097
1135 1135 1135
1157 1157 1157
1195 1195 1195
1233 1233 1233
1271 1271 1271
1309 1309 1309
1347 1347 1347
1385 1385 1385
1424 1424 1424
1463 1463 1463
1483 1483 1483
1521 1521 1521
1560 1560 1560
1599 1599 1599
1639 1639 1639
1678 1678 1678
1717 1717 1717
1756 1756 1756
1796 1796 1796
1819 1819 1819
1859 1859 1859
1898 1898 1898
1938 1938 1938
1978 1978 1978
2018 2018 2018
2058 2058 2058
2095 2095 2095
2133 2133 2133
2155 2155 2155
2192 2192 2192
2230 2230 2230
2267 2267 2267
2305 2305 2305
2342 2342 2342
2379 2379 2379
2416 2416 2416
2454 2454 2454
2475 2475 2475
2512 2512 2512
2550 2550 2550
2587 2587 2587
2624 2624 2624
2661 2661 2661
2698 2698 2698
2735 2735 2735
2771 2771 2771
125 125 125
155 155 155
186 186 186
218 218 218
249 249 249
281 281 281
314 314 314
347 347 347
381 381 381
400 400 400
434 434 434
468 468 468
502 502 502
537 537 537
572 572 572
607 607 607
642 642 642
678 678 678
699 699 699
735 735 735
771 771 771
807 807 807
843 843 843
880 880 880
916 916 916
953 953 953
990 990 990
1012 1012 1012
1049 1049 1049
1087 1087 1087
1124 1124 1124
1162 1162 1162
1200 1200 1200
1238 1238 1238
1276 1276 1276
1314 1314 1314
1336 1336 1336
1375 1375 1375
1413 1413 1413
1452 1452 1452
1491 1491 1491
1529 1529 1529
1568 1568 1568
1607 1607 1607
1647 1647 1647
1667 1667 1667
1706 1706 1706
1745 1745 1745
1785 1785 1785
1825 1825 1825
1864 1864 1864
1904 1904 1904
1944 1944 1944
1984 1984 1984
2007 2007 2007
2047 2047 2047
2085 2085 2085
2122 2122 2122
2160 2160 2160
2197 2197 2197
2235 2235 2235
2272 2272 2272
2310 2310 2310
2331 2331 2331
2369 2369 2369
2406 2406 2406
2443 2443 2443
2480 2480 2480
2517 2517 2517
2555 2555 2555
2592 2592 2592
2629 2629 2629
2650 2650 2650
2687 2687 2687
2724 2724 2724
2761 2761 2761
2798 2798 2798
2835 2835 2835
2871 2871 2871
2908 2908 2908
2945 2945 2945
272 272 272
305 305 305
338 338 338
371 371 371
405 405 405
438 438 438
473 473 473
507 507 507
542 542 542
562 562 562
597 597 597
632 632 632
668 668 668
704 704 704
739 739 739
775 775 775
812 812 812
848 848 848
869 869 869
906 906 906
943 943 943
980 980 980
1017 1017 1017
1054 1054 1054
1092 1092 1092
1129 1129 1129
1167 1167 1167
1189 1189 1189
1227 1227 1227
1265 1265 1265
1303 1303 1303
1342 1342 1342
1380 1380 1380
1418 1418 1418
1457 1457 1457
1496 1496 1496
1518 1518 1518
1557 1557 1557
1596 1596 1596
1636 1636 1636
1675 1675 1675
1714 1714 1714
1753 1753 1753
1793 1793 1793
1833 1833 1833
1853 1853 1853
1893 1893 1893
1933 1933 1933
1973 1973 1973
2013 2013 2013
2052 2052 2052
2090 2090 2090
2127 2127 2127
2165 2165 2165
2187 2187 2187
2224 2224 2224
2262 2262 2262
2299 2299 2299
2337 2337 2337
2374 2374 2374
2411 2411 2411
2448 2448 2448
2486 2486 2486
2507 2507 2507
2544 2544 2544
2581 2581 2581
2619 2619 2619
2656 2656 2656
2692 2692 2692
2729 2729 2729
2766 2766 2766
2803 2803 2803
2824 2824 2824
2861 2861 2861
2898 2898 2898
2935 2935 2935
2971 2971 2971
3007 3007 3007
3044 3044 3044
3080 3080 3080
3117 3117 3117
429 429 429
463 463 463
498 498 498
532 532 532
567 567 567
602 602 602
637 637 637
673 673 673
709 709 709
729 729 729
765 765 765
802 802 802
838 838 838
875 875 875
911 911 911
948 948 948
985 985 985
1022 1022 1022
1044 1044 1044
1081 1081 1081
1119 1119 1119
1157 1157 1157
1195 1195 1195
1232 1232 1232
1270 1270 1270
1309 1309 1309
1347 1347 1347
1369 1369 1369
1408 1408 1408
1446 1446 1446
1485 1485 1485
1524 1524 1524
1563 1563 1563
1602 1602 1602
1641 1641 1641
1680 1680 1680
1703 1703 1703
1742 1742 1742
1782 1782 1782
1822 1822 1822
1861 1861 1861
1901 1901 1901
1941 1941 1941
1981 1981 1981
2021 2021 2021
2041 2041 2041
2079 2079 2079
2117 2117 2117
2155 2155 2155
2192 2192 2192
2229 2229 2229
2267 2267 2267
2304 2304 2304
2342 2342 2342
2363 2363 2363
2401 2401 2401
2438 2438 2438
2475 2475 2475
2512 2512 2512
2549 2549 2549
2586 2586 2586
2624 2624 2624
2661 2661 2661
2682 2682 2682
2719 2719 2719
2756 2756 2756
2793 2793 2793
2830 2830 2830
2866 2866 2866
2903 2903 2903
2940 2940 2940
2976 2976 2976
2997 2997 2997
3034 3034 3034
3070 3070 3070
3107 3107 3107
3143 3143 3143
3179 3179 3179
3215 3215 3215
3251 3251 3251
3287 3287 3287
592 592 592
627 627 627
663 663 663
699 699 699
735 735 735
770 770 770
807 807 807
843 843 843
880 880 880
901 901 901
938 938 938
975 975 975
1012 1012 1012
1049 1049 1049
1086 1086 1086
1124 1124 1124
1162 1162 1162
1200 1200 1200
1222 1222 1222
1260 1260 1260
1298 1298 1298
1336 1336 1336
1375 1375 1375
1413 1413 1413
1452 1452 1452
1490 1490 1490
1529 1529 1529
1552 1552 1552
1591 1591 1591
1630 1630 1630
1669 1669 1669
1709 1709 1709
1748 1748 1748
1787 1787 1787
1827 1827 1827
1867 1867 1867
1890 1890 1890
1930 1930 1930
1970 1970 1970
2010 2010 2010
2050 2050 2050
2087 2087 2087
2125 2125 2125
2162 2162 2162
2200 2200 2200
2219 2219 2219
2256 2256 2256
2294 2294 2294
2331 2331 2331
2369 2369 2369
2406 2406 2406
2443 2443 2443
2480 2480 2480
2517 2517 2517
2539 2539 2539
2576 2576 2576
2613 2613 2613
2650 2650 2650
2687 2687 2687
2724 2724 2724
2761 2761 2761
2798 2798 2798
2835 2835 2835
2856 2856 2856
2893 2893 2893
2929 2929 2929
2966 2966 2966
3003 3003 3003
3039 3039 3039
3075 3075 3075
3112 3112 3112
3148 3148 3148
3169 3169 3169
3205 3205 3205
3241 3241 3241
3277 3277 3277
3313 3313 3313
3349 3349 3349
3385 3385 3385
3421 3421 3421
3456 3456 3456
759 759 759
795 795 795
832 832 832
868 868 868
905 905 905
941 941 941
978 978 978
1016 1016 1016
1053 1053 1053
1075 1075 1075
1112 1112 1112
1150 1150 1150
1188 1188 1188
1226 1226 1226
1264 1264 1264
1302 1302 1302
1340 1340 1340
1378 1378 1378
1401 1401 1401
1439 1439 1439
1478 1478 1478
1517 1517 1517
1556 1556 1556
1595 1595 1595
1634 1634 1634
1673 1673 1673
1713 1713 1713
1735 1735 1735
1775 1775 1775
1814 1814 1814
1854 1854 1854
1894 1894 1894
1934 1934 1934
1973 1973 1973
2014 2014 2014
2053 2053 2053
2075 2075 2075
2113 2113 2113
2150 2150 2150
2188 2188 2188
2225 2225 2225
2263 2263 2263
2300 2300 2300
2337 2337 2337
2375 2375 2375
2394 2394 2394
2431 2431 2431
2468 2468 2468
2506 2506 2506
2543 2543 2543
2580 2580 2580
2617 2617 2617
2654 2654 2654
2691 2691 2691
2712 2712 2712
2749 2749 2749
2786 2786 2786
2823 2823 2823
2860 2860 2860
2896 2896 2896
2933 2933 2933
2970 2970 2970
3006 3006 3006
3027 3027 3027
3064 3064 3064
3100 3100 3100
3137 3137 3137
3173 3173 3173
3209 3209 3209
3245 3245 3245
3281 3281 3281
3317 3317 3317
3338 3338 3338
3374 3374 3374
3409 3409 3409
3445 3445 3445
3481 3481 3481
3516 3516 3516
3551 3551 3551
3587 3587 3587
3622 3622 3622
931 931 931
968 968 968
1005 1005 1005
1043 1043 1043
1080 1080 1080
1117 1117 1117
1155 1155 1155
1193 1193 1193
1231 1231 1231
1253 1253 1253
1291 1291 1291
1329 1329 1329
1368 1368 1368
1406 1406 1406
1445 1445 1445
1483 1483 1483
1522 1522 1522
1561 1561 1561
1584 1584 1584
1623 1623 1623
1662 1662 1662
1702 1702 1702
1741 1741 1741
1780 1780 1780
1820 1820 1820
1860 1860 1860
1899 1899 1899
1922 1922 1922
1962 1962 1962
2002 2002 2002
2043 2043 2043
2080 2080 2080
2118 2118 2118
2155 2155 2155
2193 2193 2193
2230 2230 2230
2252 2252 2252
2290 2290 2290
2327 2327 2327
2364 2364 2364
2402 2402 2402
2439 2439 2439
2476 2476 2476
2513 2513 2513
2550 2550 2550
2569 2569 2569
2607 2607 2607
2644 2644 2644
2681 2681 2681
2718 2718 2718
2754 2754 2754
2791 2791 2791
2828 2828 2828
2865 2865 2865
2886 2886 2886
2923 2923 2923
2959 2959 2959
2996 2996 2996
3033 3033 3033
3069 3069 3069
3105 3105 3105
3141 3141 3141
3178 3178 3178
3199 3199 3199
3235 3235 3235
3271 3271 3271
3307 3307 3307
3343 3343 3343
3379 3379 3379
3414 3414 3414
3450 3450 3450
3486 3486 3486
3506 3506 3506
3542 3542 3542
3577 3577 3577
3612 3612 3612
3647 3647 3647
3682 3682 3682
3717 3717 3717
3751 3751 3751
3786 3786 3786
1107 1107 1107
1145 1145 1145
1182 1182 1182
1220 1220 1220
1258 1258 1258
1296 1296 1296
1335 1335 1335
1373 1373 1373
1412 1412 1412
1434 1434 1434
1473 1473 1473
1511 1511 1511
1550 1550 1550
1589 1589 1589
1628 1628 1628
1668 1668 1668
1707 1707 1707
1746 1746 1746
1769 1769 1769
1809 1809 1809
1848 1848 1848
1888 1888 1888
1928 1928 1928
1968 1968 1968
2008 2008 2008
2048 2048 2048
2086 2086 2086
2107 2107 2107
2145 2145 2145
2182 2182 2182
2220 2220 2220
2258 2258 2258
2295 2295 2295
2332 2332 2332
2369 2369 2369
2407 2407 2407
2428 2428 2428
2466 2466 2466
2503 2503 2503
2540 2540 2540
2577 2577 2577
2614 2614 2614
2651 2651 2651
2688 2688 2688
2725 2725 2725
2744 2744 2744
2781 2781 2781
2818 2818 2818
2855 2855 2855
2891 2891 2891
2928 2928 2928
2964 2964 2964
3001 3001 3001
3037 3037 3037
3059 3059 3059
3095 3095 3095
3131 3131 3131
3168 3168 3168
3204 3204 3204
3240 3240 3240
3276 3276 3276
3312 3312 3312
3348 3348 3348
3369 3369 3369
3404 3404 3404
3440 3440 3440
3476 3476 3476
3511 3511 3511
3546 3546 3546
3582 3582 3582
3617 3617 3617
3652 3652 3652
3672 3672 3672
3707 3707 3707
3742 3742 3742
3776 3776 3776
3811 3811 3811
3845 3845 3845
3879 3879 3879
3912 3912 3912
3946 3946 3946
1286 1286 1286
1324 1324 1324
1362 1362 1362
1401 1401 1401
1439 1439 1439
1478 1478 1478
1517 1517 1517
1556 1556 1556
1595 1595 1595
1617 1617 1617
1657 1657 1657
1696 1696 1696
1735 1735 1735
1775 1775 1775
1814 1814 1814
1854 1854 1854
1894 1894 1894
1934 1934 1934
1957 1957 1957
1997 1997 1997
2037 2037 2037
2075 2075 2075
2113 2113 2113
2150 2150 2150
2188 2188 2188
2225 2225 2225
2263 2263 2263
2284 2284 2284
2322 2322 2322
2359 2359 2359
2396 2396 2396
2434 2434 2434
2471 2471 2471
2508 2508 2508
2545 2545 2545
2582 2582 2582
2604 2604 2604
2641 2641 2641
2678 2678 2678
2715 2715 2715
2752 2752 2752
2788 2788 2788
2825 2825 2825
2862 2862 2862
2899 2899 2899
2918 2918 2918
2954 2954 2954
2991 2991 2991
3027 3027 3027
3064 3064 3064
3100 3100 3100
3136 3136 3136
3173 3173 3173
3209 3209 3209
3230 3230 3230
3266 3266 3266
3302 3302 3302
3338 3338 3338
3374 3374 3374
3409 3409 3409
3445 3445 3445
3481 3481 3481
3516 3516 3516
3537 3537 3537
3572 3572 3572
3607 3607 3607
3642 3642 3642
3677 3677 3677
3712 3712 3712
3747 3747 3747
3781 3781 3781
3815 3815 3815
3835 3835 3835
3869 3869 3869
3903 3903 3903
3936 3936 3936
3970 3970 3970
4002 4002 4002
4034 4034 4034
4066 4066 4066
4095 4095 4095
