public/luts/Fuji XTrans III - Pro Neg Std.3dl
#Fujifilm Fuji XTrans III - Pro Neg Std — analytically generated
0 64 128 192 256 320 384 448 512 575 639 703 767 831 895 959 1023
98 63 41
103 68 353
108 72 599
111 76 825
115 79 1039
118 83 1245
122 86 1444
125 89 1638
128 93 1827
131 96 2010
134 99 2200
138 102 2396
141 105 2599
145 109 2811
148 113 3037
153 117 3286
158 122 3610
125 396 68
130 401 379
134 405 625
138 409 852
142 412 1066
145 416 1272
149 419 1471
152 422 1665
155 426 1854
158 429 2036
161 432 2226
165 435 2422
168 438 2625
172 442 2838
175 446 3064
179 450 3313
185 455 3637
146 659 89
152 664 401
156 668 647
159 672 873
163 675 1087
167 679 1293
170 682 1492
173 685 1686
176 689 1875
179 692 2058
182 695 2248
186 698 2444
189 702 2647
193 705 2859
197 709 3085
201 713 3334
206 719 3658
166 901 109
171 906 420
175 910 666
179 914 892
183 917 1107
186 921 1312
189 924 1511
193 927 1705
196 931 1895
199 934 2077
202 937 2267
205 940 2463
209 943 2666
212 947 2879
216 951 3105
220 955 3353
226 960 3678
184 1130 127
190 1135 439
194 1139 685
197 1143 911
201 1146 1125
204 1150 1331
208 1153 1530
211 1156 1724
214 1160 1913
217 1163 2096
220 1166 2286
224 1169 2482
227 1173 2685
231 1176 2897
235 1180 3123
239 1184 3372
244 1189 3696
202 1350 145
207 1355 456
211 1359 702
215 1363 929
219 1366 1143
222 1370 1348
226 1373 1548
229 1376 1742
232 1380 1931
235 1383 2113
238 1386 2303
241 1389 2499
245 1393 2702
248 1396 2915
252 1400 3141
256 1404 3389
262 1409 3714
219 1563 162
224 1568 474
229 1572 720
232 1576 946
236 1579 1160
239 1583 1366
243 1586 1565
246 1589 1759
249 1593 1948
252 1596 2131
255 1599 2321
259 1602 2516
262 1606 2720
266 1609 2932
269 1613 3158
274 1617 3407
279 1622 3731
236 1770 179
241 1775 490
245 1779 736
249 1783 962
253 1787 1177
256 1790 1382
259 1794 1582
263 1797 1775
266 1800 1965
269 1803 2147
272 1806 2337
275 1809 2533
279 1813 2736
282 1816 2949
286 1820 3175
290 1824 3423
296 1830 3748
252 1973 195
258 1978 507
262 1982 753
265 1986 979
269 1989 1193
272 1993 1399
276 1996 1598
279 1999 1792
282 2003 1981
285 2006 2164
288 2009 2354
292 2012 2550
295 2016 2753
299 2019 2965
302 2023 3191
307 2027 3440
312 2032 3764
268 2168 211
273 2173 522
277 2177 768
281 2181 995
285 2184 1209
288 2188 1414
292 2191 1614
295 2194 1807
298 2198 1997
301 2201 2179
304 2204 2369
307 2207 2565
311 2211 2768
314 2214 2981
318 2218 3207
322 2222 3455
328 2228 3780
284 2371 227
290 2376 539
294 2380 785
298 2384 1011
301 2388 1225
305 2391 1431
308 2394 1630
311 2398 1824
314 2401 2013
317 2404 2196
321 2407 2386
324 2410 2582
327 2414 2785
331 2417 2997
335 2421 3223
339 2425 3472
344 2431 3796
301 2581 244
307 2586 556
311 2590 802
314 2594 1028
318 2597 1242
321 2601 1448
325 2604 1647
328 2607 1841
331 2610 2030
334 2613 2213
337 2617 2403
341 2620 2599
344 2623 2802
348 2627 3014
351 2631 3240
356 2635 3489
361 2640 3813
319 2798 262
324 2803 573
328 2807 819
332 2811 1045
336 2814 1260
339 2818 1465
342 2821 1664
346 2824 1858
349 2828 2048
352 2831 2230
355 2834 2420
358 2837 2616
362 2841 2819
365 2844 3032
369 2848 3258
373 2852 3506
379 2858 3831
337 3025 280
342 3030 592
347 3034 838
350 3038 1064
354 3042 1278
357 3045 1484
361 3049 1683
364 3052 1877
367 3055 2066
370 3058 2248
373 3061 2439
377 3065 2634
380 3068 2838
384 3071 3050
387 3075 3276
392 3079 3525
397 3085 3849
357 3267 300
362 3272 611
366 3276 857
370 3280 1083
373 3284 1297
377 3287 1503
380 3290 1702
383 3294 1896
387 3297 2086
390 3300 2268
393 3303 2458
396 3306 2654
399 3310 2857
403 3313 3070
407 3317 3296
411 3321 3544
416 3327 3869
378 3533 321
383 3538 632
387 3542 878
391 3546 1105
395 3549 1319
398 3553 1524
402 3556 1724
405 3559 1918
408 3562 2107
411 3565 2289
414 3569 2479
418 3572 2675
421 3575 2878
424 3579 3091
428 3583 3317
432 3587 3565
438 3592 3890
406 3880 349
411 3885 660
415 3889 906
419 3893 1133
423 3896 1347
426 3900 1552
430 3903 1752
433 3906 1946
436 3910 2135
439 3913 2317
442 3916 2507
446 3919 2703
449 3922 2906
452 3926 3119
456 3930 3345
460 3934 3593
466 3939 3918
405 76 54
410 81 366
414 85 612
418 89 838
422 92 1052
425 96 1258
429 99 1457
432 103 1651
435 106 1840
438 109 2023
441 112 2213
445 115 2409
448 119 2612
451 122 2824
455 126 3050
459 130 3299
465 136 3623
432 409 81
437 414 393
441 418 639
445 422 865
449 425 1079
452 429 1285
455 432 1484
459 436 1678
462 439 1867
465 442 2050
468 445 2240
471 448 2435
475 452 2639
478 455 2851
482 459 3077
486 463 3326
492 469 3650
453 672 102
458 677 414
462 681 660
466 685 886
470 689 1100
473 692 1306
477 695 1505
480 699 1699
483 702 1888
486 705 2071
489 708 2261
493 711 2457
496 715 2660
500 718 2872
503 722 3098
507 726 3347
513 732 3671
473 914 122
478 919 433
482 923 679
486 927 906
489 930 1120
493 934 1325
496 937 1525
499 940 1718
503 944 1908
506 947 2090
509 950 2280
512 953 2476
515 957 2679
519 960 2892
523 964 3118
527 968 3366
532 974 3691
491 1143 140
496 1148 452
500 1152 698
504 1156 924
508 1160 1138
511 1163 1344
515 1166 1543
518 1170 1737
521 1173 1926
524 1176 2109
527 1179 2299
531 1182 2495
534 1186 2698
538 1189 2910
541 1193 3136
545 1197 3385
551 1203 3709
509 1363 158
514 1368 470
518 1372 716
522 1376 942
526 1380 1156
529 1383 1362
532 1386 1561
536 1390 1755
539 1393 1944
542 1396 2126
545 1399 2317
548 1402 2512
552 1406 2716
555 1409 2928
559 1413 3154
563 1417 3403
569 1423 3727
526 1576 175
531 1581 487
535 1585 733
539 1589 959
543 1593 1173
546 1596 1379
550 1599 1578
553 1603 1772
556 1606 1961
559 1609 2144
562 1612 2334
565 1615 2530
569 1619 2733
572 1622 2945
576 1626 3171
580 1630 3420
586 1636 3744
543 1783 192
548 1788 503
552 1793 749
556 1796 976
559 1800 1190
563 1803 1395
566 1807 1595
570 1810 1789
573 1813 1978
576 1816 2160
579 1819 2350
582 1823 2546
586 1826 2749
589 1830 2962
593 1833 3188
597 1838 3436
603 1843 3761
559 1986 208
564 1991 520
568 1995 766
572 1999 992
576 2003 1206
579 2006 1412
583 2009 1611
586 2013 1805
589 2016 1994
592 2019 2177
595 2022 2367
599 2025 2563
602 2029 2766
606 2032 2978
609 2036 3204
613 2040 3453
619 2046 3777
575 2181 224
580 2186 536
584 2190 782
588 2194 1008
592 2198 1222
595 2201 1428
598 2204 1627
602 2208 1821
605 2211 2010
608 2214 2192
611 2217 2383
614 2220 2578
618 2224 2782
621 2227 2994
625 2231 3220
629 2235 3469
635 2241 3793
591 2384 241
596 2389 552
601 2393 798
604 2397 1024
608 2401 1238
611 2404 1444
615 2408 1643
618 2411 1837
621 2414 2026
624 2417 2209
627 2420 2399
631 2424 2595
634 2427 2798
638 2431 3010
641 2434 3237
646 2438 3485
651 2444 3810
608 2594 257
613 2599 569
617 2603 815
621 2607 1041
625 2610 1255
628 2614 1461
632 2617 1660
635 2620 1854
638 2624 2043
641 2627 2226
644 2630 2416
648 2633 2612
651 2636 2815
655 2640 3027
658 2644 3253
662 2648 3502
668 2653 3826
626 2811 275
631 2816 586
635 2820 832
639 2824 1058
642 2828 1273
646 2831 1478
649 2834 1678
652 2838 1871
656 2841 2061
659 2844 2243
662 2847 2433
665 2850 2629
668 2854 2832
672 2857 3045
676 2861 3271
680 2865 3519
685 2871 3844
644 3038 293
649 3043 605
653 3048 851
657 3051 1077
661 3055 1291
664 3058 1497
667 3062 1696
671 3065 1890
674 3068 2079
677 3071 2262
680 3074 2452
683 3078 2648
687 3081 2851
690 3085 3063
694 3088 3289
698 3093 3538
704 3098 3862
663 3280 313
669 3285 624
673 3289 870
677 3293 1096
680 3297 1310
684 3300 1516
687 3303 1715
690 3307 1909
693 3310 2099
696 3313 2281
700 3316 2471
703 3319 2667
706 3323 2870
710 3326 3083
714 3330 3309
718 3334 3557
723 3340 3882
685 3546 334
690 3551 646
694 3555 892
698 3559 1118
702 3562 1332
705 3566 1538
708 3569 1737
712 3572 1931
715 3576 2120
718 3579 2302
721 3582 2493
724 3585 2688
728 3588 2892
731 3592 3104
735 3596 3330
739 3600 3579
745 3605 3903
713 3893 362
718 3898 674
722 3902 920
726 3906 1146
730 3909 1360
733 3913 1566
736 3916 1765
740 3920 1959
743 3923 2148
746 3926 2330
749 3929 2521
752 3932 2716
756 3936 2920
759 3939 3132
763 3943 3358
767 3947 3607
773 3953 3931
655 86 65
660 92 376
664 96 622
668 100 849
672 103 1063
675 107 1268
679 110 1468
682 113 1662
685 116 1851
688 119 2033
691 123 2223
695 126 2419
698 129 2622
702 133 2835
705 137 3061
709 141 3309
715 146 3634
682 419 92
687 425 403
691 429 649
695 433 875
699 436 1090
702 440 1295
705 443 1495
709 446 1688
712 449 1878
715 452 2060
718 456 2250
721 459 2446
725 462 2649
728 466 2862
732 470 3088
736 474 3336
742 479 3661
703 683 113
708 688 425
713 692 671
716 696 897
720 699 1111
723 703 1317
727 706 1516
730 709 1710
733 712 1899
736 716 2081
739 719 2272
743 722 2467
746 725 2671
750 729 2883
753 733 3109
758 737 3358
763 742 3682
723 924 133
728 930 444
732 934 690
736 938 916
739 941 1130
743 945 1336
746 948 1535
749 951 1729
753 954 1919
756 957 2101
759 961 2291
762 964 2487
766 967 2690
769 971 2903
773 975 3129
777 979 3377
783 984 3702
741 1154 151
746 1159 463
751 1163 709
754 1167 935
758 1170 1149
761 1174 1355
765 1177 1554
768 1180 1748
771 1183 1937
774 1186 2119
777 1190 2309
781 1193 2505
784 1196 2709
788 1200 2921
791 1204 3147
796 1208 3396
801 1213 3720
759 1374 169
764 1379 480
768 1383 726
772 1387 952
776 1390 1167
779 1394 1372
782 1397 1571
786 1400 1765
789 1403 1955
792 1406 2137
795 1410 2327
798 1413 2523
802 1416 2726
805 1420 2939
809 1424 3165
813 1428 3413
819 1433 3738
776 1587 186
781 1592 497
785 1596 743
789 1600 970
793 1603 1184
796 1607 1389
800 1610 1589
803 1613 1783
806 1616 1972
809 1619 2154
812 1623 2344
816 1626 2540
819 1629 2743
823 1633 2956
826 1637 3182
830 1641 3430
836 1646 3755
793 1794 203
798 1799 514
802 1803 760
806 1807 986
810 1811 1200
813 1814 1406
816 1817 1605
820 1821 1799
823 1824 1989
826 1827 2171
829 1830 2361
832 1833 2557
836 1837 2760
839 1840 2973
843 1844 3199
847 1848 3447
853 1854 3772
809 1997 219
814 2002 530
819 2006 776
822 2010 1003
826 2013 1217
829 2017 1423
833 2020 1622
836 2023 1816
839 2026 2005
842 2029 2187
845 2033 2377
849 2036 2573
852 2039 2776
856 2043 2989
859 2047 3215
864 2051 3464
869 2056 3788
825 2192 235
830 2197 546
834 2201 792
838 2205 1018
842 2208 1233
845 2212 1438
848 2215 1637
852 2218 1831
855 2221 2021
858 2225 2203
861 2228 2393
864 2231 2589
868 2234 2792
871 2238 3005
875 2242 3231
879 2246 3479
885 2251 3804
841 2395 251
847 2400 563
851 2404 809
854 2408 1035
858 2412 1249
861 2415 1455
865 2418 1654
868 2422 1848
871 2425 2037
874 2428 2220
877 2431 2410
881 2434 2605
884 2438 2809
888 2441 3021
891 2445 3247
896 2449 3496
901 2455 3820
858 2604 268
863 2610 580
868 2614 825
871 2617 1052
875 2621 1266
878 2624 1472
882 2628 1671
885 2631 1865
888 2634 2054
891 2637 2236
894 2640 2426
898 2644 2622
901 2647 2825
905 2651 3038
908 2654 3264
913 2659 3513
918 2664 3837
876 2822 286
881 2827 597
885 2831 843
889 2835 1069
892 2838 1283
896 2842 1489
899 2845 1688
902 2848 1882
906 2851 2072
909 2855 2254
912 2858 2444
915 2861 2640
919 2864 2843
922 2868 3056
926 2872 3282
930 2876 3530
935 2881 3855
894 3049 304
899 3054 615
903 3058 861
907 3062 1088
911 3066 1302
914 3069 1507
918 3072 1707
921 3076 1900
924 3079 2090
927 3082 2272
930 3085 2462
933 3088 2658
937 3092 2861
940 3095 3074
944 3099 3300
948 3103 3548
954 3109 3873
914 3291 323
919 3296 635
923 3300 881
927 3304 1107
930 3307 1321
934 3311 1527
937 3314 1726
940 3317 1920
943 3321 2109
947 3324 2292
950 3327 2482
953 3330 2678
956 3333 2881
960 3337 3093
964 3341 3319
968 3345 3568
973 3350 3892
935 3556 345
940 3562 656
944 3566 902
948 3569 1128
952 3573 1343
955 3576 1548
958 3580 1747
962 3583 1941
965 3586 2131
968 3589 2313
971 3592 2503
974 3596 2699
978 3599 2902
981 3603 3115
985 3607 3341
989 3611 3589
995 3616 3914
963 3903 373
968 3909 684
972 3913 930
976 3917 1156
980 3920 1371
983 3924 1576
986 3927 1775
990 3930 1969
993 3933 2159
996 3936 2341
999 3940 2531
1002 3943 2727
1006 3946 2930
1009 3950 3143
1013 3954 3369
1017 3958 3617
1023 3963 3942
887 96 75
893 102 386
897 106 632
901 110 859
904 113 1073
908 117 1278
911 120 1478
914 123 1671
917 126 1861
920 129 2043
924 133 2233
927 136 2429
930 139 2632
934 143 2845
938 147 3071
942 151 3319
947 156 3644
914 429 102
920 435 413
924 439 659
927 443 885
931 446 1100
935 450 1305
938 453 1504
941 456 1698
944 459 1888
947 462 2070
950 466 2260
954 469 2456
957 472 2659
961 476 2872
965 480 3098
969 484 3346
