public/luts/Fuji XTrans III - Classic Chrome.3dl
#Fujifilm Fuji XTrans III - Classic Chrome — analytically generated
0 256 512 767 1023
155 174 189
180 211 925
206 251 1702
231 288 2445
253 323 3122
284 1067 435
309 1105 1171
335 1144 1948
360 1182 2691
382 1209 3284
435 1964 635
471 1988 1338
510 2013 2081
546 2037 2790
581 2059 3445
623 2778 707
659 2801 1410
698 2827 2153
734 2851 2862
770 2878 3601
810 3640 810
840 3671 1529
873 3703 2289
904 3734 3016
940 3766 3764
909 272 312
933 309 1048
959 348 1826
984 386 2569
1004 419 3204
1038 1165 558
1062 1202 1294
1099 1230 2042
1136 1254 2752
1168 1273 3363
1219 2027 672
1256 2050 1375
1294 2075 2117
1331 2099 2827
1367 2123 3524
1407 2840 744
1444 2864 1447
1477 2895 2204
1508 2926 2931
1539 2958 3681
1579 3721 890
1610 3751 1610
1651 3784 2365
1690 3816 3087
1731 3848 3832
1705 375 443
1729 412 1179
1755 452 1956
1780 489 2700
1805 515 3289
1852 1247 636
1889 1271 1339
1927 1296 2081
1964 1320 2791
1999 1341 3446
2048 2092 711
2084 2116 1414
2123 2141 2156
2159 2165 2866
2194 2194 3608
2226 2917 810
2257 2947 1529
2289 2980 2289
2320 3011 3015
2356 3045 3764
2406 3806 967
2445 3838 1682
2487 3871 2437
2526 3902 3159
2567 3935 3904
2466 474 568
2491 511 1303
2529 536 2045
2566 560 2755
2599 580 3369
2644 1310 673
2681 1334 1376
2719 1359 2118
2756 1383 2828
2793 1406 3526
2840 2155 748
2876 2180 1452
2908 2212 2212
2939 2243 2939
2971 2275 3689
3003 2998 890
3033 3028 1610
3076 3066 2366
3116 3103 3089
3158 3140 3835
3206 3889 1035
3245 3920 1750
3286 3953 2505
3325 3985 3227
3366 4017 3973
3272 552 638
3309 576 1341
3347 601 2083
3384 625 2793
3419 647 3451
3462 1375 711
3499 1399 1414
3537 1424 2156
3574 1448 2866
3608 1476 3608
3647 2233 816
3677 2263 1536
3710 2296 2296
3740 2327 3022
3773 2362 3769
3806 3089 966
3837 3124 1681
3870 3162 2436
3901 3197 3158
3934 3234 3903
3968 3968 1100
3998 3998 1814
4030 4030 2568
4061 4061 3289
4092 4092 4033
