public/luts/Fuji XTrans III - Provia.3dl
#Fujifilm Fuji XTrans III - Provia — analytically generated
0 128 256 384 512 639 767 895 1023
53 0 0
47 0 484
40 0 1050
33 0 1634
26 0 2230
18 0 2816
11 0 3397
4 0 3963
0 0 4095
21 480 0
15 474 451
8 467 1017
1 459 1601
0 452 2197
0 445 2784
0 438 3365
0 431 3931
0 424 4095
0 1016 0
0 1010 415
0 1003 981
0 996 1565
0 988 2161
0 981 2748
0 974 3329
0 967 3895
0 960 4095
0 1575 0
0 1569 378
0 1562 944
0 1555 1528
0 1547 2124
0 1540 2710
0 1533 3291
0 1526 3858
0 1519 4095
0 2149 0
0 2143 339
0 2136 905
0 2129 1489
0 2122 2085
0 2115 2672
0 2107 3253
0 2100 3819
0 2094 4095
0 2710 0
0 2704 302
0 2697 868
0 2690 1452
0 2683 2047
0 2676 2634
0 2668 3215
0 2661 3781
0 2655 4095
0 3264 0
0 3258 264
0 3251 830
0 3244 1414
0 3237 2010
0 3230 2597
0 3222 3178
0 3215 3744
0 3209 4095
0 3801 0
0 3795 228
0 3788 794
0 3781 1378
0 3774 1974
0 3766 2561
0 3759 3142
0 3752 3708
0 3746 4095
0 4095 0
0 4095 195
0 4095 761
0 4095 1345
0 4095 1941
0 4095 2528
0 4095 3109
0 4095 3675
0 4095 4095
537 0 0
531 0 468
524 0 1034
517 0 1618
509 0 2214
502 0 2800
495 0 3381
488 0 3947
481 0 4095
505 464 0
499 458 435
492 451 1001
484 443 1585
477 436 2181
470 429 2768
463 422 3349
456 415 3915
449 408 4095
469 1000 0
463 994 399
456 987 965
448 980 1549
441 972 2145
434 965 2732
427 958 3313
420 951 3879
413 944 4095
431 1559 0
425 1553 362
418 1546 928
411 1539 1512
403 1531 2108
396 1524 2694
389 1517 3275
382 1510 3842
375 1503 4095
393 2133 0
387 2127 323
380 2120 889
372 2113 1473
365 2106 2069
358 2099 2656
350 2091 3237
343 2084 3803
337 2078 4095
355 2694 0
349 2688 286
342 2681 852
335 2674 1436
327 2667 2031
320 2660 2618
313 2652 3199
306 2645 3765
299 2639 4095
318 3248 0
312 3242 248
305 3235 814
297 3228 1398
290 3221 1994
283 3214 2581
276 3206 3162
269 3199 3728
262 3193 4095
282 3785 0
276 3779 212
269 3772 778
261 3765 1362
254 3758 1958
247 3750 2545
240 3743 3126
233 3736 3692
226 3730 4095
248 4095 0
242 4095 179
235 4095 745
228 4095 1329
221 4095 1925
214 4095 2512
206 4095 3093
199 4095 3659
193 4095 4095
1090 0 0
1084 0 449
1077 0 1015
1070 0 1599
1062 0 2195
1055 0 2782
1048 0 3363
1041 0 3929
1034 0 4095
1058 445 0
1052 439 417
1045 432 983
1037 425 1567
1030 418 2163
1023 410 2749
1016 403 3331
1009 396 3897
1002 390 4095
1022 982 0
1016 976 381
1009 969 947
1001 961 1531
994 954 2127
987 947 2713
980 939 3295
973 932 3861
966 926 4095
984 1541 0
978 1535 344
971 1528 909
964 1520 1493
957 1513 2089
949 1506 2676
942 1499 3257
935 1492 3823
929 1485 4095
946 2115 0
940 2109 305
933 2102 871
925 2095 1455
918 2088 2051
911 2080 2637
904 2073 3219
897 2066 3785
890 2060 4095
908 2676 0
902 2670 267
895 2663 833
888 2656 1417
880 2648 2013
873 2641 2600
866 2634 3181
859 2627 3747
852 2621 4095
871 3230 0
865 3224 230
858 3217 796
851 3210 1380
843 3203 1976
836 3195 2563
829 3188 3144
822 3181 3710
815 3175 4095
835 3767 0
829 3761 194
822 3754 760
814 3747 1344
807 3739 1940
800 3732 2526
793 3725 3108
786 3718 3674
779 3711 4095
801 4095 0
795 4095 161
788 4095 727
781 4095 1311
774 4095 1907
767 4095 2493
759 4095 3074
752 4095 3641
746 4095 4095
1673 0 0
1667 0 430
1660 0 996
1652 0 1580
1645 0 2176
1638 0 2762
1631 0 3344
1624 0 3910
1617 0 4095
1640 426 0
1634 420 398
1627 413 964
1620 406 1548
1613 398 2144
1605 391 2730
1598 384 3311
1591 377 3878
1585 370 4095
1604 962 0
1598 956 362
1591 949 928
1584 942 1512
1577 935 2108
1569 927 2694
1562 920 3275
1555 913 3842
1549 907 4095
1567 1521 0
1561 1515 324
1554 1508 890
1547 1501 1474
1539 1494 2070
1532 1487 2657
1525 1479 3238
1518 1472 3804
1511 1466 4095
1528 2096 0
1522 2090 286
1515 2083 852
1508 2076 1436
1501 2068 2032
1493 2061 2618
1486 2054 3199
1479 2047 3765
1473 2040 4095
1491 2657 0
1485 2651 248
1478 2644 814
1470 2637 1398
1463 2629 1994
1456 2622 2580
1449 2615 3162
1442 2608 3728
1435 2601 4095
1453 3211 0
1447 3205 211
1440 3198 777
1433 3191 1361
1426 3183 1957
1419 3176 2543
1411 3169 3124
1404 3162 3691
1398 3155 4095
1417 3748 0
1411 3742 175
1404 3735 741
1397 3727 1325
1390 3720 1921
1383 3713 2507
1375 3706 3088
1368 3699 3655
1362 3692 4095
1384 4095 0
1378 4095 142
1371 4095 708
1364 4095 1291
1357 4095 1887
1349 4095 2474
1342 4095 3055
1335 4095 3621
1329 4095 4095
2275 0 0
2269 0 410
2262 0 976
2255 0 1560
2248 0 2156
2241 0 2742
2233 0 3324
2226 0 3890
2220 0 4095
2243 406 0
2237 400 378
2230 393 944
2223 386 1528
2215 378 2124
2208 371 2710
2201 364 3291
2194 357 3858
2187 350 4095
2207 942 0
2201 936 342
2194 929 908
2187 922 1492
2179 915 2088
2172 907 2674
2165 900 3255
2158 893 3822
2151 887 4095
2170 1501 0
2164 1495 304
2157 1488 870
2149 1481 1454
2142 1474 2050
2135 1467 2637
2128 1459 3218
2121 1452 3784
2114 1446 4095
2131 2076 0
2125 2070 266
2118 2063 832
2111 2056 1416
2103 2048 2012
2096 2041 2598
2089 2034 3179
2082 2027 3746
2075 2020 4095
2093 2637 0
2087 2631 228
2080 2624 794
2073 2617 1378
2066 2609 1974
2058 2602 2560
2051 2595 3142
2044 2588 3708
2038 2581 4095
2056 3191 0
2050 3185 191
2043 3178 757
2036 3171 1341
2029 3163 1937
2021 3156 2523
2014 3149 3104
2007 3142 3671
2001 3135 4095
2020 3728 0
2014 3722 155
2007 3715 721
2000 3708 1305
1993 3700 1901
1985 3693 2487
1978 3686 3068
1971 3679 3635
1965 3672 4095
1987 4095 0
1981 4095 122
1974 4095 688
1967 4095 1272
1959 4095 1868
1952 4095 2454
1945 4095 3035
1938 4095 3601
1931 4095 4095
2864 0 0
2858 0 391
2851 0 957
2844 0 1541
2837 0 2136
2829 0 2723
2822 0 3304
2815 0 3870
2809 0 4095
2832 387 0
2826 381 358
2819 374 924
2812 366 1508
2804 359 2104
2797 352 2691
2790 345 3272
2783 338 3838
2776 331 4095
2796 923 0
2790 917 322
2783 910 888
2776 903 1472
2768 895 2068
2761 888 2655
2754 881 3236
2747 874 3802
2740 867 4095
2758 1482 0
2752 1476 285
2745 1469 851
2738 1462 1435
2731 1454 2031
2723 1447 2617
2716 1440 3198
2709 1433 3765
2703 1426 4095
2720 2056 0
2714 2050 246
2707 2043 812
2700 2036 1396
2692 2029 1992
2685 2022 2579
2678 2014 3160
2671 2007 3726
2664 2001 4095
2682 2617 0
2676 2611 209
2669 2604 775
2662 2597 1358
2654 2590 1954
2647 2583 2541
2640 2575 3122
2633 2568 3688
2627 2562 4095
2645 3171 0
2639 3165 171
2632 3158 737
2625 3151 1321
2617 3144 1917
2610 3137 2504
2603 3129 3085
2596 3122 3651
2589 3116 4095
2609 3708 0
2603 3702 135
2596 3695 701
2589 3688 1285
2581 3681 1881
2574 3673 2468
2567 3666 3049
2560 3659 3615
2553 3653 4095
2576 4095 0
2570 4095 102
2563 4095 668
2555 4095 1252
2548 4095 1848
2541 4095 2435
2534 4095 3016
2527 4095 3582
2520 4095 4095
3442 0 0
3436 0 371
3429 0 937
3421 0 1521
3414 0 2117
3407 0 2704
3400 0 3285
3393 0 3851
3386 0 4095
3409 367 0
3403 361 339
3396 354 905
3389 347 1489
3382 340 2085
3374 333 2672
3367 325 3253
3360 318 3819
3354 312 4095
3373 904 0
3367 898 303
3360 891 869
3353 883 1453
3346 876 2049
3338 869 2636
3331 862 3217
3324 855 3783
3318 848 4095
3336 1463 0
3330 1457 266
3323 1450 832
3316 1443 1416
3308 1435 2012
3301 1428 2598
3294 1421 3179
3287 1414 3745
3280 1407 4095
3297 2037 0
3291 2031 227
3284 2024 793
3277 2017 1377
3270 2010 1973
3262 2002 2560
3255 1995 3141
3248 1988 3707
3242 1982 4095
3260 2598 0
3254 2592 189
3247 2585 755
3239 2578 1339
3232 2571 1935
3225 2563 2522
3218 2556 3103
3211 2549 3669
3204 2543 4095
3222 3152 0
3216 3146 152
3209 3139 718
3202 3132 1302
3195 3125 1898
3188 3117 2485
3180 3110 3066
3173 3103 3632
3167 3097 4095
3186 3689 0
3180 3683 116
3173 3676 682
3166 3669 1266
3159 3662 1862
3152 3654 2449
3144 3647 3030
3137 3640 3596
3131 3634 4095
3153 4095 0
3147 4095 83
3140 4095 649
3133 4095 1233
3126 4095 1829
3118 4095 2415
3111 4095 2997
3104 4095 3563
3098 4095 4092
3996 0 0
3990 0 353
3983 0 919
3975 0 1503
3968 0 2099
3961 0 2686
3954 0 3267
3947 0 3833
3940 0 4095
3963 349 0
3957 343 321
3950 336 887
3943 329 1471
3936 322 2067
3928 314 2653
3921 307 3234
3914 300 3801
3908 294 4095
3927 885 0
3921 879 285
3914 872 851
3907 865 1435
3900 858 2031
3892 851 2617
3885 843 3198
3878 836 3765
3872 830 4095
3890 1444 0
3884 1438 247
3877 1431 813
3869 1424 1397
3862 1417 1993
3855 1410 2580
3848 1402 3161
3841 1395 3727
3834 1389 4095
3851 2019 0
3845 2013 209
3838 2006 775
3831 1999 1359
3824 1991 1955
3816 1984 2541
3809 1977 3122
3802 1970 3689
3796 1963 4095
3814 2580 0
3808 2574 171
3801 2567 737
3793 2560 1321
3786 2552 1917
3779 2545 2504
3771 2538 3085
3764 2531 3651
3758 2524 4095
3776 3134 0
3770 3128 134
3763 3121 700
3756 3114 1284
3749 3106 1880
3741 3099 2466
3734 3092 3048
3727 3085 3614
3721 3078 4095
3740 3671 0
3734 3665 98
3727 3658 664
3720 3651 1248
3713 3643 1844
3705 3636 2430
3698 3629 3012
3691 3622 3578
3685 3615 4095
3707 4095 0
3701 4095 65
3694 4095 631
3687 4095 1215
3679 4095 1811
3672 4095 2397
3665 4095 2978
3658 4095 3545
3652 4095 4073
4095 0 0
4095 0 338
4095 0 904
4095 0 1488
4095 0 2084
4095 0 2671
4095 0 3252
4095 0 3818
4095 0 4095
4095 334 0
4095 328 306
4095 321 872
4095 314 1456
4095 307 2052
4095 300 2639
4095 292 3220
4095 285 3786
4095 279 4095
4095 871 0
4095 865 270
4095 858 836
4095 850 1420
4095 843 2016
4095 836 2603
4095 829 3184
4095 822 3750
4095 815 4095
4095 1430 0
4095 1424 233
4095 1417 799
4095 1410 1383
4095 1402 1979
4095 1395 2565
4095 1388 3146
4095 1381 3712
4095 1374 4095
4095 2004 0
4095 1998 194
4095 1991 760
4095 1984 1344
4095 1977 1940
4095 1969 2526
4095 1962 3108
4095 1955 3674
4095 1949 4095
4095 2565 0
4095 2559 156
4095 2552 722
4095 2545 1306
4095 2538 1902
4095 2530 2489
4095 2523 3070
4095 2516 3636
4095 2510 4095
4095 3119 0
4095 3113 119
4095 3106 685
4095 3099 1269
4095 3092 1865
4095 3084 2452
4095 3077 3033
4095 3070 3599
4095 3064 4095
4095 3656 0
4095 3650 83
4095 3643 649
4095 3636 1233
4095 3629 1829
4095 3621 2416
4095 3614 2997
4095 3607 3563
4095 3601 4092
4095 4095 0
4095 4095 50
4095 4095 616
4095 4095 1200
4095 4095 1796
4095 4095 2382
4095 4095 2964
4095 4095 3530
4095 4095 4059
