public/luts/Fuji XTrans III - Mono+G.3dl
#Fujifilm Fuji XTrans III - Mono+G — analytically generated
0 256 512 767 1023
0 0 0
54 54 54
118 118 118
186 186 186
258 258 258
636 636 636
718 718 718
800 800 800
883 883 883
968 968 968
1392 1392 1392
1481 1481 1481
1570 1570 1570
1660 1660 1660
1751 1751 1751
2188 2188 2188
2274 2274 2274
2360 2360 2360
2446 2446 2446
2532 2532 2532
2946 2946 2946
3030 3030 3030
3113 3113 3113
3196 3196 3196
3279 3279 3279
161 161 161
231 231 231
305 305 305
380 380 380
457 457 457
852 852 852
937 937 937
1022 1022 1022
1107 1107 1107
1194 1194 1194
1627 1627 1627
1717 1717 1717
1808 1808 1808
1899 1899 1899
1992 1992 1992
2414 2414 2414
2500 2500 2500
2585 2585 2585
2670 2670 2670
2755 2755 2755
3165 3165 3165
3248 3248 3248
3330 3330 3330
3412 3412 3412
3493 3493 3493
351 351 351
428 428 428
506 506 506
585 585 585
666 666 666
1075 1075 1075
1162 1162 1162
1249 1249 1249
1336 1336 1336
1425 1425 1425
1865 1865 1865
1957 1957 1957
2050 2050 2050
2136 2136 2136
2223 2223 2223
2639 2639 2639
2724 2724 2724
2809 2809 2809
2893 2893 2893
2977 2977 2977
3382 3382 3382
3463 3463 3463
3544 3544 3544
3624 3624 3624
3704 3704 3704
555 555 555
635 635 635
717 717 717
799 799 799
883 883 883
1303 1303 1303
1391 1391 1391
1480 1480 1480
1569 1569 1569
1659 1659 1659
2103 2103 2103
2190 2190 2190
2276 2276 2276
2362 2362 2362
2448 2448 2448
2860 2860 2860
2945 2945 2945
3029 3029 3029
3112 3112 3112
3195 3195 3195
3594 3594 3594
3674 3674 3674
3753 3753 3753
3830 3830 3830
3907 3907 3907
768 768 768
851 851 851
936 936 936
1020 1020 1020
1106 1106 1106
1536 1536 1536
1626 1626 1626
1716 1716 1716
1807 1807 1807
1899 1899 1899
2330 2330 2330
2416 2416 2416
2502 2502 2502
2587 2587 2587
2672 2672 2672
3081 3081 3081
3164 3164 3164
3247 3247 3247
3329 3329 3329
3411 3411 3411
3802 3802 3802
3879 3879 3879
3954 3954 3954
4027 4027 4027
4095 4095 4095
