public/luts/Fuji XTrans III - Acros.3dl
#Fujifilm Fuji XTrans III - Acros — analytically generated
0 256 512 767 1023
20 20 20
96 96 96
188 188 188
288 288 288
393 393 393
519 519 519
631 631 631
747 747 747
864 864 864
985 985 985
1126 1126 1126
1250 1250 1250
1376 1376 1376
1503 1503 1503
1632 1632 1632
1780 1780 1780
1911 1911 1911
2044 2044 2044
2170 2170 2170
2295 2295 2295
2438 2438 2438
2561 2561 2561
2684 2684 2684
2805 2805 2805
2926 2926 2926
250 250 250
353 353 353
460 460 460
571 571 571
685 685 685
820 820 820
940 940 940
1061 1061 1061
1184 1184 1184
1309 1309 1309
1455 1455 1455
1584 1584 1584
1713 1713 1713
1844 1844 1844
1976 1976 1976
2123 2123 2123
2248 2248 2248
2373 2373 2373
2496 2496 2496
2619 2619 2619
2760 2760 2760
2881 2881 2881
3001 3001 3001
3120 3120 3120
3238 3238 3238
529 529 529
642 642 642
758 758 758
876 876 876
996 996 996
1138 1138 1138
1262 1262 1262
1388 1388 1388
1515 1515 1515
1644 1644 1644
1795 1795 1795
1927 1927 1927
2060 2060 2060
2185 2185 2185
2309 2309 2309
2450 2450 2450
2573 2573 2573
2695 2695 2695
2817 2817 2817
2937 2937 2937
3076 3076 3076
3194 3194 3194
3312 3312 3312
3428 3428 3428
3543 3543 3543
830 830 830
950 950 950
1072 1072 1072
1195 1195 1195
1320 1320 1320
1466 1466 1466
1595 1595 1595
1725 1725 1725
1855 1855 1855
1988 1988 1988
2137 2137 2137
2262 2262 2262
2386 2386 2386
2509 2509 2509
2632 2632 2632
2770 2770 2770
2891 2891 2891
3011 3011 3011
3130 3130 3130
3249 3249 3249
3383 3383 3383
3499 3499 3499
3612 3612 3612
3724 3724 3724
3833 3833 3833
1148 1148 1148
1273 1273 1273
1399 1399 1399
1526 1526 1526
1656 1656 1656
1806 1806 1806
1938 1938 1938
2071 2071 2071
2195 2195 2195
2320 2320 2320
2463 2463 2463
2586 2586 2586
2708 2708 2708
2829 2829 2829
2950 2950 2950
3086 3086 3086
3205 3205 3205
3322 3322 3322
3438 3438 3438
3552 3552 3552
3682 3682 3682
3793 3793 3793
3900 3900 3900
4003 4003 4003
4095 4095 4095
