public/luts/Fuji XTrans III - Mono+G.3dl
#Fujifilm Fuji XTrans III - Mono+G — analytically generated
0 128 256 384 512 639 767 895 1023
0 0 0
25 25 25
54 54 54
85 85 85
118 118 118
152 152 152
186 186 186
222 222 222
258 258 258
291 291 291
328 328 328
366 366 366
404 404 404
442 442 442
481 481 481
521 521 521
560 560 560
600 600 600
636 636 636
677 677 677
718 718 718
759 759 759
800 800 800
842 842 842
883 883 883
926 926 926
968 968 968
1006 1006 1006
1048 1048 1048
1091 1091 1091
1135 1135 1135
1178 1178 1178
1221 1221 1221
1265 1265 1265
1309 1309 1309
1353 1353 1353
1392 1392 1392
1436 1436 1436
1481 1481 1481
1526 1526 1526
1570 1570 1570
1615 1615 1615
1660 1660 1660
1706 1706 1706
1751 1751 1751
1788 1788 1788
1834 1834 1834
1879 1879 1879
1925 1925 1925
1971 1971 1971
2017 2017 2017
2063 2063 2063
2106 2106 2106
2149 2149 2149
2188 2188 2188
2231 2231 2231
2274 2274 2274
2317 2317 2317
2360 2360 2360
2403 2403 2403
2446 2446 2446
2489 2489 2489
2532 2532 2532
2569 2569 2569
2612 2612 2612
2655 2655 2655
2697 2697 2697
2740 2740 2740
2782 2782 2782
2824 2824 2824
2866 2866 2866
2908 2908 2908
2946 2946 2946
2988 2988 2988
3030 3030 3030
3071 3071 3071
3113 3113 3113
3154 3154 3154
3196 3196 3196
3237 3237 3237
3279 3279 3279
73 73 73
106 106 106
139 139 139
174 174 174
209 209 209
245 245 245
281 281 281
318 318 318
356 356 356
389 389 389
428 428 428
467 467 467
506 506 506
546 546 546
585 585 585
626 626 626
666 666 666
707 707 707
743 743 743
785 785 785
826 826 826
868 868 868
910 910 910
952 952 952
995 995 995
1037 1037 1037
1080 1080 1080
1118 1118 1118
1162 1162 1162
1205 1205 1205
1249 1249 1249
1293 1293 1293
1336 1336 1336
1381 1381 1381
1425 1425 1425
1469 1469 1469
1509 1509 1509
1554 1554 1554
1599 1599 1599
1644 1644 1644
1689 1689 1689
1734 1734 1734
1779 1779 1779
1825 1825 1825
1871 1871 1871
1908 1908 1908
1954 1954 1954
2000 2000 2000
2047 2047 2047
2090 2090 2090
2133 2133 2133
2176 2176 2176
2220 2220 2220
2263 2263 2263
2301 2301 2301
2344 2344 2344
2387 2387 2387
2430 2430 2430
2473 2473 2473
2515 2515 2515
2558 2558 2558
2601 2601 2601
2644 2644 2644
2681 2681 2681
2724 2724 2724
2766 2766 2766
2809 2809 2809
2851 2851 2851
2893 2893 2893
2935 2935 2935
2977 2977 2977
3019 3019 3019
3056 3056 3056
3097 3097 3097
3139 3139 3139
3181 3181 3181
3222 3222 3222
3263 3263 3263
3304 3304 3304
3346 3346 3346
3387 3387 3387
161 161 161
196 196 196
231 231 231
268 268 268
305 305 305
342 342 342
380 380 380
418 418 418
457 457 457
491 491 491
531 531 531
571 571 571
611 611 611
651 651 651
692 692 692
733 733 733
774 774 774
815 815 815
852 852 852
894 894 894
937 937 937
979 979 979
1022 1022 1022
1064 1064 1064
1107 1107 1107
1150 1150 1150
1194 1194 1194
1232 1232 1232
1276 1276 1276
1320 1320 1320
1364 1364 1364
1409 1409 1409
1453 1453 1453
1497 1497 1497
1542 1542 1542
1587 1587 1587
1627 1627 1627
1672 1672 1672
1717 1717 1717
1763 1763 1763
1808 1808 1808
1854 1854 1854
1899 1899 1899
1945 1945 1945
1992 1992 1992
2029 2029 2029
2074 2074 2074
2117 2117 2117
2160 2160 2160
2204 2204 2204
2247 2247 2247
2290 2290 2290
2333 2333 2333
2376 2376 2376
2414 2414 2414
2457 2457 2457
2500 2500 2500
2543 2543 2543
2585 2585 2585
2628 2628 2628
2670 2670 2670
2713 2713 2713
2755 2755 2755
2793 2793 2793
2835 2835 2835
2877 2877 2877
2919 2919 2919
2961 2961 2961
3003 3003 3003
3045 3045 3045
3087 3087 3087
3128 3128 3128
3165 3165 3165
3207 3207 3207
3248 3248 3248
3289 3289 3289
3330 3330 3330
3371 3371 3371
3412 3412 3412
3453 3453 3453
3493 3493 3493
254 254 254
291 291 291
328 328 328
366 366 366
404 404 404
442 442 442
481 481 481
521 521 521
560 560 560
596 596 596
636 636 636
677 677 677
718 718 718
759 759 759
800 800 800
842 842 842
883 883 883
926 926 926
963 963 963
1006 1006 1006
1048 1048 1048
1091 1091 1091
1135 1135 1135
1178 1178 1178
1221 1221 1221
1265 1265 1265
1309 1309 1309
1348 1348 1348
1392 1392 1392
1436 1436 1436
1481 1481 1481
1526 1526 1526
1570 1570 1570
1615 1615 1615
1660 1660 1660
1706 1706 1706
1746 1746 1746
1791 1791 1791
1837 1837 1837
1883 1883 1883
1929 1929 1929
1974 1974 1974
2020 2020 2020
2066 2066 2066
2109 2109 2109
2144 2144 2144
2188 2188 2188
2231 2231 2231
2274 2274 2274
2317 2317 2317
2360 2360 2360
2403 2403 2403
2446 2446 2446
2489 2489 2489
2527 2527 2527
2569 2569 2569
2612 2612 2612
2655 2655 2655
2697 2697 2697
2739 2739 2739
2782 2782 2782
2824 2824 2824
2866 2866 2866
2904 2904 2904
2946 2946 2946
2988 2988 2988
3030 3030 3030
3071 3071 3071
3113 3113 3113
3154 3154 3154
3196 3196 3196
3237 3237 3237
3274 3274 3274
3315 3315 3315
3356 3356 3356
3397 3397 3397
3438 3438 3438
3478 3478 3478
3519 3519 3519
3559 3559 3559
3599 3599 3599
351 351 351
389 389 389
428 428 428
467 467 467
506 506 506
545 545 545
585 585 585
626 626 626
666 666 666
702 702 702
743 743 743
785 785 785
826 826 826
868 868 868
910 910 910
952 952 952
995 995 995
1037 1037 1037
1075 1075 1075
1118 1118 1118
1162 1162 1162
1205 1205 1205
1249 1249 1249
1292 1292 1292
1336 1336 1336
1381 1381 1381
1425 1425 1425
1464 1464 1464
1509 1509 1509
1554 1554 1554
1599 1599 1599
1644 1644 1644
1689 1689 1689
1734 1734 1734
1779 1779 1779
1825 1825 1825
1865 1865 1865
1911 1911 1911
1957 1957 1957
2003 2003 2003
2050 2050 2050
2093 2093 2093
2136 2136 2136
2179 2179 2179
2223 2223 2223
2258 2258 2258
2301 2301 2301
2344 2344 2344
2387 2387 2387
2430 2430 2430
2473 2473 2473
2515 2515 2515
2558 2558 2558
2601 2601 2601
2639 2639 2639
2681 2681 2681
2724 2724 2724
2766 2766 2766
2809 2809 2809
2850 2850 2850
2893 2893 2893
2935 2935 2935
2977 2977 2977
3014 3014 3014
3056 3056 3056
3097 3097 3097
3139 3139 3139
3181 3181 3181
3222 3222 3222
3263 3263 3263
3304 3304 3304
3346 3346 3346
3382 3382 3382
3423 3423 3423
3463 3463 3463
3504 3504 3504
3544 3544 3544
3584 3584 3584
3624 3624 3624
3664 3664 3664
3704 3704 3704
451 451 451
491 491 491
530 530 530
570 570 570
610 610 610
650 650 650
691 691 691
732 732 732
773 773 773
810 810 810
851 851 851
893 893 893
936 936 936
978 978 978
1020 1020 1020
1063 1063 1063
1106 1106 1106
1150 1150 1150
1188 1188 1188
1232 1232 1232
1275 1275 1275
1319 1319 1319
1363 1363 1363
1407 1407 1407
1452 1452 1452
1496 1496 1496
1541 1541 1541
1581 1581 1581
1626 1626 1626
1671 1671 1671
1716 1716 1716
1762 1762 1762
1807 1807 1807
1853 1853 1853
1899 1899 1899
1945 1945 1945
1985 1985 1985
2031 2031 2031
2076 2076 2076
2119 2119 2119
2163 2163 2163
2206 2206 2206
2249 2249 2249
2292 2292 2292
2335 2335 2335
2370 2370 2370
2413 2413 2413
2456 2456 2456
2499 2499 2499
2542 2542 2542
2584 2584 2584
2627 2627 2627
2669 2669 2669
2712 2712 2712
2749 2749 2749
2792 2792 2792
2834 2834 2834
2876 2876 2876
2918 2918 2918
2960 2960 2960
3002 3002 3002
3044 3044 3044
3086 3086 3086
3123 3123 3123
3164 3164 3164
3206 3206 3206
3247 3247 3247
3288 3288 3288
3329 3329 3329
3370 3370 3370
3411 3411 3411
3452 3452 3452
3488 3488 3488
3528 3528 3528
3569 3569 3569
3609 3609 3609
3649 3649 3649
3688 3688 3688
3728 3728 3728
3767 3767 3767
3806 3806 3806
555 555 555
595 595 595
635 635 635
676 676 676
717 717 717
758 758 758
799 799 799
841 841 841
883 883 883
920 920 920
962 962 962
1005 1005 1005
1048 1048 1048
1091 1091 1091
1133 1133 1133
1177 1177 1177
1220 1220 1220
1264 1264 1264
1303 1303 1303
1347 1347 1347
1391 1391 1391
1435 1435 1435
1480 1480 1480
1524 1524 1524
1569 1569 1569
1614 1614 1614
1659 1659 1659
1699 1699 1699
1745 1745 1745
1790 1790 1790
1836 1836 1836
1882 1882 1882
1927 1927 1927
1973 1973 1973
2020 2020 2020
2065 2065 2065
2103 2103 2103
2146 2146 2146
2190 2190 2190
2233 2233 2233
2276 2276 2276
2319 2319 2319
2362 2362 2362
2405 2405 2405
2448 2448 2448
2483 2483 2483
2526 2526 2526
2568 2568 2568
2611 2611 2611
2654 2654 2654
2696 2696 2696
2738 2738 2738
2781 2781 2781
2823 2823 2823
2860 2860 2860
2903 2903 2903
2945 2945 2945
2987 2987 2987
3029 3029 3029
3070 3070 3070
3112 3112 3112
3154 3154 3154
3195 3195 3195
3232 3232 3232
3273 3273 3273
3314 3314 3314
3355 3355 3355
3396 3396 3396
3437 3437 3437
3477 3477 3477
3518 3518 3518
3558 3558 3558
3594 3594 3594
3634 3634 3634
3674 3674 3674
3713 3713 3713
3753 3753 3753
3791 3791 3791
3830 3830 3830
3869 3869 3869
3907 3907 3907
661 661 661
701 701 701
742 742 742
784 784 784
825 825 825
867 867 867
909 909 909
951 951 951
994 994 994
1031 1031 1031
1074 1074 1074
1117 1117 1117
1161 1161 1161
1204 1204 1204
1248 1248 1248
1291 1291 1291
1335 1335 1335
1380 1380 1380
1419 1419 1419
1463 1463 1463
1508 1508 1508
1553 1553 1553
1598 1598 1598
1642 1642 1642
1688 1688 1688
1733 1733 1733
1778 1778 1778
1819 1819 1819
1865 1865 1865
1910 1910 1910
1956 1956 1956
2003 2003 2003
2048 2048 2048
2092 2092 2092
2135 2135 2135
2178 2178 2178
2217 2217 2217
2260 2260 2260
2303 2303 2303
2346 2346 2346
2389 2389 2389
2432 2432 2432
2475 2475 2475
2518 2518 2518
2560 2560 2560
2595 2595 2595
2638 2638 2638
2680 2680 2680
2723 2723 2723
2765 2765 2765
2807 2807 2807
2850 2850 2850
2892 2892 2892
2934 2934 2934
2971 2971 2971
3013 3013 3013
3055 3055 3055
3097 3097 3097
3138 3138 3138
3180 3180 3180
3221 3221 3221
3262 3262 3262
3304 3304 3304
3340 3340 3340
3381 3381 3381
3422 3422 3422
3462 3462 3462
3503 3503 3503
3543 3543 3543
3583 3583 3583
3623 3623 3623
3663 3663 3663
3698 3698 3698
3738 3738 3738
3777 3777 3777
3816 3816 3816
3855 3855 3855
3893 3893 3893
3931 3931 3931
3968 3968 3968
4005 4005 4005
768 768 768
810 810 810
851 851 851
893 893 893
936 936 936
978 978 978
1020 1020 1020
1063 1063 1063
1106 1106 1106
1145 1145 1145
1188 1188 1188
1232 1232 1232
1275 1275 1275
1319 1319 1319
1363 1363 1363
1407 1407 1407
1452 1452 1452
1496 1496 1496
1536 1536 1536
1581 1581 1581
1626 1626 1626
1671 1671 1671
1716 1716 1716
1761 1761 1761
1807 1807 1807
1853 1853 1853
1899 1899 1899
1939 1939 1939
1985 1985 1985
2031 2031 2031
2076 2076 2076
2119 2119 2119
2162 2162 2162
2206 2206 2206
2249 2249 2249
2292 2292 2292
2330 2330 2330
2373 2373 2373
2416 2416 2416
2459 2459 2459
2502 2502 2502
2544 2544 2544
2587 2587 2587
2630 2630 2630
2672 2672 2672
2707 2707 2707
2749 2749 2749
2792 2792 2792
2834 2834 2834
2876 2876 2876
2918 2918 2918
2960 2960 2960
3002 3002 3002
3044 3044 3044
3081 3081 3081
3123 3123 3123
3164 3164 3164
3206 3206 3206
3247 3247 3247
3288 3288 3288
3329 3329 3329
3370 3370 3370
3411 3411 3411
3447 3447 3447
3488 3488 3488
3528 3528 3528
3569 3569 3569
3609 3609 3609
3648 3648 3648
3688 3688 3688
3728 3728 3728
3767 3767 3767
3802 3802 3802
3840 3840 3840
3879 3879 3879
3917 3917 3917
3954 3954 3954
3991 3991 3991
4027 4027 4027
4063 4063 4063
4095 4095 4095
