public/luts/Fuji XTrans III - Mono+G.3dl
#Fujifilm Fuji XTrans III - Mono+G — analytically generated
0 64 128 192 256 320 384 448 512 575 639 703 767 831 895 959 1023
0 0 0
11 11 11
25 25 25
39 39 39
54 54 54
69 69 69
85 85 85
102 102 102
118 118 118
135 135 135
152 152 152
169 169 169
186 186 186
204 204 204
222 222 222
240 240 240
258 258 258
133 133 133
150 150 150
167 167 167
185 185 185
202 202 202
220 220 220
238 238 238
256 256 256
274 274 274
293 293 293
311 311 311
330 330 330
349 349 349
368 368 368
387 387 387
406 406 406
425 425 425
291 291 291
309 309 309
328 328 328
347 347 347
366 366 366
385 385 385
404 404 404
423 423 423
442 442 442
462 462 462
481 481 481
501 501 501
521 521 521
540 540 540
560 560 560
580 580 580
600 600 600
459 459 459
479 479 479
499 499 499
518 518 518
538 538 538
558 558 558
578 578 578
598 598 598
618 618 618
638 638 638
659 659 659
679 679 679
699 699 699
720 720 720
740 740 740
761 761 761
782 782 782
636 636 636
656 656 656
677 677 677
697 697 697
718 718 718
738 738 738
759 759 759
779 779 779
800 800 800
821 821 821
842 842 842
863 863 863
883 883 883
905 905 905
926 926 926
947 947 947
968 968 968
818 818 818
839 839 839
860 860 860
881 881 881
902 902 902
923 923 923
945 945 945
966 966 966
987 987 987
1008 1008 1008
1029 1029 1029
1051 1051 1051
1072 1072 1072
1094 1094 1094
1115 1115 1115
1137 1137 1137
1159 1159 1159
1006 1006 1006
1027 1027 1027
1048 1048 1048
1070 1070 1070
1091 1091 1091
1113 1113 1113
1135 1135 1135
1156 1156 1156
1178 1178 1178
1199 1199 1199
1221 1221 1221
1243 1243 1243
1265 1265 1265
1287 1287 1287
1309 1309 1309
1331 1331 1331
1353 1353 1353
1197 1197 1197
1219 1219 1219
1241 1241 1241
1263 1263 1263
1284 1284 1284
1306 1306 1306
1328 1328 1328
1350 1350 1350
1373 1373 1373
1394 1394 1394
1417 1417 1417
1439 1439 1439
1461 1461 1461
1483 1483 1483
1506 1506 1506
1528 1528 1528
1550 1550 1550
1392 1392 1392
1414 1414 1414
1436 1436 1436
1459 1459 1459
1481 1481 1481
1503 1503 1503
1526 1526 1526
1548 1548 1548
1570 1570 1570
1593 1593 1593
1615 1615 1615
1638 1638 1638
1660 1660 1660
1683 1683 1683
1706 1706 1706
1728 1728 1728
1751 1751 1751
1587 1587 1587
1610 1610 1610
1632 1632 1632
1655 1655 1655
1677 1677 1677
1700 1700 1700
1723 1723 1723
1745 1745 1745
1768 1768 1768
1790 1790 1790
1813 1813 1813
1836 1836 1836
1859 1859 1859
1882 1882 1882
1905 1905 1905
1928 1928 1928
1951 1951 1951
1788 1788 1788
1811 1811 1811
1834 1834 1834
1857 1857 1857
1879 1879 1879
1902 1902 1902
1925 1925 1925
1948 1948 1948
1971 1971 1971
1994 1994 1994
2017 2017 2017
2040 2040 2040
2063 2063 2063
2084 2084 2084
2106 2106 2106
2128 2128 2128
2149 2149 2149
1992 1992 1992
2015 2015 2015
2038 2038 2038
2060 2060 2060
2082 2082 2082
2104 2104 2104
2125 2125 2125
2147 2147 2147
2169 2169 2169
2190 2190 2190
2212 2212 2212
2233 2233 2233
2255 2255 2255
2276 2276 2276
2298 2298 2298
2319 2319 2319
2341 2341 2341
2188 2188 2188
2209 2209 2209
2231 2231 2231
2252 2252 2252
2274 2274 2274
2296 2296 2296
2317 2317 2317
2339 2339 2339
2360 2360 2360
2381 2381 2381
2403 2403 2403
2424 2424 2424
2446 2446 2446
2467 2467 2467
2489 2489 2489
2510 2510 2510
2532 2532 2532
2379 2379 2379
2401 2401 2401
2422 2422 2422
2443 2443 2443
2465 2465 2465
2486 2486 2486
2508 2508 2508
2529 2529 2529
2551 2551 2551
2572 2572 2572
2593 2593 2593
2614 2614 2614
2636 2636 2636
2657 2657 2657
2678 2678 2678
2699 2699 2699
2721 2721 2721
2569 2569 2569
2591 2591 2591
2612 2612 2612
2633 2633 2633
2655 2655 2655
2676 2676 2676
2697 2697 2697
2718 2718 2718
2740 2740 2740
2761 2761 2761
2782 2782 2782
2803 2803 2803
2824 2824 2824
2845 2845 2845
2866 2866 2866
2887 2887 2887
2908 2908 2908
2758 2758 2758
2779 2779 2779
2801 2801 2801
2822 2822 2822
2843 2843 2843
2864 2864 2864
2885 2885 2885
2906 2906 2906
2927 2927 2927
2948 2948 2948
2969 2969 2969
2990 2990 2990
3011 3011 3011
3032 3032 3032
3053 3053 3053
3074 3074 3074
3095 3095 3095
2946 2946 2946
2967 2967 2967
2988 2988 2988
3009 3009 3009
3030 3030 3030
3050 3050 3050
3071 3071 3071
3092 3092 3092
3113 3113 3113
3134 3134 3134
3154 3154 3154
3175 3175 3175
3196 3196 3196
3217 3217 3217
3237 3237 3237
3258 3258 3258
3279 3279 3279
34 34 34
48 48 48
64 64 64
79 79 79
95 95 95
112 112 112
129 129 129
146 146 146
163 163 163
180 180 180
197 197 197
215 215 215
233 233 233
251 251 251
270 270 270
288 288 288
307 307 307
178 178 178
196 196 196
213 213 213
231 231 231
249 249 249
268 268 268
286 286 286
305 305 305
323 323 323
342 342 342
361 361 361
380 380 380
399 399 399
418 418 418
437 437 437
457 457 457
476 476 476
340 340 340
359 359 359
378 378 378
397 397 397
416 416 416
435 435 435
455 455 455
474 474 474
494 494 494
513 513 513
533 533 533
553 553 553
573 573 573
593 593 593
613 613 613
633 633 633
653 653 653
511 511 511
531 531 531
551 551 551
571 571 571
591 591 591
611 611 611
631 631 631
651 651 651
672 672 672
692 692 692
712 712 712
733 733 733
753 753 753
774 774 774
795 795 795
815 815 815
836 836 836
689 689 689
710 710 710
730 730 730
751 751 751
772 772 772
792 792 792
813 813 813
834 834 834
855 855 855
876 876 876
897 897 897
918 918 918
939 939 939
960 960 960
981 981 981
1003 1003 1003
1024 1024 1024
873 873 873
894 894 894
915 915 915
937 937 937
958 958 958
979 979 979
1000 1000 1000
1022 1022 1022
1043 1043 1043
1064 1064 1064
1086 1086 1086
1107 1107 1107
1129 1129 1129
1150 1150 1150
1172 1172 1172
1194 1194 1194
1216 1216 1216
1062 1062 1062
1083 1083 1083
1105 1105 1105
1126 1126 1126
1148 1148 1148
1170 1170 1170
1192 1192 1192
1213 1213 1213
1235 1235 1235
1257 1257 1257
1279 1279 1279
1301 1301 1301
1323 1323 1323
1345 1345 1345
1367 1367 1367
1389 1389 1389
1411 1411 1411
1254 1254 1254
1276 1276 1276
1298 1298 1298
1320 1320 1320
1342 1342 1342
1364 1364 1364
1386 1386 1386
1409 1409 1409
1431 1431 1431
1453 1453 1453
1475 1475 1475
1497 1497 1497
1520 1520 1520
1542 1542 1542
1564 1564 1564
1587 1587 1587
1609 1609 1609
1450 1450 1450
1473 1473 1473
1495 1495 1495
1517 1517 1517
1540 1540 1540
1562 1562 1562
1584 1584 1584
1607 1607 1607
1630 1630 1630
1652 1652 1652
1674 1674 1674
1697 1697 1697
1720 1720 1720
1742 1742 1742
1765 1765 1765
1788 1788 1788
1811 1811 1811
1646 1646 1646
1669 1669 1669
1691 1691 1691
1714 1714 1714
1737 1737 1737
1760 1760 1760
1782 1782 1782
1805 1805 1805
1828 1828 1828
1850 1850 1850
1873 1873 1873
1896 1896 1896
1919 1919 1919
1942 1942 1942
1965 1965 1965
1988 1988 1988
2011 2011 2011
1848 1848 1848
1871 1871 1871
1894 1894 1894
1917 1917 1917
1940 1940 1940
1963 1963 1963
1986 1986 1986
2009 2009 2009
2032 2032 2032
2054 2054 2054
2076 2076 2076
2098 2098 2098
2120 2120 2120
2141 2141 2141
2163 2163 2163
2184 2184 2184
2206 2206 2206
2052 2052 2052
2074 2074 2074
2095 2095 2095
2117 2117 2117
2139 2139 2139
2160 2160 2160
2182 2182 2182
2204 2204 2204
2225 2225 2225
2247 2247 2247
2268 2268 2268
2290 2290 2290
2311 2311 2311
2333 2333 2333
2354 2354 2354
2376 2376 2376
2397 2397 2397
2244 2244 2244
2266 2266 2266
2287 2287 2287
2309 2309 2309
2331 2331 2331
2352 2352 2352
2374 2374 2374
2395 2395 2395
2417 2417 2417
2438 2438 2438
2459 2459 2459
2481 2481 2481
2502 2502 2502
2524 2524 2524
2545 2545 2545
2566 2566 2566
2588 2588 2588
2435 2435 2435
2457 2457 2457
2478 2478 2478
2500 2500 2500
2521 2521 2521
2543 2543 2543
2564 2564 2564
2585 2585 2585
2607 2607 2607
2628 2628 2628
2649 2649 2649
2670 2670 2670
2692 2692 2692
2713 2713 2713
2734 2734 2734
2755 2755 2755
2776 2776 2776
2625 2625 2625
2647 2647 2647
2668 2668 2668
2689 2689 2689
2710 2710 2710
2732 2732 2732
2753 2753 2753
2774 2774 2774
2795 2795 2795
2816 2816 2816
2837 2837 2837
2858 2858 2858
2879 2879 2879
2901 2901 2901
2922 2922 2922
2943 2943 2943
2964 2964 2964
2814 2814 2814
2835 2835 2835
2856 2856 2856
2877 2877 2877
2898 2898 2898
2919 2919 2919
2940 2940 2940
2961 2961 2961
2982 2982 2982
3003 3003 3003
3024 3024 3024
3045 3045 3045
3066 3066 3066
3087 3087 3087
3108 3108 3108
3128 3128 3128
3149 3149 3149
3001 3001 3001
3022 3022 3022
3043 3043 3043
3064 3064 3064
3084 3084 3084
3105 3105 3105
3126 3126 3126
3147 3147 3147
3168 3168 3168
3188 3188 3188
3209 3209 3209
3230 3230 3230
3250 3250 3250
3271 3271 3271
3292 3292 3292
3312 3312 3312
3333 3333 3333
73 73 73
89 89 89
106 106 106
122 122 122
139 139 139
156 156 156
174 174 174
191 191 191
209 209 209
226 226 226
245 245 245
263 263 263
281 281 281
300 300 300
318 318 318
337 337 337
356 356 356
224 224 224
243 243 243
261 261 261
279 279 279
298 298 298
316 316 316
335 335 335
354 354 354
373 373 373
392 392 392
411 411 411
430 430 430
449 449 449
469 469 469
489 489 489
508 508 508
528 528 528
389 389 389
409 409 409
428 428 428
447 447 447
467 467 467
486 486 486
506 506 506
526 526 526
546 546 546
565 565 565
585 585 585
605 605 605
626 626 626
646 646 646
666 666 666
687 687 687
707 707 707
563 563 563
583 583 583
603 603 603
623 623 623
644 644 644
664 664 664
684 684 684
705 705 705
725 725 725
746 746 746
766 766 766
787 787 787
808 808 808
829 829 829
849 849 849
870 870 870
891 891 891
743 743 743
764 764 764
785 785 785
805 805 805
826 826 826
847 847 847
868 868 868
889 889 889
910 910 910
931 931 931
952 952 952
973 973 973
995 995 995
1016 1016 1016
1037 1037 1037
1059 1059 1059
1080 1080 1080
929 929 929
950 950 950
971 971 971
992 992 992
1014 1014 1014
1035 1035 1035
1056 1056 1056
1078 1078 1078
1099 1099 1099
1121 1121 1121
1142 1142 1142
1164 1164 1164
1186 1186 1186
1208 1208 1208
1229 1229 1229
1251 1251 1251
1273 1273 1273
1118 1118 1118
1140 1140 1140
1162 1162 1162
1183 1183 1183
1205 1205 1205
1227 1227 1227
1249 1249 1249
1271 1271 1271
1293 1293 1293
1314 1314 1314
1336 1336 1336
1358 1358 1358
1381 1381 1381
1403 1403 1403
1425 1425 1425
1447 1447 1447
1469 1469 1469
1312 1312 1312
1334 1334 1334
1356 1356 1356
1378 1378 1378
1400 1400 1400
1422 1422 1422
1445 1445 1445
1467 1467 1467
1489 1489 1489
1511 1511 1511
1534 1534 1534
1556 1556 1556
1579 1579 1579
1601 1601 1601
1624 1624 1624
1646 1646 1646
1669 1669 1669
1509 1509 1509
1531 1531 1531
1554 1554 1554
1576 1576 1576
1599 1599 1599
1621 1621 1621
1644 1644 1644
1666 1666 1666
1689 1689 1689
1711 1711 1711
1734 1734 1734
1757 1757 1757
1779 1779 1779
1802 1802 1802
1825 1825 1825
1848 1848 1848
1871 1871 1871
1706 1706 1706
1728 1728 1728
1751 1751 1751
1774 1774 1774
1797 1797 1797
1819 1819 1819
1842 1842 1842
1865 1865 1865
1888 1888 1888
1911 1911 1911
1934 1934 1934
1957 1957 1957
1980 1980 1980
2003 2003 2003
2026 2026 2026
2049 2049 2049
2071 2071 2071
1908 1908 1908
1931 1931 1931
1954 1954 1954
1977 1977 1977
2000 2000 2000
2023 2023 2023
2047 2047 2047
2068 2068 2068
2090 2090 2090
2111 2111 2111
2133 2133 2133
2155 2155 2155
2176 2176 2176
2198 2198 2198
2220 2220 2220
2241 2241 2241
2263 2263 2263
2109 2109 2109
2131 2131 2131
2152 2152 2152
2174 2174 2174
2196 2196 2196
2217 2217 2217
2239 2239 2239
2260 2260 2260
2282 2282 2282
2303 2303 2303
2325 2325 2325
2346 2346 2346
2368 2368 2368
2389 2389 2389
2411 2411 2411
2432 2432 2432
2454 2454 2454
2301 2301 2301
2323 2323 2323
2344 2344 2344
2366 2366 2366
2387 2387 2387
2409 2409 2409
2430 2430 2430
2452 2452 2452
2473 2473 2473
2494 2494 2494
2515 2515 2515
2537 2537 2537
2558 2558 2558
2580 2580 2580
2601 2601 2601
2622 2622 2622
2644 2644 2644
2492 2492 2492
2513 2513 2513
2535 2535 2535
2556 2556 2556
2577 2577 2577
2599 2599 2599
2620 2620 2620
2641 2641 2641
2663 2663 2663
2684 2684 2684
2705 2705 2705
2726 2726 2726
2747 2747 2747
2768 2768 2768
2790 2790 2790
2811 2811 2811
2832 2832 2832
2681 2681 2681
2702 2702 2702
2724 2724 2724
2745 2745 2745
2766 2766 2766
2787 2787 2787
2809 2809 2809
2830 2830 2830
2851 2851 2851
2872 2872 2872
2893 2893 2893
2914 2914 2914
2935 2935 2935
2956 2956 2956
2977 2977 2977
2998 2998 2998
3019 3019 3019
2869 2869 2869
2890 2890 2890
2911 2911 2911
2932 2932 2932
2954 2954 2954
2975 2975 2975
2996 2996 2996
3016 3016 3016
3037 3037 3037
3058 3058 3058
3079 3079 3079
3100 3100 3100
3121 3121 3121
3141 3141 3141
3162 3162 3162
3183 3183 3183
3204 3204 3204
3056 3056 3056
3077 3077 3077
3097 3097 3097
3118 3118 3118
3139 3139 3139
3160 3160 3160
3181 3181 3181
3201 3201 3201
3222 3222 3222
3243 3243 3243
3263 3263 3263
3284 3284 3284
3304 3304 3304
3325 3325 3325
3346 3346 3346
3366 3366 3366
3387 3387 3387
116 116 116
133 133 133
150 150 150
167 167 167
185 185 185
202 202 202
220 220 220
238 238 238
256 256 256
274 274 274
293 293 293
311 311 311
330 330 330
349 349 349
368 368 368
387 387 387
406 406 406
272 272 272
291 291 291
309 309 309
328 328 328
347 347 347
366 366 366
385 385 385
404 404 404
423 423 423
442 442 442
462 462 462
481 481 481
501 501 501
521 521 521
540 540 540
560 560 560
