public/luts/Fuji XTrans III - Classic Chrome.3dl
#Fujifilm Fuji XTrans III - Classic Chrome — analytically generated
0 64 128 192 256 320 384 448 512 575 639 703 767 831 895 959 1023
155 174 189
161 183 363
167 192 547
173 202 734
180 211 925
186 221 1117
193 231 1311
199 241 1506
206 251 1702
212 260 1885
218 269 2071
224 279 2258
231 288 2445
237 298 2634
243 307 2824
250 317 3016
253 323 3122
186 391 249
192 400 423
198 409 606
205 419 794
211 428 985
217 438 1177
224 448 1371
230 458 1566
237 468 1762
243 477 1945
249 487 2131
256 496 2318
262 506 2505
268 515 2694
275 525 2884
281 534 3075
283 540 3162
219 614 310
224 623 484
231 633 668
237 642 856
243 652 1046
250 662 1238
256 671 1432
263 681 1627
269 691 1823
275 700 2006
282 710 2192
288 719 2379
294 729 2567
301 738 2755
307 748 2945
313 758 3137
314 762 3202
251 840 372
257 849 546
263 858 730
269 868 918
276 877 1108
282 887 1301
289 897 1494
295 907 1689
302 917 1886
308 926 2068
314 935 2255
320 945 2441
327 954 2629
333 964 2817
339 974 3007
346 983 3199
346 987 3243
284 1067 435
290 1076 609
296 1085 793
302 1095 980
309 1105 1171
315 1114 1363
321 1124 1557
328 1134 1752
335 1144 1948
341 1153 2131
347 1163 2317
353 1172 2504
360 1182 2691
366 1191 2880
372 1201 3070
379 1210 3260
382 1209 3284
317 1296 498
323 1304 672
329 1314 856
335 1323 1043
341 1333 1234
348 1343 1426
354 1352 1620
361 1362 1815
368 1372 2011
374 1382 2194
381 1390 2377
390 1396 2555
400 1402 2734
409 1408 2914
418 1414 3095
428 1420 3278
432 1420 3324
350 1525 561
356 1534 735
362 1543 919
368 1553 1106
375 1562 1297
383 1570 1484
392 1576 1669
402 1582 1856
412 1589 2043
421 1595 2217
430 1601 2395
439 1607 2574
448 1613 2753
458 1619 2933
467 1625 3114
477 1631 3297
481 1632 3364
386 1752 616
394 1757 783
403 1763 958
413 1769 1138
422 1776 1319
432 1782 1503
441 1788 1688
451 1794 1874
461 1801 2062
470 1807 2236
479 1813 2414
488 1819 2592
497 1825 2772
507 1831 2952
516 1837 3133
526 1843 3316
531 1845 3405
435 1964 635
443 1970 802
452 1976 977
462 1982 1156
471 1988 1338
481 1994 1522
490 2000 1707
500 2007 1893
510 2013 2081
519 2019 2255
528 2025 2433
537 2031 2611
546 2037 2790
556 2043 2970
565 2049 3152
575 2055 3335
581 2059 3445
481 2164 653
490 2169 819
499 2175 995
508 2181 1174
517 2187 1356
527 2194 1539
536 2200 1725
546 2206 1911
556 2213 2098
565 2218 2273
574 2224 2451
583 2231 2629
593 2237 2808
602 2243 2988
611 2249 3169
621 2255 3352
628 2259 3483
528 2367 671
537 2373 837
546 2379 1013
555 2385 1192
564 2391 1374
574 2397 1558
583 2403 1743
593 2410 1929
603 2416 2116
612 2422 2291
621 2428 2469
630 2434 2647
640 2440 2826
649 2446 3006
658 2452 3187
668 2459 3370
676 2463 3522
575 2572 689
584 2577 855
593 2583 1031
602 2589 1210
612 2596 1392
621 2602 1576
631 2608 1761
640 2614 1947
650 2621 2134
659 2627 2309
668 2633 2487
678 2639 2665
687 2645 2844
696 2651 3024
706 2657 3205
715 2663 3389
724 2669 3561
623 2778 707
631 2783 874
640 2789 1049
650 2795 1229
659 2801 1410
669 2808 1594
678 2814 1779
688 2820 1965
698 2827 2153
707 2832 2327
716 2838 2505
725 2844 2683
734 2851 2862
744 2857 3042
753 2863 3224
762 2869 3408
770 2878 3601
671 2985 726
679 2991 892
688 2997 1068
698 3003 1247
707 3009 1429
717 3015 1612
726 3021 1797
736 3028 1984
746 3034 2171
755 3040 2346
763 3047 2525
771 3054 2708
779 3062 2891
787 3070 3075
794 3078 3261
802 3086 3448
811 3094 3641
719 3195 744
728 3200 911
737 3206 1086
746 3212 1265
755 3218 1447
764 3225 1633
772 3234 1823
780 3242 2013
788 3250 2205
796 3257 2384
804 3265 2566
812 3273 2748
819 3281 2932
827 3288 3116
835 3296 3301
843 3304 3489
851 3312 3682
767 3409 767
774 3416 937
782 3424 1117
790 3432 1300
797 3439 1486
805 3447 1674
813 3455 1864
822 3464 2055
830 3472 2246
837 3479 2425
845 3487 2607
853 3495 2790
861 3503 2973
868 3510 3157
876 3518 3343
884 3526 3530
892 3534 3723
810 3640 810
817 3648 980
825 3655 1160
833 3663 1343
840 3671 1529
848 3679 1717
856 3687 1907
865 3695 2098
873 3703 2289
880 3711 2468
888 3719 2650
896 3726 2833
904 3734 3016
911 3742 3200
919 3750 3386
929 3758 3572
940 3766 3764
333 197 218
339 206 392
345 215 576
352 225 764
358 234 954
364 244 1146
371 254 1340
377 264 1535
384 274 1731
390 283 1914
396 292 2100
403 302 2287
409 311 2475
415 321 2663
422 331 2853
428 340 3045
430 346 3142
365 414 278
370 423 452
377 432 636
383 442 823
389 452 1014
396 461 1206
402 471 1400
409 481 1595
415 491 1791
421 500 1974
428 510 2160
434 519 2347
440 529 2534
447 538 2723
453 548 2913
459 558 3105
461 562 3181
397 638 339
403 646 513
409 656 697
415 665 885
421 675 1075
428 685 1268
434 694 1461
441 704 1657
448 714 1853
454 724 2035
460 733 2222
466 742 2408
472 752 2596
479 762 2784
485 771 2974
492 781 3166
492 785 3221
429 863 401
435 872 575
441 881 759
448 891 947
454 901 1137
460 910 1330
467 920 1524
474 930 1719
480 940 1915
486 949 2098
492 959 2284
499 968 2471
505 978 2658
511 987 2847
518 997 3036
524 1007 3228
524 1010 3262
462 1090 464
468 1099 638
474 1109 822
480 1118 1010
487 1128 1200
493 1137 1392
500 1147 1586
506 1157 1781
513 1167 1977
519 1176 2160
525 1186 2346
531 1195 2533
538 1205 2721
546 1212 2904
555 1218 3085
565 1225 3268
568 1224 3303
495 1319 527
501 1328 701
507 1337 885
513 1346 1073
520 1356 1263
526 1366 1455
533 1376 1649
539 1386 1844
548 1392 2033
557 1398 2207
567 1404 2385
576 1410 2564
585 1416 2743
594 1423 2923
604 1429 3104
613 1435 3287
617 1436 3343
528 1548 590
534 1557 764
540 1566 948
549 1572 1127
559 1578 1309
568 1585 1493
578 1591 1678
587 1597 1864
597 1604 2052
606 1609 2226
615 1615 2404
625 1622 2582
634 1628 2761
643 1634 2941
653 1640 3123
662 1646 3306
667 1648 3383
571 1767 625
580 1772 791
589 1778 967
598 1784 1146
608 1790 1328
617 1797 1512
627 1803 1697
636 1809 1883
646 1815 2070
655 1821 2245
664 1827 2423
674 1833 2601
683 1839 2780
692 1846 2960
702 1852 3141
711 1858 3325
717 1860 3423
620 1979 644
629 1985 810
638 1990 986
647 1997 1165
657 2003 1347
666 2009 1530
676 2015 1716
685 2021 1902
695 2028 2089
704 2034 2264
713 2040 2442
723 2046 2620
732 2052 2799
741 2058 2979
751 2064 3160
760 2070 3343
767 2074 3464
666 2178 662
675 2184 828
684 2190 1003
693 2196 1183
703 2202 1365
712 2208 1548
722 2215 1733
732 2221 1920
741 2227 2107
750 2233 2281
760 2239 2459
769 2245 2638
778 2251 2817
787 2257 2997
797 2264 3178
806 2270 3361
814 2274 3502
713 2382 680
722 2388 846
731 2394 1022
740 2400 1201
750 2406 1383
759 2412 1566
769 2418 1751
779 2425 1938
788 2431 2125
797 2437 2299
807 2443 2477
816 2449 2656
825 2455 2835
834 2461 3015
844 2467 3196
853 2473 3379
862 2479 3541
761 2587 698
769 2592 864
778 2598 1040
788 2604 1219
797 2610 1401
807 2617 1584
816 2623 1769
826 2629 1956
836 2635 2143
845 2641 2318
854 2647 2495
863 2653 2674
872 2659 2853
882 2666 3033
891 2672 3214
901 2678 3397
910 2684 3580
808 2792 716
817 2798 882
826 2804 1058
835 2810 1237
845 2816 1419
854 2822 1603
864 2829 1788
873 2835 1974
883 2841 2161
892 2847 2336
901 2853 2514
911 2859 2692
920 2865 2871
928 2873 3054
936 2880 3239
944 2888 3427
952 2897 3620
856 3000 734
865 3005 901
874 3011 1076
883 3017 1256
893 3024 1437
902 3030 1621
912 3036 1806
921 3042 1992
930 3050 2183
937 3058 2362
945 3065 2544
953 3073 2727
961 3081 2910
968 3089 3094
976 3097 3280
984 3105 3467
992 3113 3660
905 3209 753
913 3215 919
922 3221 1095
930 3229 1278
938 3236 1464
946 3244 1652
954 3252 1842
962 3261 2032
970 3269 2224
978 3276 2403
986 3284 2585
993 3292 2767
1001 3300 2951
1009 3307 3135
1017 3315 3320
1025 3323 3508
1033 3331 3701
949 3428 786
956 3435 956
964 3443 1136
971 3450 1319
979 3458 1505
987 3466 1693
995 3474 1883
1003 3483 2074
1012 3491 2265
1019 3498 2444
1027 3506 2626
1035 3514 2808
1042 3521 2992
1050 3529 3176
1058 3537 3362
1066 3545 3549
1074 3553 3742
992 3659 829
999 3667 999
1007 3674 1179
1014 3682 1362
1022 3690 1548
1030 3698 1736
1038 3706 1926
1046 3714 2117
1055 3722 2308
1062 3730 2487
1070 3737 2669
1078 3745 2851
1086 3753 3035
1096 3761 3218
1106 3769 3402
1116 3777 3588
1127 3786 3780
522 222 249
527 230 423
534 240 607
540 249 795
546 259 985
553 269 1177
559 278 1371
566 288 1566
572 298 1762
578 307 1945
585 317 2131
591 326 2318
597 336 2506
604 345 2694
610 355 2884
616 365 3076
618 370 3162
553 439 309
559 448 483
565 457 667
571 466 854
578 476 1045
584 486 1237
590 496 1431
597 506 1626
604 515 1822
610 525 2005
616 534 2191
622 544 2378
629 553 2565
635 563 2754
641 572 2944
648 582 3135
649 586 3201
585 662 370
591 671 544
597 680 728
603 690 916
610 699 1106
616 709 1298
623 719 1492
629 729 1687
636 739 1884
642 748 2066
648 757 2253
654 767 2439
661 776 2627
667 786 2815
673 796 3005
680 805 3197
680 809 3242
618 888 432
623 897 606
630 906 790
636 915 978
642 925 1168
649 935 1361
655 945 1554
662 954 1750
668 964 1946
675 974 2128
681 983 2315
687 993 2501
693 1002 2689
700 1012 2878
706 1021 3067
712 1031 3259
715 1030 3282
650 1115 495
656 1124 669
662 1133 853
669 1143 1041
675 1152 1231
682 1162 1423
688 1172 1617
695 1182 1812
701 1192 2008
707 1201 2191
714 1210 2376
723 1216 2554
733 1222 2733
742 1228 2913
751 1234 3094
761 1240 3278
764 1240 3322
683 1343 558
689 1352 732
695 1361 916
702 1371 1103
708 1380 1294
715 1389 1483
725 1395 1668
735 1402 1855
744 1408 2042
753 1414 2217
763 1420 2394
772 1426 2573
781 1432 2752
790 1438 2932
800 1444 3113
809 1450 3296
814 1452 3362
718 1570 615
727 1576 782
736 1582 957
745 1588 1137
755 1594 1318
764 1600 1502
774 1607 1687
783 1613 1873
793 1619 2061
802 1625 2235
811 1631 2413
821 1637 2591
830 1643 2771
839 1649 2951
849 1655 3132
858 1662 3315
864 1664 3403
767 1782 634
776 1788 801
785 1794 976
794 1800 1155
804 1806 1337
813 1812 1521
823 1818 1706
832 1825 1892
842 1831 2080
851 1837 2254
860 1843 2432
870 1849 2610
879 1855 2789
888 1861 2969
898 1867 3151
907 1873 3334
913 1876 3443
816 1994 653
825 2000 819
834 2006 995
843 2012 1174
853 2018 1356
862 2024 1540
872 2031 1725
881 2037 1911
891 2043 2098
900 2049 2273
909 2055 2451
919 2061 2629
928 2067 2808
937 2073 2988
947 2080 3169
956 2086 3353
963 2090 3484
862 2194 671
871 2200 837
880 2206 1013
889 2212 1192
899 2218 1374
908 2224 1557
918 2230 1742
928 2237 1929
937 2243 2116
946 2249 2291
955 2255 2468
965 2261 2647
974 2267 2826
983 2273 3006
993 2279 3187
1002 2285 3370
1010 2290 3522
909 2398 689
918 2403 855
927 2409 1031
936 2415 1210
946 2421 1392
955 2428 1575
965 2434 1760
975 2440 1947
984 2446 2134
993 2452 2309
1003 2458 2486
1012 2464 2665
1021 2470 2844
1030 2477 3024
1040 2483 3205
1049 2489 3388
1058 2495 3561
957 2602 707
965 2608 873
974 2614 1049
984 2620 1228
993 2626 1410
1003 2632 1593
1012 2638 1779
1022 2645 1965
1032 2651 2152
1041 2657 2327
1050 2663 2505
1059 2669 2683
1068 2675 2862
1078 2681 3042
1087 2687 3223
1096 2694 3407
1104 2702 3600
1004 2808 725
1013 2814 891
1022 2820 1067
1031 2826 1246
1041 2832 1428
1050 2838 1612
1060 2844 1797
1069 2851 1983
1079 2857 2170
1088 2863 2345
1097 2869 2524
1105 2877 2706
1113 2885 2890
1120 2893 3074
1128 2900 3260
1136 2908 3447
1144 2917 3640
1052 3015 744
1061 3021 910
1070 3027 1085
1079 3033 1265
1089 3039 1446
1098 3046 1631
1106 3054 1821
1114 3062 2012
1122 3070 2203
1129 3078 2382
1137 3086 2564
1145 3093 2747
1153 3101 2930
1161 3109 3114
1168 3117 3300
1176 3125 3487
1185 3133 3680
1100 3226 765
1107 3233 935
1115 3241 1115
1122 3249 1298
1130 3256 1484
1138 3264 1672
1146 3272 1862
1154 3281 2052
1162 3289 2244
1170 3296 2423
1178 3304 2605
1186 3312 2787
1193 3320 2971
1201 3327 3155
1209 3335 3340
1217 3343 3528
1225 3351 3721
1141 3448 806
1148 3455 976
1156 3463 1156
1164 3471 1339
1171 3478 1525
1179 3486 1713
1187 3494 1903
1196 3503 2094
1204 3511 2285
1211 3518 2464
1219 3526 2646
1227 3534 2828
1235 3542 3012
1242 3549 3196
1250 3557 3382
1259 3566 3569
1270 3575 3761
1184 3679 849
1191 3687 1019
1199 3694 1199
1207 3702 1382
1214 3710 1568
1222 3718 1756
1231 3726 1946
1239 3734 2137
1247 3742 2328
1254 3750 2507
1264 3758 2688
1274 3766 2869
1284 3773 3052
1294 3781 3235
1304 3790 3419
1314 3798 3605
1324 3806 3797
714 246 280
720 255 454
726 265 638
732 274 826
738 284 1016
745 294 1209
751 303 1403
758 313 1598
765 323 1794
771 332 1977
777 342 2163
783 351 2350
789 361 2537
796 370 2726
802 380 2915
809 390 3107
810 395 3183
745 464 340
751 473 514
757 482 698
763 491 886
770 501 1076
776 511 1269
783 521 1462
789 530 1657
796 540 1854
802 550 2036
808 559 2223
815 569 2409
821 578 2597
827 588 2785
833 597 2975
840 607 3167
