public/luts/Fuji XTrans III - Sepia.3dl
#Fujifilm Fuji XTrans III - Sepia — analytically generated
0 256 512 767 1023
164 110 15
270 200 80
385 299 151
503 400 225
624 503 299
766 625 387
891 731 464
1017 839 542
1143 947 620
1271 1056 699
1420 1183 791
1550 1294 871
1680 1405 952
1810 1517 1033
1942 1629 1114
2092 1757 1207
2225 1871 1289
2358 1985 1371
2486 2094 1450
2614 2204 1530
2762 2330 1621
2890 2439 1700
3018 2548 1779
3145 2657 1857
3272 2766 1936
459 362 197
579 464 271
701 569 347
825 675 423
950 782 501
1096 906 591
1224 1015 670
1352 1125 749
1481 1235 829
1611 1346 909
1762 1475 1002
1893 1587 1084
2025 1700 1165
2157 1813 1247
2290 1926 1329
2438 2053 1421
2567 2163 1500
2695 2272 1579
2822 2381 1658
2950 2491 1737
3097 2616 1828
3224 2725 1907
3351 2834 1985
3478 2942 2063
3604 3050 2142
778 635 395
903 742 472
1029 849 550
1156 957 628
1284 1067 707
1432 1194 799
1562 1305 879
1693 1416 960
1823 1528 1041
1955 1640 1122
2107 1771 1216
2240 1884 1298
2373 1998 1381
2501 2107 1460
2629 2217 1539
2774 2341 1629
2902 2450 1708
3030 2559 1786
3157 2667 1865
3284 2776 1944
3430 2901 2034
3557 3010 2112
3684 3117 2191
3809 3225 2268
3935 3332 2346
1107 916 598
1235 1025 677
1363 1135 756
1492 1245 836
1622 1356 916
1773 1485 1009
1904 1597 1091
2036 1710 1172
2168 1823 1254
2301 1936 1336
2452 2065 1429
2580 2175 1508
2708 2284 1588
2836 2393 1666
2963 2502 1745
3108 2626 1835
3235 2734 1913
3362 2843 1992
3489 2951 2070
3615 3059 2148
3761 3183 2238
3887 3291 2316
4012 3398 2394
4095 3504 2470
4095 3610 2547
1444 1203 806
1573 1314 886
1704 1426 967
1834 1537 1048
1966 1650 1129
2119 1780 1223
2252 1894 1305
2384 2007 1387
2512 2117 1466
2640 2226 1546
2788 2352 1637
2916 2461 1716
3043 2571 1795
3170 2679 1873
3298 2788 1952
3441 2911 2041
3568 3019 2119
3694 3127 2197
3820 3234 2275
3945 3341 2352
4090 3465 2442
4095 3571 2519
4095 3676 2595
4095 3780 2670
4095 3882 2744
