public/luts/Fuji XTrans III - Sepia.3dl
#Fujifilm Fuji XTrans III - Sepia — analytically generated
0 64 128 192 256 320 384 448 512 575 639 703 767 831 895 959 1023
164 110 15
188 131 30
215 153 46
242 177 63
270 200 80
298 225 98
327 249 116
356 274 133
385 299 151
414 323 169
443 349 188
473 374 206
503 400 225
533 425 243
563 451 262
594 477 281
624 503 299
302 228 100
331 253 118
360 277 136
389 302 154
419 328 172
448 353 191
478 378 209
508 404 228
538 430 246
568 455 265
598 481 283
629 507 302
659 533 321
690 560 340
721 586 359
752 612 378
783 639 397
453 357 193
483 382 212
513 408 230
543 434 249
573 459 268
603 485 286
634 511 305
665 538 324
695 564 343
726 590 362
757 616 381
788 643 400
819 669 420
850 696 439
881 723 458
913 750 478
944 776 497
608 489 289
638 515 308
669 542 327
700 568 346
731 594 365
762 621 384
793 647 404
824 674 423
855 700 442
886 727 461
917 754 480
949 780 500
980 807 519
1012 834 539
1043 861 558
1075 888 578
1107 916 598
766 625 387
797 651 406
828 678 426
860 704 445
891 731 464
922 758 484
954 785 503
985 812 523
1017 839 542
1048 865 561
1080 893 581
1112 920 601
1143 947 620
1175 974 640
1207 1001 660
1239 1029 680
1271 1056 699
927 762 487
959 789 506
990 816 526
1022 843 545
1053 870 565
1085 897 584
1117 924 604
1149 951 624
1181 979 643
1212 1006 663
1244 1033 683
1276 1060 702
1308 1088 722
1341 1115 742
1373 1143 762
1405 1170 782
1437 1198 802
1090 901 587
1122 928 607
1153 955 627
1185 983 646
1217 1010 666
1249 1037 686
1281 1065 706
1314 1092 726
1346 1120 745
1378 1147 765
1410 1175 785
1442 1202 805
1475 1230 825
1507 1258 845
1539 1285 865
1572 1313 885
1605 1341 905
1254 1042 689
1286 1069 709
1318 1096 729
1351 1124 748
1383 1151 768
1415 1179 788
1447 1207 808
1480 1234 828
1512 1262 848
1544 1289 868
1577 1317 888
1609 1345 908
1642 1373 929
1675 1401 949
1707 1429 969
1740 1457 989
1773 1485 1009
1420 1183 791
1452 1211 811
1485 1239 831
1517 1266 851
1550 1294 871
1582 1322 892
1615 1350 912
1647 1377 932
1680 1405 952
1712 1433 972
1745 1461 992
1778 1489 1012
1810 1517 1033
1843 1545 1053
1876 1573 1073
1909 1601 1094
1942 1629 1114
1584 1324 893
1617 1352 913
1650 1379 933
1682 1407 953
1715 1435 974
1748 1463 994
1780 1491 1014
1813 1519 1034
1846 1547 1055
1878 1575 1075
1911 1603 1095
1944 1631 1115
1977 1659 1136
2010 1688 1156
2043 1716 1177
2076 1744 1197
2110 1773 1218
1753 1467 997
1785 1495 1017
1818 1523 1037
1851 1552 1058
1884 1580 1078
1917 1608 1098
1950 1636 1119
1983 1664 1139
2016 1692 1160
2048 1720 1180
2081 1748 1200
2115 1777 1221
2148 1805 1241
2181 1833 1262
2214 1862 1282
2247 1890 1303
2281 1919 1323
1922 1612 1101
1955 1640 1122
1988 1668 1142
2021 1697 1163
2054 1725 1183
2087 1753 1204
2120 1781 1224
2153 1810 1245
2186 1838 1265
2219 1866 1285
2252 1894 1306
2286 1923 1326
2319 1951 1347
2352 1980 1368
2385 2008 1388
2417 2035 1408
2449 2063 1428
2092 1757 1207
2125 1786 1227
2158 1814 1248
2191 1842 1268
2225 1871 1289
2258 1899 1309
2291 1928 1330
2324 1956 1350
2358 1985 1371
2390 2012 1391
2422 2039 1411
2454 2067 1431
2486 2094 1450
2518 2122 1470
2550 2149 1490
2582 2176 1510
2614 2204 1530
2263 1903 1312
2296 1932 1333
2329 1960 1353
2363 1989 1374
2395 2017 1394
2427 2044 1414
2459 2071 1434
2491 2099 1454
2523 2126 1473
2555 2153 1493
2587 2181 1513
2619 2208 1533
2651 2235 1552
2683 2263 1572
2715 2290 1592
2747 2317 1612
2779 2345 1632
2432 2048 1417
2464 2075 1437
2496 2103 1457
2528 2130 1476
2560 2158 1496
2592 2185 1516
2624 2212 1536
2656 2240 1556
2688 2267 1575
2720 2294 1595
2752 2321 1615
2784 2349 1634
2816 2376 1654
2848 2403 1674
2880 2431 1694
2912 2458 1714
2944 2485 1733
2597 2189 1519
2629 2217 1539
2661 2244 1559
2693 2271 1578
2725 2299 1598
2757 2326 1618
2789 2353 1638
2821 2381 1658
2853 2408 1677
2885 2435 1697
2917 2462 1716
2948 2489 1736
2980 2517 1756
3012 2544 1776
3044 2571 1795
3076 2598 1815
3108 2626 1835
2762 2330 1621
2794 2357 1641
2826 2385 1660
2858 2412 1680
2890 2439 1700
2922 2467 1720
2954 2494 1739
2986 2521 1759
3018 2548 1779
3049 2575 1798
3081 2602 1818
3113 2630 1838
3145 2657 1857
3176 2684 1877
3208 2711 1897
3240 2739 1916
3272 2766 1936
232 168 57
259 191 74
287 215 91
316 240 109
345 264 127
374 289 145
403 314 163
433 340 181
462 365 199
492 390 218
522 416 236
552 442 255
582 467 273
613 493 292
643 520 311
674 546 330
705 572 349
378 293 147
408 318 165
437 343 184
467 369 202
497 394 221
527 420 239
557 446 258
587 472 277
618 498 295
648 523 314
679 550 333
709 576 352
740 602 371
771 629 390
802 655 409
833 682 429
865 709 448
531 424 242
562 450 261
592 476 279
622 502 298
653 528 317
684 554 336
714 580 355
745 607 374
776 633 393
807 659 412
838 686 432
869 713 451
901 739 470
932 766 490
964 793 509
995 820 529
1027 847 548
688 558 339
719 584 358
750 611 377
781 637 396
812 664 416
843 690 435
875 717 454
906 744 473
937 771 493
968 797 512
1000 824 532
1031 851 551
1063 878 571
1095 905 590
1127 933 610
1159 960 630
1190 987 649
848 694 438
879 721 457
911 748 476
942 775 496
973 802 515
1005 829 535
1037 856 554
1068 883 574
1100 910 594
1131 937 613
1163 964 633
1195 991 652
1227 1019 672
1259 1046 692
1291 1073 712
1324 1101 732
1356 1128 752
1010 833 538
1041 860 557
1073 887 577
1105 914 596
1137 941 616
1169 968 636
1201 996 656
1233 1023 675
1265 1050 695
1296 1077 715
1328 1105 735
1361 1132 755
1393 1160 775
1425 1188 794
1457 1215 814
1490 1243 835
1522 1271 855
1173 972 639
1205 1000 659
1237 1027 678
1269 1055 698
1301 1082 718
1334 1109 738
1366 1137 758
1398 1165 778
1430 1192 798
1462 1219 817
1495 1247 837
1527 1275 858
1560 1303 878
1592 1330 898
1625 1358 918
1657 1386 938
1690 1414 958
1338 1114 741
1371 1141 761
1403 1169 781
1435 1196 801
1468 1224 821
1500 1252 841
1533 1279 861
1565 1307 881
1598 1335 901
1630 1362 921
1662 1390 941
1695 1418 961
1728 1446 981
1760 1474 1002
1793 1502 1022
1826 1530 1042
1859 1558 1063
1505 1256 844
1537 1284 864
1570 1311 884
1602 1339 904
1635 1367 924
1668 1395 944
1700 1423 965
1733 1451 985
1766 1479 1005
1798 1506 1025
1831 1534 1045
1864 1562 1066
1897 1591 1086
1930 1619 1106
1963 1647 1127
1996 1675 1147
2029 1703 1168
1670 1397 946
1703 1425 966
1735 1453 986
1768 1481 1006
1801 1509 1027
1834 1537 1047
1867 1565 1067
1899 1593 1088
1932 1621 1108
1965 1649 1128
1998 1677 1149
2031 1705 1169
2064 1734 1189
2097 1762 1210
2130 1790 1230
2163 1818 1251
2197 1847 1271
1839 1541 1050
1871 1569 1070
1904 1597 1091
1937 1625 1111
1970 1653 1131
2003 1682 1152
2036 1710 1172
2069 1738 1193
2103 1766 1213
2135 1794 1233
2168 1823 1254
2202 1851 1274
2235 1880 1295
2268 1908 1316
2301 1936 1336
2335 1965 1357
2368 1993 1377
2008 1686 1155
2041 1714 1175
2074 1742 1196
2107 1771 1216
2141 1799 1237
2174 1827 1257
2207 1856 1278
2240 1884 1298
2274 1913 1319
2306 1941 1339
2340 1969 1360
2373 1998 1380
2405 2025 1400
2437 2052 1420
2469 2080 1440
2501 2107 1460
2533 2135 1480
2179 1832 1260
2212 1860 1281
2245 1888 1301
2279 1917 1322
2312 1945 1343
2345 1974 1363
2378 2002 1384
2410 2030 1404
2442 2057 1423
2474 2084 1443
2506 2111 1463
2538 2139 1483
2570 2166 1502
2602 2194 1522
2634 2221 1542
2666 2248 1562
2698 2276 1582
2350 1978 1366
2383 2006 1387
2415 2034 1406
2447 2061 1426
2479 2088 1446
2511 2116 1466
2543 2143 1486
2576 2171 1506
2608 2198 1525
2639 2225 1545
2671 2252 1565
2703 2280 1585
2735 2307 1604
2767 2334 1624
2799 2362 1644
2831 2389 1664
2863 2416 1683
2516 2120 1469
2548 2147 1489
2580 2175 1509
2612 2202 1528
2644 2230 1548
2676 2257 1568
2708 2284 1588
2740 2312 1608
2772 2339 1627
2804 2366 1647
2836 2393 1667
2868 2420 1686
2900 2448 1706
2932 2475 1726
2964 2502 1746
2996 2530 1765
3027 2557 1785
2681 2261 1571
2713 2288 1591
2745 2316 1611
2777 2343 1630
2809 2370 1650
2841 2398 1670
2873 2425 1690
2905 2452 1709
2937 2480 1729
2968 2506 1748
3000 2534 1768
3032 2561 1788
3064 2588 1808
3096 2615 1827
3128 2643 1847
3160 2670 1867
3191 2697 1886
2846 2402 1673
2878 2429 1693
2910 2456 1712
2942 2484 1732
2974 2511 1752
3006 2538 1771
3037 2565 1791
3069 2593 1811
3101 2620 1831
3133 2647 1850
3164 2674 1870
3196 2701 1889
3228 2728 1909
3260 2755 1929
3292 2783 1948
3323 2810 1968
3355 2837 1988
305 231 102
334 255 120
363 280 138
392 305 156
422 330 174
451 355 192
481 381 211
511 406 229
541 432 248
571 458 266
601 484 285
632 510 304
662 536 323
693 562 342
724 588 361
755 615 380
786 641 399
456 359 195
485 385 214
515 410 232
546 436 251
576 462 270
606 488 288
637 514 307
668 540 326
698 566 345
729 592 364
760 619 383
791 645 402
822 672 421
853 699 441
884 725 460
916 752 479
947 779 499
611 492 291
641 518 310
672 544 329
703 570 348
734 597 367
765 623 386
796 650 405
827 676 425
858 703 444
889 729 463
920 756 482
952 783 502
983 810 521
1015 837 541
1046 864 560
1078 891 580
1110 918 600
769 627 389
800 654 408
831 680 428
863 707 447
894 734 466
925 761 486
957 787 505
988 814 525
1020 841 544
1051 868 563
1083 895 583
1115 922 603
1147 950 622
1178 977 642
1210 1004 662
1242 1031 682
1275 1059 701
930 765 488
962 791 508
993 818 527
1025 845 547
1056 873 567
1088 900 586
1120 927 606
1152 954 626
1184 981 645
1215 1008 665
1247 1036 684
1279 1063 704
1311 1090 724
1344 1118 744
1376 1145 764
1408 1173 784
1440 1201 804
1093 904 589
1125 931 609
1157 958 628
1188 985 648
1220 1013 668
1252 1040 688
1285 1068 708
1317 1095 727
1349 1122 747
1381 1150 767
1413 1177 787
1445 1205 807
1478 1233 827
1510 1260 847
1543 1288 867
1575 1316 887
1608 1344 907
1257 1044 691
1289 1072 711
1322 1099 730
1354 1127 750
1386 1154 770
1418 1182 790
1451 1209 810
1483 1237 830
1515 1265 850
1547 1292 870
1580 1320 890
1613 1348 910
1645 1376 930
1678 1403 951
1710 1431 971
1743 1459 991
1776 1487 1011
1423 1186 793
1455 1214 813
1488 1241 833
1520 1269 853
1553 1297 873
1585 1324 893
1618 1352 914
1650 1380 934
1683 1408 954
1715 1436 974
1748 1464 994
1781 1492 1014
1814 1520 1035
1846 1548 1055
1879 1576 1075
1912 1604 1096
1945 1632 1116
1590 1329 896
1623 1356 917
1655 1384 937
1688 1412 957
1721 1440 977
1753 1468 997
1786 1496 1018
1819 1524 1038
1852 1552 1058
1884 1580 1078
1917 1608 1099
1950 1636 1119
1983 1664 1139
2016 1693 1160
2049 1721 1180
2082 1749 1201
2115 1778 1221
1756 1470 999
1788 1498 1019
1821 1526 1039
1854 1554 1060
1887 1582 1080
1920 1610 1100
1953 1639 1121
1986 1667 1141
2019 1695 1162
2052 1723 1182
2085 1751 1202
2118 1779 1223
2151 1808 1243
2184 1836 1264
2217 1865 1284
2251 1893 1305
2284 1921 1325
1925 1615 1103
1958 1643 1124
1991 1671 1144
2024 1699 1165
2057 1728 1185
2090 1756 1206
2123 1784 1226
2156 1812 1246
2190 1841 1267
2222 1869 1287
2256 1897 1308
2289 1926 1328
2322 1954 1349
2355 1983 1370
2388 2011 1390
2420 2038 1410
2452 2065 1429
2095 1760 1209
2128 1788 1229
2161 1817 1250
2194 1845 1270
2228 1873 1291
2261 1902 1311
2294 1930 1332
2328 1959 1352
2361 1987 1373
2393 2015 1393
2425 2042 1413
2457 2070 1432
2489 2097 1452
2521 2124 1472
2553 2152 1492
2585 2179 1512
2617 2207 1532
2266 1906 1314
2299 1935 1335
2333 1963 1355
2366 1992 1376
2398 2019 1396
2430 2047 1416
2462 2074 1436
2494 2101 1456
2527 2129 1475
2558 2156 1495
2590 2183 1515
2622 2211 1534
2654 2238 1554
2686 2265 1574
2718 2293 1594
2750 2320 1614
2782 2347 1633
2435 2051 1419
2467 2078 1439
2499 2106 1458
2531 2133 1478
2563 2160 1498
2595 2188 1518
2628 2215 1538
2660 2242 1558
2692 2270 1577
2723 2297 1597
2755 2324 1617
2787 2351 1636
2819 2379 1656
2851 2406 1676
2883 2433 1696
2915 2461 1715
2947 2488 1735
2600 2192 1521
2632 2219 1541
2664 2247 1561
2696 2274 1580
2728 2301 1600
2760 2329 1620
2792 2356 1640
2824 2383 1659
2856 2411 1679
2888 2437 1699
2920 2465 1718
2952 2492 1738
2983 2519 1758
3015 2547 1778
3047 2574 1797
3079 2601 1817
3111 2628 1837
2765 2333 1623
2797 2360 1643
2829 2387 1662
2861 2415 1682
2893 2442 1702
2925 2469 1722
2957 2497 1741
2989 2524 1761
3021 2551 1781
3052 2578 1800
3084 2605 1820
3116 2632 1840
3148 2660 1859
3179 2687 1879
3211 2714 1899
3243 2741 1918
3275 2768 1938
2930 2473 1725
2962 2501 1744
2994 2528 1764
3025 2555 1784
3057 2582 1803
3089 2610 1823
3121 2637 1843
3153 2664 1863
3185 2691 1882
3216 2718 1902
3248 2745 1921
3280 2772 1941
3311 2799 1961
3343 2827 1980
3375 2854 2000
3407 2881 2019
3438 2908 2039
381 295 149
410 321 167
440 346 185
470 371 204
500 397 222
530 422 241
560 448 260
590 474 278
621 500 297
651 526 316
682 552 335
712 579 354
743 605 373
774 631 392
805 658 411
836 685 431
868 711 450
534 426 244
564 452 262
595 478 281
625 504 300
656 530 319
687 557 338
717 583 357
748 609 376
779 636 395
810 662 414
841 689 433
872 715 453
904 742 472
935 769 492
967 796 511
998 823 531
