public/luts/Fuji XTrans III - Classic Chrome.3dl
#Fujifilm Fuji XTrans III - Classic Chrome — analytically generated
0 128 256 384 512 639 767 895 1023
155 174 189
167 192 547
180 211 925
193 231 1311
206 251 1702
218 269 2071
231 288 2445
243 307 2824
253 323 3122
219 614 310
231 633 668
243 652 1046
256 671 1432
269 691 1823
282 710 2192
294 729 2567
307 748 2945
314 762 3202
284 1067 435
296 1085 793
309 1105 1171
321 1124 1557
335 1144 1948
347 1163 2317
360 1182 2691
372 1201 3070
382 1209 3284
350 1525 561
362 1543 919
375 1562 1297
392 1576 1669
412 1589 2043
430 1601 2395
448 1613 2753
467 1625 3114
481 1632 3364
435 1964 635
452 1976 977
471 1988 1338
490 2000 1707
510 2013 2081
528 2025 2433
546 2037 2790
565 2049 3152
581 2059 3445
528 2367 671
546 2379 1013
564 2391 1374
583 2403 1743
603 2416 2116
621 2428 2469
640 2440 2826
658 2452 3187
676 2463 3522
623 2778 707
640 2789 1049
659 2801 1410
678 2814 1779
698 2827 2153
716 2838 2505
734 2851 2862
753 2863 3224
770 2878 3601
719 3195 744
737 3206 1086
755 3218 1447
772 3234 1823
788 3250 2205
804 3265 2566
819 3281 2932
835 3296 3301
851 3312 3682
810 3640 810
825 3655 1160
840 3671 1529
856 3687 1907
873 3703 2289
888 3719 2650
904 3734 3016
919 3750 3386
940 3766 3764
522 222 249
534 240 607
546 259 985
559 278 1371
572 298 1762
585 317 2131
597 336 2506
610 355 2884
618 370 3162
585 662 370
597 680 728
610 699 1106
623 719 1492
636 739 1884
648 757 2253
661 776 2627
673 796 3005
680 809 3242
650 1115 495
662 1133 853
675 1152 1231
688 1172 1617
701 1192 2008
714 1210 2376
733 1222 2733
751 1234 3094
764 1240 3322
718 1570 615
736 1582 957
755 1594 1318
774 1607 1687
793 1619 2061
811 1631 2413
830 1643 2771
849 1655 3132
864 1664 3403
816 1994 653
834 2006 995
853 2018 1356
872 2031 1725
891 2043 2098
909 2055 2451
928 2067 2808
947 2080 3169
963 2090 3484
909 2398 689
927 2409 1031
946 2421 1392
965 2434 1760
984 2446 2134
1003 2458 2486
1021 2470 2844
1040 2483 3205
1058 2495 3561
1004 2808 725
1022 2820 1067
1041 2832 1428
1060 2844 1797
1079 2857 2170
1097 2869 2524
1113 2885 2890
1128 2900 3260
1144 2917 3640
1100 3226 765
1115 3241 1115
1130 3256 1484
1146 3272 1862
1162 3289 2244
1178 3304 2605
1193 3320 2971
1209 3335 3340
1225 3351 3721
1184 3679 849
1199 3694 1199
1214 3710 1568
1231 3726 1946
1247 3742 2328
1264 3758 2688
1284 3773 3052
1304 3790 3419
1324 3806 3797
909 272 312
921 290 670
933 309 1048
946 329 1434
959 348 1826
972 367 2195
984 386 2569
997 405 2947
1004 419 3204
972 712 434
984 730 792
997 750 1170
1010 769 1556
1023 789 1947
1035 808 2316
1048 827 2690
1061 846 3069
1070 855 3283
1038 1165 558
1050 1183 916
1062 1202 1294
1079 1217 1669
1099 1230 2042
1117 1242 2395
1136 1254 2752
1154 1266 3113
1168 1273 3363
1121 1602 634
1139 1614 976
1158 1626 1337
1177 1639 1706
1196 1651 2080
1214 1663 2432
1233 1675 2789
1252 1687 3151
1267 1697 3443
1219 2027 672
1237 2038 1014
1256 2050 1375
1275 2063 1744
1294 2075 2117
1312 2087 2470
1331 2099 2827
1350 2112 3188
1367 2123 3524
1312 2430 708
1330 2441 1049
1349 2453 1411
1368 2466 1779
1387 2479 2153
1405 2490 2505
1424 2503 2863
1443 2515 3224
1460 2530 3601
1407 2840 744
1425 2852 1086
1444 2864 1447
1460 2879 1822
1477 2895 2204
1492 2910 2565
1508 2926 2931
1523 2942 3301
1539 2958 3681
1495 3267 806
1510 3282 1156
1525 3298 1525
1541 3314 1903
1558 3330 2285
1573 3345 2646
1588 3361 3012
1604 3376 3381
1624 3394 3760
1579 3721 890
1594 3735 1240
1610 3751 1610
1630 3767 1985
1651 3784 2365
1670 3800 2723
1690 3816 3087
1710 3832 3454
1731 3848 3832
1304 323 377
1316 341 735
1329 360 1113
1342 380 1499
1355 400 1891
1367 419 2260
1380 437 2634
1392 457 3012
1399 470 3246
1368 764 498
1380 782 856
1392 801 1235
1405 820 1621
1418 840 2012
1432 857 2377
1451 869 2734
1469 882 3096
1483 888 3325
1435 1214 616
1453 1225 958
1472 1237 1319
1491 1250 1688
1510 1263 2061
1528 1274 2414
1547 1287 2771
1566 1299 3133
1581 1307 3404
1533 1635 654
1550 1647 995
1569 1659 1356
1588 1671 1725
1608 1684 2099
1626 1696 2451
1644 1708 2809
1663 1720 3170
1680 1730 3485
1631 2059 691
1648 2071 1033
1667 2083 1394
1686 2095 1763
1706 2108 2136
1724 2120 2489
1742 2132 2846
1761 2144 3207
1780 2156 3566
1724 2462 727
1742 2474 1069
1760 2486 1430
1779 2499 1798
1799 2511 2172
1816 2524 2527
1831 2540 2893
1847 2556 3263
1863 2572 3643
1817 2874 767
1832 2889 1117
1848 2905 1486
1864 2921 1864
1880 2937 2246
1895 2952 2607
1911 2968 2973
1927 2984 3343
1943 3000 3723
1898 3309 848
1913 3324 1198
1929 3340 1567
1945 3356 1945
1961 3372 2327
1978 3388 2687
1998 3406 3051
2019 3425 3419
2040 3444 3797
1986 3763 930
2005 3778 1278
2025 3794 1645
2045 3810 2020
2066 3827 2400
2086 3843 2759
2105 3859 3122
2126 3875 3490
2146 3891 3868
1705 375 443
1717 393 801
1729 412 1179
1742 432 1565
1755 452 1956
1768 471 2325
1780 489 2700
1793 509 3078
1805 515 3289
1768 816 564
1780 834 922
1793 853 1300
1812 866 1670
1831 879 2044
1849 891 2396
1868 903 2754
1886 915 3115
1900 922 3367
1852 1247 636
1870 1258 977
1889 1271 1339
1908 1283 1707
1927 1296 2081
1945 1308 2433
1964 1320 2791
1983 1332 3152
1999 1341 3446
1950 1668 673
1967 1680 1015
1986 1692 1376
2005 1704 1745
2025 1717 2118
2043 1729 2471
2061 1741 2828
2080 1753 3189
2098 1764 3527
2048 2092 711
2065 2104 1052
2084 2116 1414
2103 2129 1782
2123 2141 2156
2141 2153 2508
2159 2165 2866
2178 2178 3228
2194 2194 3608
2141 2495 746
2159 2507 1088
2177 2519 1450
2193 2535 1827
2209 2552 2209
2225 2567 2570
2240 2582 2936
2256 2598 3306
2272 2614 3686
2226 2917 810
2241 2932 1159
2257 2947 1529
2273 2963 1906
2289 2980 2289
2304 2995 2650
2320 3011 3015
2335 3026 3385
2356 3045 3764
2307 3352 890
2322 3367 1240
2338 3382 1610
2359 3401 1985
2380 3420 2366
2400 3438 2725
2420 3457 3089
2441 3475 3457
2462 3494 3835
2406 3806 967
2425 3822 1314
2445 3838 1682
2466 3854 2057
2487 3871 2437
2506 3886 2795
2526 3902 3159
2546 3918 3526
2567 3935 3904
2082 424 505
2094 442 863
2107 461 1241
2120 481 1627
2133 501 2018
2149 516 2379
2167 528 2736
2186 540 3097
2199 547 3329
2149 861 617
2167 873 959
2186 885 1320
2205 897 1689
2224 910 2062
2242 922 2415
2261 934 2772
2279 946 3133
2295 955 3406
2246 1278 654
2263 1290 996
2282 1302 1357
2301 1314 1726
2320 1327 2099
2339 1339 2452
2357 1351 2809
2376 1363 3170
2393 1373 3486
2343 1699 691
2361 1711 1033
2379 1723 1394
2398 1736 1763
2418 1748 2137
2436 1760 2489
2454 1772 2846
2473 1785 3208
2492 1797 3566
2441 2124 729
2459 2135 1071
2477 2147 1432
2496 2160 1801
2516 2173 2174
2532 2187 2532
2548 2202 2898
2563 2218 3268
2579 2234 3648
2532 2529 770
2547 2544 1120
2563 2560 1490
2579 2576 1867
2595 2592 2250
2610 2607 2610
2626 2623 2976
2641 2638 3346
2658 2654 3726
2612 2957 850
2626 2972 1200
2642 2988 1569
2658 3004 1947
2674 3020 2329
2692 3036 2689
2712 3055 3053
2733 3073 3421
2754 3092 3799
2695 3394 929
2715 3411 1277
2735 3430 1645
2756 3449 2021
2778 3468 2401
2798 3486 2760
2818 3504 3124
2839 3523 3492
2860 3542 3870
2803 3847 1001
2822 3863 1348
2842 3879 1716
2863 3895 2091
2883 3912 2471
2903 3927 2829
2923 3943 3193
2943 3959 3560
2964 3976 3938
2466 474 568
2478 492 926
2491 511 1303
2510 523 1671
2529 536 2045
2547 548 2397
2566 560 2755
2585 572 3116
2599 580 3369
2548 893 636
2566 904 978
2585 916 1339
2604 929 1707
2623 942 2081
2641 954 2433
2660 966 2791
2678 978 3152
2694 987 3446
2644 1310 673
2662 1321 1014
2681 1334 1376
2700 1346 1744
2719 1359 2118
2738 1371 2470
2756 1383 2828
2775 1395 3189
2793 1406 3526
2742 1731 710
2760 1743 1052
2778 1755 1413
2797 1767 1782
2817 1780 2155
2835 1792 2508
2853 1804 2865
2872 1816 3226
2888 1832 3607
2840 2155 748
2858 2167 1089
2876 2180 1452
2892 2196 1830
2908 2212 2212
2923 2227 2573
2939 2243 2939
2954 2259 3308
2971 2275 3689
2923 2570 811
2938 2585 1161
2954 2600 1530
2970 2616 1908
2986 2633 2290
3001 2648 2651
3017 2663 3017
3033 2679 3387
3054 2698 3765
3003 2998 890
3018 3013 1240
3033 3028 1610
3054 3047 1985
3076 3066 2366
3096 3085 2725
3116 3103 3089
3137 3121 3457
3158 3140 3835
3099 3442 965
3119 3459 1313
3139 3478 1681
3160 3497 2057
3181 3516 2437
3201 3534 2796
3222 3552 3160
3242 3571 3528
3263 3590 3906
3206 3889 1035
3225 3904 1383
3245 3920 1750
3265 3937 2125
3286 3953 2505
3305 3969 2864
3325 3985 3227
3345 4001 3595
3366 4017 3973
2858 519 619
2875 531 960
2894 543 1321
2913 555 1690
2932 568 2064
2951 580 2416
2969 592 2774
2988 604 3135
3003 613 3409
2951 925 654
2969 936 996
2988 949 1357
3007 961 1726
3026 974 2100
3044 986 2452
3063 998 2810
3082 1010 3171
3098 1020 3487
3048 1342 691
3065 1353 1033
3084 1366 1394
3103 1378 1763
3122 1391 2137
3141 1403 2489
3159 1415 2847
3178 1427 3208
3197 1439 3566
3145 1763 729
3163 1775 1071
3181 1787 1432
3200 1799 1800
3220 1812 2174
3236 1826 2532
3252 1842 2898
3267 1857 3267
3284 1874 3648
3240 2191 774
3255 2205 1124
3271 2221 1493
3287 2237 1871
3303 2253 2253
3318 2269 2614
3334 2284 2980
3350 2300 3350
3366 2316 3730
3318 2611 852
3333 2626 1202
3349 2641 1572
3365 2657 1949
3381 2674 2331
3400 2691 2691
3420 2709 3055
3440 2728 3423
3462 2747 3801
3401 3041 930
3421 3058 1278
3441 3077 1646
3462 3096 2022
3484 3115 2402
3504 3133 2761
3524 3151 3125
3545 3170 3493
3566 3189 3871
3507 3490 1001
3527 3508 1350
3547 3526 1717
3568 3545 2093
3589 3564 2473
3609 3582 2832
3630 3601 3196
3650 3619 3564
3671 3638 3942
3612 3931 1070
3631 3946 1418
3651 3962 1785
3672 3979 2160
3693 3995 2540
3712 4011 2899
3732 4027 3262
3752 4043 3630
3773 4059 4008
3272 552 638
3290 564 980
3309 576 1341
3328 588 1710
3347 601 2083
3365 613 2435
3384 625 2793
3402 637 3154
3419 647 3451
3366 958 674
3384 969 1016
3402 982 1377
3421 994 1745
3441 1007 2119
3459 1019 2471
3477 1031 2829
3496 1043 3190
3514 1054 3528
3462 1375 711
3480 1386 1053
3499 1399 1414
3518 1411 1782
3537 1424 2156
3555 1436 2508
3574 1448 2866
3592 1460 3228
3608 1476 3608
3560 1796 748
3577 1808 1090
3595 1821 1454
3611 1837 1831
3627 1853 2213
3643 1869 2574
3658 1884 2940
3674 1900 3310
3690 1916 3690
3647 2233 816
3662 2248 1166
3677 2263 1536
3693 2279 1913
3710 2296 2296
3725 2311 2656
3740 2327 3022
3756 2343 3391
3773 2362 3769
3725 2653 894
3740 2668 1244
3756 2684 1613
3772 2703 1988
3788 2722 2368
3804 2739 2727
3820 2757 3090
3836 2775 3458
3853 2794 3835
3806 3089 966
3821 3106 1314
3837 3124 1681
3853 3143 2056
3870 3162 2436
3885 3179 2794
3901 3197 3158
3917 3215 3525
3934 3234 3903
3888 3536 1035
3903 3553 1382
3919 3571 1750
3936 3590 2125
3952 3608 2505
3968 3626 2863
3984 3644 3227
4000 3662 3594
4016 3681 3972
3968 3968 1100
3983 3983 1447
3998 3998 1814
4014 4014 2189
4030 4030 2568
4045 4045 2926
4061 4061 3289
4076 4076 3656
4092 4092 4033
