public/luts/Fuji XTrans III - Velvia.3dl
#Fujifilm Fuji XTrans III - Velvia — analytically generated
0 128 256 384 512 639 767 895 1023
0 0 0
0 0 665
0 0 1582
0 0 2627
0 0 3763
0 0 4095
0 0 4095
0 0 4095
0 0 4095
0 489 0
0 457 553
0 413 1470
0 363 2513
0 308 3649
0 258 4095
0 210 4095
0 164 4095
0 140 4095
0 1203 0
0 1171 385
0 1126 1301
0 1075 2343
0 1020 3476
0 969 4095
0 920 4095
0 874 4095
0 853 4095
0 2034 0
0 2001 178
0 1955 1091
0 1903 2129
0 1846 3259
0 1794 4095
0 1743 4095
0 1696 4095
0 1679 4095
0 2945 0
0 2911 0
0 2864 836
0 2810 1870
0 2751 2993
0 2697 4009
0 2644 4095
0 2594 4095
0 2580 4095
0 3752 0
0 3717 0
0 3668 582
0 3612 1610
0 3551 2729
0 3495 3739
0 3440 4095
0 3389 4095
0 3374 4095
0 4095 0
0 4095 0
0 4095 312
0 4095 1336
0 4095 2448
0 4095 3453
0 4095 4095
0 4095 4095
0 4095 4095
0 4095 0
0 4095 0
0 4095 40
0 4095 1058
0 4095 2165
0 4095 3165
0 4095 4095
0 4095 4095
0 4095 4095
0 4095 0
0 4095 0
0 4095 0
0 4095 883
0 4095 1984
0 4095 2979
0 4095 3941
0 4095 4095
0 4095 4095
508 0 0
468 0 612
413 0 1529
350 0 2573
281 0 3708
219 0 4095
160 0 4095
104 0 4095
68 0 4095
315 416 0
275 384 499
220 339 1415
158 289 2458
89 233 3593
28 183 4095
0 135 4095
0 89 4095
0 66 4095
35 1129 0
0 1096 328
0 1051 1243
0 1000 2284
0 944 3416
0 893 4095
0 843 4095
0 796 4095
0 777 4095
0 1957 0
0 1924 116
0 1878 1028
0 1825 2065
0 1767 3193
0 1715 4095
0 1664 4095
0 1615 4095
0 1600 4095
0 2865 0
0 2831 0
0 2783 765
0 2729 1798
0 2669 2920
0 2614 3934
0 2561 4095
0 2511 4095
0 2497 4095
0 3669 0
0 3634 0
0 3584 503
0 3528 1531
0 3466 2647
0 3409 3656
0 3354 4095
0 3302 4095
0 3287 4095
0 4095 0
0 4095 0
0 4095 226
0 4095 1248
0 4095 2359
0 4095 3363
0 4095 4095
0 4049 4095
0 4032 4095
0 4095 0
0 4095 0
0 4095 0
0 4095 963
0 4095 2069
0 4095 3068
0 4095 4034
0 4095 4095
0 4095 4095
0 4095 0
0 4095 0
0 4095 0
0 4095 781
0 4095 1880
0 4095 2874
0 4095 3834
0 4095 4095
0 4095 4095
1298 0 0
1259 0 528
1205 0 1444
1143 0 2488
1076 0 3622
1015 0 4095
956 0 4095
901 0 4095
869 0 4095
1109 301 0
1070 268 413
1016 224 1328
954 173 2370
887 117 3503
827 66 4095
768 17 4095
713 0 4095
685 0 4095
833 1012 0
794 979 237
741 933 1150
679 881 2190
613 824 3320
553 773 4095
495 722 4095
440 675 4095
418 657 4095
514 1837 0
475 1803 16
422 1756 926
361 1703 1962
295 1644 3088
236 1591 4095
179 1539 4095
125 1490 4095
107 1475 4095
164 2740 0
126 2705 0
73 2657 652
14 2601 1682
0 2540 2802
0 2485 3814
0 2431 4095
0 2380 4095
0 2365 4095
0 3539 0
0 3503 0
0 3453 378
0 3395 1402
0 3332 2516
0 3275 3523
0 3219 4095
0 3166 4095
0 3150 4095
0 4095 0
0 4095 0
0 4095 88
0 4095 1108
0 4081 2216
0 4022 3217
0 3964 4095
0 3909 4095
0 3890 4095
0 4095 0
0 4095 0
0 4095 0
0 4095 812
0 4095 1915
0 4095 2912
0 4095 3876
0 4095 4095
0 4095 4095
0 4095 0
0 4095 0
0 4095 0
0 4095 618
0 4095 1714
0 4095 2706
0 4095 3664
0 4095 4095
0 4095 4095
2252 0 0
2214 0 425
2161 0 1340
2100 0 2382
2034 0 3516
1975 0 4095
1917 0 4095
1863 0 4095
1835 0 4095
2067 161 0
2028 129 306
1975 83 1220
1915 32 2261
1849 0 3392
1790 0 4095
1733 0 4095
1679 0 4095
1655 0 4095
1797 869 0
1758 835 123
1706 789 1034
1646 736 2072
1580 679 3200
1521 626 4095
1464 575 4095
1411 526 4095
1391 510 4095
1483 1689 0
1445 1655 0
1392 1607 799
1333 1553 1832
1268 1493 2955
1210 1439 3970
1153 1386 4095
1100 1336 4095
1084 1321 4095
1139 2587 0
1101 2551 0
1049 2502 509
990 2445 1536
926 2383 2653
869 2327 3662
813 2272 4095
761 2220 4095
745 2205 4095
834 3381 0
796 3344 0
745 3293 220
687 3234 1242
624 3170 2352
566 3111 3356
511 3054 4095
459 3001 4095
444 2983 4095
544 4095 0
508 4093 0
457 4040 0
399 3980 933
336 3914 2038
280 3853 3037
225 3795 4003
174 3739 4095
156 3717 4095
280 4095 0
243 4095 0
193 4095 0
135 4095 625
73 4095 1725
17 4095 2720
0 4095 3682
0 4095 4095
0 4095 4095
127 4095 0
89 4095 0
37 4095 0
0 4095 415
0 4095 1509
0 4095 2498
0 4095 3455
0 4095 4095
0 4095 4095
3333 0 0
3296 0 305
3244 0 1219
3184 0 2259
3120 0 3390
3061 0 4095
3005 0 4095
2952 0 4095
2929 0 4095
3152 2 0
3114 0 180
3062 0 1093
3003 0 2131
2939 0 3260
2881 0 4095
2824 0 4095
2771 0 4095
2751 0 4095
2887 705 0
2850 671 0
2798 624 897
2739 570 1931
2675 511 3056
2617 457 4074
2560 405 4095
2508 356 4095
2490 341 4095
2579 1520 0
2541 1485 0
2490 1437 646
2431 1381 1676
2367 1320 2796
2309 1264 3808
2253 1210 4095
2201 1159 4095
2186 1145 4095
2239 2411 0
2202 2375 0
2150 2324 338
2092 2266 1362
2028 2203 2475
1971 2146 3482
1915 2089 4095
1863 2036 4095
1848 2020 4095
1936 3199 0
1899 3161 0
1848 3109 33
1790 3049 1051
1726 2984 2159
1669 2924 3159
1614 2866 4095
1562 2811 4095
1545 2791 4095
1647 3944 0
1610 3905 0
1559 3851 0
1502 3790 728
1439 3722 1829
1382 3661 2826
1327 3601 3789
1275 3545 4095
1254 3520 4095
1381 4095 0
1345 4095 0
1294 4095 0
1236 4095 407
1173 4095 1505
1117 4095 2497
1062 4095 3457
1010 4095 4095
984 4095 4095
1220 4095 0
1181 4095 0
1128 4095 0
1068 4095 181
1002 4095 1272
943 4095 2259
885 4095 3213
830 4095 4095
797 4095 4095
4095 0 0
4095 0 193
4095 0 1105
4095 0 2144
4089 0 3273
4032 0 4095
3976 0 4095
3924 0 4095
3904 0 4095
4095 0 0
4084 0 63
4032 0 973
3974 0 2010
3911 0 3136
3853 0 4095
3798 0 4095
3745 0 4095
3727 0 4095
3860 557 0
3823 522 0
3771 475 767
3713 420 1799
3650 360 2922
3592 305 3936
3537 252 4095
3484 201 4095
3469 187 4095
3555 1367 0
3518 1331 0
3466 1282 503
3408 1225 1530
3345 1163 2647
3287 1106 3656
3232 1051 4095
3179 999 4095
3164 984 4095
3217 2252 0
3180 2215 0
3129 2164 179
3070 2105 1200
3007 2040 2310
2949 1982 3313
2894 1925 4095
2841 1871 4095
2825 1853 4095
2914 3034 0
2877 2996 0
2826 2943 0
2768 2882 875
2704 2816 1979
2647 2756 2977
2591 2697 3943
2539 2641 4095
2519 2618 4095
2624 3775 0
2587 3735 0
2536 3681 0
2477 3619 538
2414 3550 1638
2356 3488 2632
2301 3428 3593
2248 3371 4095
2224 3343 4095
2356 4095 0
2319 4095 0
2267 4095 0
2209 4095 208
2145 4095 1304
2088 4095 2294
2032 4095 3252
1980 4041 4095
1950 4006 4095
2184 4095 0
2145 4095 0
2091 4095 0
2030 4095 0
1962 4095 1056
1902 4095 2041
1843 4095 2994
1787 4095 3889
1750 4095 4095
4095 0 0
4095 0 82
4095 0 993
4095 0 2029
4095 0 3156
4095 0 4095
4095 0 4095
4095 0 4095
4095 0 4095
4095 0 0
4095 0 0
4095 0 854
4095 0 1888
4095 0 3012
4095 0 4029
4095 0 4095
4095 0 4095
4095 0 4095
4095 414 0
4095 379 0
4095 330 638
4095 274 1668
4095 213 2787
4095 157 3799
4095 103 4095
4095 52 4095
4095 38 4095
4095 1219 0
4095 1183 0
4095 1132 360
4095 1075 1385
4095 1012 2498
4095 954 3505
4095 898 4095
4095 845 4095
4091 829 4095
4095 2098 0
4095 2061 0
4056 2009 21
3998 1949 1039
3934 1884 2146
3876 1824 3147
3820 1766 4095
3767 1712 4095
3749 1691 4095
3841 2876 0
3804 2837 0
3752 2784 0
3693 2722 701
3629 2655 1803
3571 2594 2799
3514 2534 3762
3462 2478 4095
3439 2453 4095
3548 3613 0
3511 3573 0
3459 3518 0
3400 3455 354
3335 3386 1451
3277 3323 2443
3220 3263 3403
3167 3205 4095
3139 3174 4095
3277 4095 0
3239 4095 0
3187 4095 0
3127 4095 15
3063 4056 1109
3004 3993 2098
2948 3931 3055
2894 3873 3954
2860 3835 4095
3094 4095 0
3054 4095 0
2999 4095 0
2936 4095 0
2867 4095 848
2805 4095 1833
2745 4095 2785
2688 4095 3679
2646 4095 4095
4095 0 0
4095 0 0
4095 0 885
4095 0 1920
4095 0 3045
4095 0 4061
4095 0 4095
4095 0 4095
4095 0 4095
4095 0 0
4095 0 0
4095 0 741
4095 0 1773
4095 0 2894
4095 0 3908
4095 0 4095
4095 0 4095
4095 0 4095
4095 281 0
4095 246 0
4095 196 514
4095 140 1542
4095 78 2659
4095 21 3668
4095 0 4095
4095 0 4095
4095 0 4095
4095 1082 0
4095 1045 0
4095 994 224
4095 936 1246
4095 872 2357
4095 813 3362
4095 757 4095
4095 703 4095
4095 686 4095
4095 1957 0
4095 1919 0
4095 1866 0
4095 1805 887
4095 1739 1992
4095 1679 2991
4095 1620 3956
4095 1565 4095
4095 1543 4095
4095 2731 0
4095 2691 0
4095 2637 0
4095 2575 538
4095 2507 1637
4095 2445 2632
4095 2385 3593
4095 2329 4095
4095 2300 4095
4095 3464 0
4095 3424 0
4095 3368 0
4095 3305 182
4095 3235 1277
4095 3173 2268
4054 3111 3226
4000 3054 4095
3968 3019 4095
4095 4095 0
4073 4095 0
4020 4039 0
3959 3975 0
3894 3904 930
3834 3840 1918
3777 3779 2874
3722 3720 3772
3684 3679 4095
3917 4095 0
3876 4095 0
3820 4095 0
3756 4095 0
3686 4095 657
3623 4095 1641
3562 4095 2592
3504 4095 3486
3458 4095 4095
4095 0 0
4095 0 0
4095 0 821
4095 0 1854
4095 0 2978
4095 0 3993
4095 0 4095
4095 0 4095
4095 0 4095
4095 0 0
4095 0 0
4095 0 673
4095 0 1703
4095 0 2823
4095 0 3836
4095 0 4095
4095 0 4095
4095 0 4095
4095 202 0
4095 166 0
4095 116 440
4095 59 1466
4095 0 2581
4095 0 3588
4095 0 4095
4095 0 4095
4095 0 4095
4095 1000 0
4095 963 0
4095 911 140
4095 852 1160
4095 787 2269
4095 728 3272
4095 670 4095
4095 616 4095
4095 596 4095
4095 1870 0
4095 1831 0
4095 1777 0
4095 1716 789
4095 1648 1891
4095 1587 2888
4095 1527 3851
4095 1471 4095
4095 1446 4095
4095 2638 0
4095 2598 0
4095 2543 0
4095 2479 427
4095 2410 1525
4095 2347 2517
4095 2285 3476
4095 2228 4095
4095 2196 4095
4095 3365 0
4095 3324 0
4095 3267 0
4095 3202 60
4095 3132 1153
4095 3067 2142
4095 3005 3098
4095 2946 3996
4095 2907 4095
4095 4031 0
4095 3989 0
4095 3932 0
4095 3866 0
4095 3794 796
4095 3729 1783
4095 3665 2737
4095 3606 3633
4095 3561 4095
4095 4095 0
4095 4095 0
4095 4095 0
4095 4095 0
4095 4095 511
4095 4095 1492
4095 4095 2442
4095 4095 3335
4095 4095 4095
