public/luts/Fuji XTrans III - Mono+R.3dl
#Fujifilm Fuji XTrans III - Mono+R — analytically generated
0 64 128 192 256 320 384 448 512 575 639 703 767 831 895 959 1023
0 0 0
10 10 10
22 22 22
35 35 35
49 49 49
63 63 63
78 78 78
94 94 94
109 109 109
125 125 125
142 142 142
158 158 158
175 175 175
192 192 192
209 209 209
227 227 227
244 244 244
67 67 67
82 82 82
98 98 98
113 113 113
130 130 130
146 146 146
163 163 163
179 179 179
197 197 197
214 214 214
231 231 231
249 249 249
267 267 267
285 285 285
303 303 303
321 321 321
340 340 340
150 150 150
167 167 167
184 184 184
201 201 201
218 218 218
236 236 236
254 254 254
271 271 271
289 289 289
307 307 307
326 326 326
344 344 344
363 363 363
382 382 382
401 401 401
420 420 420
439 439 439
240 240 240
258 258 258
276 276 276
294 294 294
312 312 312
331 331 331
349 349 349
368 368 368
387 387 387
405 405 405
425 425 425
444 444 444
463 463 463
482 482 482
502 502 502
522 522 522
541 541 541
335 335 335
354 354 354
373 373 373
392 392 392
411 411 411
430 430 430
449 449 449
468 468 468
488 488 488
507 507 507
527 527 527
546 546 546
566 566 566
586 586 586
606 606 606
626 626 626
647 647 647
434 434 434
454 454 454
473 473 473
493 493 493
512 512 512
532 532 532
552 552 552
571 571 571
591 591 591
611 611 611
631 631 631
652 652 652
672 672 672
692 692 692
713 713 713
734 734 734
754 754 754
537 537 537
557 557 557
576 576 576
596 596 596
617 617 617
637 637 637
657 657 657
677 677 677
698 698 698
718 718 718
739 739 739
759 759 759
780 780 780
801 801 801
822 822 822
843 843 843
864 864 864
642 642 642
662 662 662
683 683 683
703 703 703
724 724 724
744 744 744
765 765 765
786 786 786
807 807 807
827 827 827
848 848 848
869 869 869
890 890 890
912 912 912
933 933 933
954 954 954
976 976 976
749 749 749
770 770 770
791 791 791
812 812 812
833 833 833
854 854 854
875 875 875
896 896 896
917 917 917
938 938 938
960 960 960
981 981 981
1003 1003 1003
1024 1024 1024
1046 1046 1046
1068 1068 1068
1089 1089 1089
857 857 857
878 878 878
900 900 900
921 921 921
942 942 942
964 964 964
985 985 985
1007 1007 1007
1028 1028 1028
1050 1050 1050
1071 1071 1071
1093 1093 1093
1115 1115 1115
1137 1137 1137
1159 1159 1159
1181 1181 1181
1203 1203 1203
969 969 969
990 990 990
1012 1012 1012
1034 1034 1034
1055 1055 1055
1077 1077 1077
1099 1099 1099
1121 1121 1121
1143 1143 1143
1164 1164 1164
1186 1186 1186
1208 1208 1208
1230 1230 1230
1253 1253 1253
1275 1275 1275
1297 1297 1297
1319 1319 1319
1082 1082 1082
1104 1104 1104
1126 1126 1126
1148 1148 1148
1170 1170 1170
1192 1192 1192
1214 1214 1214
1236 1236 1236
1258 1258 1258
1280 1280 1280
1303 1303 1303
1325 1325 1325
1347 1347 1347
1370 1370 1370
1392 1392 1392
1415 1415 1415
1438 1438 1438
1198 1198 1198
1220 1220 1220
1242 1242 1242
1264 1264 1264
1286 1286 1286
1309 1309 1309
1331 1331 1331
1353 1353 1353
1376 1376 1376
1398 1398 1398
1421 1421 1421
1443 1443 1443
1466 1466 1466
1489 1489 1489
1511 1511 1511
1534 1534 1534
1557 1557 1557
1314 1314 1314
1337 1337 1337
1359 1359 1359
1382 1382 1382
1404 1404 1404
1427 1427 1427
1449 1449 1449
1472 1472 1472
1495 1495 1495
1517 1517 1517
1540 1540 1540
1563 1563 1563
1586 1586 1586
1609 1609 1609
1632 1632 1632
1655 1655 1655
1678 1678 1678
1432 1432 1432
1455 1455 1455
1478 1478 1478
1500 1500 1500
1523 1523 1523
1546 1546 1546
1569 1569 1569
1592 1592 1592
1615 1615 1615
1638 1638 1638
1661 1661 1661
1684 1684 1684
1707 1707 1707
1730 1730 1730
1753 1753 1753
1777 1777 1777
1800 1800 1800
1552 1552 1552
1575 1575 1575
1598 1598 1598
1621 1621 1621
1644 1644 1644
1667 1667 1667
1690 1690 1690
1713 1713 1713
1736 1736 1736
1759 1759 1759
1783 1783 1783
1806 1806 1806
1829 1829 1829
1853 1853 1853
1876 1876 1876
1900 1900 1900
1923 1923 1923
1673 1673 1673
1696 1696 1696
1719 1719 1719
1742 1742 1742
1765 1765 1765
1789 1789 1789
1812 1812 1812
1835 1835 1835
1859 1859 1859
1882 1882 1882
1906 1906 1906
1929 1929 1929
1953 1953 1953
1976 1976 1976
2000 2000 2000
2024 2024 2024
2048 2048 2048
82 82 82
98 98 98
113 113 113
130 130 130
146 146 146
163 163 163
179 179 179
197 197 197
214 214 214
231 231 231
249 249 249
267 267 267
285 285 285
303 303 303
321 321 321
340 340 340
358 358 358
167 167 167
184 184 184
201 201 201
218 218 218
236 236 236
254 254 254
271 271 271
289 289 289
308 308 308
326 326 326
344 344 344
363 363 363
382 382 382
401 401 401
420 420 420
439 439 439
458 458 458
258 258 258
276 276 276
294 294 294
312 312 312
331 331 331
349 349 349
368 368 368
387 387 387
406 406 406
425 425 425
444 444 444
463 463 463
482 482 482
502 502 502
522 522 522
541 541 541
561 561 561
354 354 354
373 373 373
392 392 392
411 411 411
430 430 430
449 449 449
468 468 468
488 488 488
507 507 507
527 527 527
546 546 546
566 566 566
586 586 586
606 606 606
626 626 626
647 647 647
667 667 667
454 454 454
473 473 473
493 493 493
512 512 512
532 532 532
552 552 552
571 571 571
591 591 591
612 612 612
631 631 631
652 652 652
672 672 672
692 692 692
713 713 713
734 734 734
754 754 754
775 775 775
557 557 557
576 576 576
596 596 596
617 617 617
637 637 637
657 657 657
677 677 677
698 698 698
718 718 718
739 739 739
759 759 759
780 780 780
801 801 801
822 822 822
843 843 843
864 864 864
885 885 885
662 662 662
683 683 683
703 703 703
724 724 724
744 744 744
765 765 765
786 786 786
807 807 807
828 828 828
848 848 848
869 869 869
890 890 890
912 912 912
933 933 933
954 954 954
976 976 976
997 997 997
770 770 770
791 791 791
812 812 812
833 833 833
854 854 854
875 875 875
896 896 896
917 917 917
939 939 939
960 960 960
981 981 981
1003 1003 1003
1024 1024 1024
1046 1046 1046
1068 1068 1068
1089 1089 1089
1111 1111 1111
880 880 880
901 901 901
923 923 923
944 944 944
965 965 965
987 987 987
1008 1008 1008
1030 1030 1030
1052 1052 1052
1073 1073 1073
1095 1095 1095
1117 1117 1117
1139 1139 1139
1160 1160 1160
1182 1182 1182
1205 1205 1205
1227 1227 1227
990 990 990
1012 1012 1012
1034 1034 1034
1055 1055 1055
1077 1077 1077
1099 1099 1099
1121 1121 1121
1143 1143 1143
1164 1164 1164
1186 1186 1186
1208 1208 1208
1230 1230 1230
1253 1253 1253
1275 1275 1275
1297 1297 1297
1319 1319 1319
1342 1342 1342
1104 1104 1104
1126 1126 1126
1148 1148 1148
1170 1170 1170
1192 1192 1192
1214 1214 1214
1236 1236 1236
1258 1258 1258
1281 1281 1281
1303 1303 1303
1325 1325 1325
1347 1347 1347
1370 1370 1370
1392 1392 1392
1415 1415 1415
1438 1438 1438
1460 1460 1460
1220 1220 1220
1242 1242 1242
1264 1264 1264
1286 1286 1286
1309 1309 1309
1331 1331 1331
1353 1353 1353
1376 1376 1376
1398 1398 1398
1421 1421 1421
1443 1443 1443
1466 1466 1466
1489 1489 1489
1511 1511 1511
1534 1534 1534
1557 1557 1557
1580 1580 1580
1337 1337 1337
1359 1359 1359
1382 1382 1382
1404 1404 1404
1427 1427 1427
1449 1449 1449
1472 1472 1472
1495 1495 1495
1518 1518 1518
1540 1540 1540
1563 1563 1563
1586 1586 1586
1609 1609 1609
1632 1632 1632
1655 1655 1655
1678 1678 1678
1701 1701 1701
1455 1455 1455
1478 1478 1478
1500 1500 1500
1523 1523 1523
1546 1546 1546
1569 1569 1569
1592 1592 1592
1615 1615 1615
1638 1638 1638
1661 1661 1661
1684 1684 1684
1707 1707 1707
1730 1730 1730
1753 1753 1753
1777 1777 1777
1800 1800 1800
1823 1823 1823
1575 1575 1575
1598 1598 1598
1621 1621 1621
1644 1644 1644
1667 1667 1667
1690 1690 1690
1713 1713 1713
1736 1736 1736
1760 1760 1760
1783 1783 1783
1806 1806 1806
1829 1829 1829
1853 1853 1853
1876 1876 1876
1900 1900 1900
1923 1923 1923
1947 1947 1947
1696 1696 1696
1719 1719 1719
1742 1742 1742
1765 1765 1765
1789 1789 1789
1812 1812 1812
1835 1835 1835
1859 1859 1859
1882 1882 1882
1906 1906 1906
1929 1929 1929
1953 1953 1953
1976 1976 1976
2000 2000 2000
2024 2024 2024
2048 2048 2048
2070 2070 2070
1818 1818 1818
1841 1841 1841
1865 1865 1865
1888 1888 1888
1912 1912 1912
1935 1935 1935
1959 1959 1959
1983 1983 1983
2006 2006 2006
2030 2030 2030
2053 2053 2053
2075 2075 2075
2097 2097 2097
2119 2119 2119
2141 2141 2141
2163 2163 2163
2185 2185 2185
184 184 184
201 201 201
218 218 218
236 236 236
254 254 254
271 271 271
289 289 289
308 308 308
326 326 326
344 344 344
363 363 363
382 382 382
401 401 401
420 420 420
439 439 439
458 458 458
478 478 478
276 276 276
294 294 294
312 312 312
331 331 331
349 349 349
368 368 368
387 387 387
406 406 406
425 425 425
444 444 444
463 463 463
482 482 482
502 502 502
522 522 522
541 541 541
561 561 561
581 581 581
373 373 373
392 392 392
411 411 411
430 430 430
449 449 449
468 468 468
488 488 488
507 507 507
527 527 527
546 546 546
566 566 566
586 586 586
606 606 606
626 626 626
647 647 647
667 667 667
687 687 687
473 473 473
493 493 493
512 512 512
532 532 532
552 552 552
571 571 571
591 591 591
612 612 612
632 632 632
652 652 652
672 672 672
692 692 692
713 713 713
734 734 734
754 754 754
775 775 775
796 796 796
576 576 576
596 596 596
617 617 617
637 637 637
657 657 657
677 677 677
698 698 698
718 718 718
739 739 739
759 759 759
780 780 780
801 801 801
822 822 822
843 843 843
864 864 864
885 885 885
906 906 906
683 683 683
703 703 703
724 724 724
744 744 744
765 765 765
786 786 786
807 807 807
828 828 828
849 849 849
869 869 869
890 890 890
912 912 912
933 933 933
954 954 954
976 976 976
997 997 997
1019 1019 1019
791 791 791
812 812 812
833 833 833
854 854 854
875 875 875
896 896 896
917 917 917
939 939 939
960 960 960
981 981 981
1003 1003 1003
1024 1024 1024
1046 1046 1046
1068 1068 1068
1089 1089 1089
1111 1111 1111
1133 1133 1133
901 901 901
923 923 923
944 944 944
965 965 965
987 987 987
1008 1008 1008
1030 1030 1030
1052 1052 1052
1073 1073 1073
1095 1095 1095
1117 1117 1117
1139 1139 1139
1160 1160 1160
1182 1182 1182
1205 1205 1205
1227 1227 1227
1249 1249 1249
1014 1014 1014
1035 1035 1035
1057 1057 1057
1079 1079 1079
1101 1101 1101
1122 1122 1122
1144 1144 1144
1166 1166 1166
1188 1188 1188
1210 1210 1210
1232 1232 1232
1254 1254 1254
1277 1277 1277
1299 1299 1299
1321 1321 1321
1344 1344 1344
1366 1366 1366
1126 1126 1126
1148 1148 1148
1170 1170 1170
1192 1192 1192
1214 1214 1214
1236 1236 1236
1258 1258 1258
1281 1281 1281
1303 1303 1303
1325 1325 1325
1347 1347 1347
1370 1370 1370
1392 1392 1392
1415 1415 1415
1438 1438 1438
1460 1460 1460
1483 1483 1483
1242 1242 1242
1264 1264 1264
1286 1286 1286
1309 1309 1309
1331 1331 1331
1353 1353 1353
1376 1376 1376
1398 1398 1398
1421 1421 1421
1443 1443 1443
1466 1466 1466
1489 1489 1489
1511 1511 1511
1534 1534 1534
1557 1557 1557
1580 1580 1580
1603 1603 1603
1359 1359 1359
1382 1382 1382
1404 1404 1404
1427 1427 1427
1449 1449 1449
1472 1472 1472
1495 1495 1495
1518 1518 1518
1540 1540 1540
1563 1563 1563
1586 1586 1586
1609 1609 1609
1632 1632 1632
1655 1655 1655
1678 1678 1678
1701 1701 1701
1724 1724 1724
1478 1478 1478
1500 1500 1500
1523 1523 1523
1546 1546 1546
1569 1569 1569
1592 1592 1592
1615 1615 1615
1638 1638 1638
1661 1661 1661
1684 1684 1684
1707 1707 1707
1730 1730 1730
1753 1753 1753
1777 1777 1777
1800 1800 1800
1823 1823 1823
1847 1847 1847
1598 1598 1598
1621 1621 1621
1644 1644 1644
1667 1667 1667
1690 1690 1690
1713 1713 1713
1736 1736 1736
1760 1760 1760
1783 1783 1783
1806 1806 1806
1829 1829 1829
1853 1853 1853
1876 1876 1876
1900 1900 1900
1923 1923 1923
1947 1947 1947
1970 1970 1970
1719 1719 1719
1742 1742 1742
1765 1765 1765
1789 1789 1789
1812 1812 1812
1835 1835 1835
1859 1859 1859
1882 1882 1882
1906 1906 1906
1929 1929 1929
1953 1953 1953
1976 1976 1976
2000 2000 2000
2024 2024 2024
2048 2048 2048
2070 2070 2070
2092 2092 2092
1841 1841 1841
1865 1865 1865
1888 1888 1888
1912 1912 1912
1935 1935 1935
1959 1959 1959
1983 1983 1983
2006 2006 2006
2030 2030 2030
2053 2053 2053
2075 2075 2075
2097 2097 2097
2119 2119 2119
2141 2141 2141
2163 2163 2163
2185 2185 2185
2207 2207 2207
1965 1965 1965
1989 1989 1989
2012 2012 2012
2036 2036 2036
2059 2059 2059
2081 2081 2081
2103 2103 2103
2125 2125 2125
2147 2147 2147
2169 2169 2169
2191 2191 2191
2213 2213 2213
2235 2235 2235
2257 2257 2257
2279 2279 2279
2301 2301 2301
2323 2323 2323
294 294 294
312 312 312
331 331 331
349 349 349
368 368 368
387 387 387
406 406 406
425 425 425
444 444 444
463 463 463
482 482 482
502 502 502
522 522 522
541 541 541
561 561 561
581 581 581
601 601 601
392 392 392
411 411 411
430 430 430
449 449 449
468 468 468
488 488 488
507 507 507
527 527 527
547 547 547
566 566 566
586 586 586
606 606 606
626 626 626
647 647 647
667 667 667
687 687 687
