public/luts/Fuji XTrans III - Astia.3dl
#Fujifilm Fuji XTrans III - Astia — analytically generated
0 64 128 192 256 320 384 448 512 575 639 703 767 831 895 959 1023
193 124 78
195 127 384
197 129 636
199 131 873
201 133 1098
203 135 1317
205 136 1530
207 138 1738
208 140 1943
210 142 2140
212 143 2344
214 145 2554
215 147 2770
217 149 2994
219 151 3230
222 153 3486
224 156 3804
206 447 92
209 449 397
211 452 650
213 454 886
215 456 1112
217 457 1331
219 459 1544
220 461 1752
222 463 1956
224 464 2153
225 466 2358
227 468 2567
229 470 2783
231 472 3008
233 474 3244
235 476 3499
238 479 3818
217 710 103
220 713 408
222 715 661
224 717 897
226 719 1123
228 720 1342
230 722 1555
231 724 1763
233 726 1968
235 727 2164
237 729 2369
238 731 2578
240 733 2795
242 735 3019
244 737 3255
246 739 3511
249 742 3829
228 954 113
230 957 419
232 959 672
234 961 908
236 963 1134
238 965 1352
240 967 1565
242 969 1773
244 970 1978
245 972 2175
247 974 2379
249 975 2589
251 977 2805
252 979 3029
255 981 3265
257 983 3521
259 986 3839
238 1187 123
240 1190 429
242 1192 681
244 1194 918
246 1196 1143
248 1198 1362
250 1200 1575
252 1202 1783
253 1203 1988
255 1205 2185
257 1207 2389
259 1209 2599
260 1210 2815
262 1212 3039
264 1214 3275
267 1216 3531
269 1219 3849
247 1412 133
250 1415 438
252 1417 691
254 1419 927
256 1421 1153
258 1423 1372
259 1425 1584
261 1427 1793
263 1428 1997
265 1430 2194
266 1432 2399
268 1434 2608
270 1435 2824
272 1437 3049
274 1439 3285
276 1441 3540
279 1444 3859
256 1631 142
259 1634 447
261 1636 700
263 1638 936
265 1640 1162
267 1642 1381
269 1644 1594
270 1645 1802
272 1647 2007
274 1649 2203
276 1650 2408
277 1652 2617
279 1654 2834
281 1656 3058
283 1658 3294
285 1660 3550
288 1663 3868
265 1845 151
268 1847 457
270 1850 709
272 1852 945
274 1854 1171
276 1855 1390
278 1857 1603
279 1859 1811
281 1861 2016
283 1862 2213
285 1864 2417
286 1866 2627
288 1868 2843
290 1870 3067
292 1872 3303
294 1874 3559
297 1877 3877
274 2054 160
277 2057 465
279 2059 718
281 2061 954
283 2063 1180
285 2065 1399
287 2067 1612
288 2068 1820
290 2070 2024
292 2072 2221
294 2074 2426
295 2075 2635
297 2077 2851
299 2079 3076
301 2081 3312
303 2083 3567
306 2086 3886
283 2256 169
285 2258 474
288 2261 727
290 2263 963
291 2265 1189
293 2266 1407
295 2268 1620
297 2270 1828
299 2272 2033
300 2273 2230
302 2275 2434
304 2277 2644
306 2279 2860
308 2281 3084
310 2283 3320
312 2285 3576
314 2288 3894
292 2465 177
294 2468 483
296 2470 736
298 2472 972
300 2474 1198
302 2476 1416
304 2478 1629
306 2480 1837
307 2481 2042
309 2483 2239
311 2485 2443
313 2487 2653
315 2488 2869
316 2490 3093
318 2492 3329
321 2494 3585
323 2497 3903
301 2681 186
303 2683 492
305 2685 745
307 2687 981
309 2689 1207
311 2691 1425
313 2693 1638
315 2695 1846
317 2697 2051
318 2698 2248
320 2700 2452
322 2702 2662
324 2704 2878
326 2706 3102
328 2708 3338
330 2710 3594
332 2712 3912
310 2903 196
313 2906 501
315 2908 754
317 2910 990
319 2912 1216
321 2914 1435
322 2915 1648
324 2917 1856
326 2919 2060
328 2921 2257
329 2922 2462
331 2924 2671
333 2926 2887
335 2928 3112
337 2930 3348
339 2932 3603
342 2935 3922
320 3134 206
323 3137 511
325 3139 764
327 3141 1000
329 3143 1226
330 3145 1444
332 3147 1657
334 3149 1866
336 3150 2070
337 3152 2267
339 3154 2471
341 3156 2681
343 3157 2897
345 3159 3121
347 3161 3358
349 3163 3613
352 3166 3931
330 3379 216
333 3382 521
335 3384 774
337 3386 1010
339 3388 1236
341 3389 1455
343 3391 1668
344 3393 1876
346 3395 2080
348 3396 2277
350 3398 2482
351 3400 2691
353 3402 2907
355 3404 3132
357 3406 3368
359 3408 3623
362 3411 3942
342 3645 227
344 3647 533
346 3650 785
348 3652 1022
350 3653 1247
352 3655 1466
354 3657 1679
356 3659 1887
357 3661 2092
359 3662 2289
361 3664 2493
363 3666 2703
364 3668 2919
366 3670 3143
368 3672 3379
371 3674 3635
373 3676 3953
356 3981 242
358 3984 547
361 3986 800
363 3988 1036
364 3990 1262
366 3992 1480
368 3994 1693
370 3995 1902
372 3997 2106
373 3999 2303
375 4001 2507
377 4002 2717
379 4004 2933
381 4006 3157
383 4008 3393
385 4010 3649
387 4013 3967
496 131 85
498 133 390
501 135 643
503 137 879
504 139 1105
506 141 1324
508 143 1537
510 145 1745
512 147 1949
513 148 2146
515 150 2351
517 152 2560
519 154 2776
521 155 3001
523 157 3237
525 160 3492
527 162 3811
509 453 99
512 456 404
514 458 657
516 460 893
518 462 1119
520 464 1337
522 466 1550
524 468 1759
525 469 1963
527 471 2160
529 473 2364
531 475 2574
532 476 2790
534 478 3014
536 480 3251
538 482 3506
541 485 3824
521 717 110
523 719 415
525 721 668
527 723 904
529 725 1130
531 727 1348
533 729 1561
535 731 1770
536 732 1974
538 734 2171
540 736 2376
542 738 2585
543 740 2801
545 741 3026
547 743 3262
550 746 3517
552 748 3836
531 961 120
534 964 426
536 966 678
538 968 914
540 970 1140
541 972 1359
543 973 1572
545 975 1780
547 977 1985
548 979 2182
550 980 2386
552 982 2596
554 984 2812
556 986 3036
558 988 3272
560 990 3528
563 993 3846
541 1194 130
543 1197 435
546 1199 688
548 1201 924
549 1203 1150
551 1205 1369
553 1207 1582
555 1208 1790
557 1210 1994
558 1212 2191
560 1213 2396
562 1215 2605
564 1217 2821
566 1219 3046
568 1221 3282
570 1223 3537
572 1226 3856
550 1419 139
553 1422 445
555 1424 698
557 1426 934
559 1428 1160
561 1430 1378
563 1432 1591
564 1433 1799
566 1435 2004
568 1437 2201
570 1438 2405
571 1440 2615
573 1442 2831
575 1444 3055
577 1446 3291
579 1448 3547
582 1451 3865
560 1638 149
562 1640 454
564 1643 707
566 1645 943
568 1647 1169
570 1648 1387
572 1650 1600
574 1652 1809
575 1654 2013
577 1655 2210
579 1657 2415
581 1659 2624
582 1661 2840
584 1663 3065
586 1665 3301
589 1667 3556
591 1670 3875
569 1852 158
571 1854 463
573 1856 716
575 1858 952
577 1860 1178
579 1862 1397
581 1864 1609
583 1866 1818
584 1867 2022
586 1869 2219
588 1871 2424
590 1873 2633
592 1874 2849
593 1876 3074
595 1878 3310
598 1881 3565
600 1883 3884
577 2061 167
580 2064 472
582 2066 725
584 2068 961
586 2070 1187
588 2071 1405
590 2073 1618
592 2075 1827
593 2077 2031
595 2078 2228
597 2080 2432
599 2082 2642
600 2084 2858
602 2086 3082
604 2088 3319
606 2090 3574
609 2093 3892
586 2263 175
589 2265 481
591 2267 733
593 2269 969
595 2271 1195
597 2273 1414
598 2275 1627
600 2277 1835
602 2278 2040
604 2280 2237
605 2282 2441
607 2284 2651
609 2285 2867
611 2287 3091
613 2289 3327
615 2292 3583
618 2294 3901
595 2472 184
597 2475 489
600 2477 742
602 2479 978
604 2481 1204
605 2483 1423
607 2484 1636
609 2486 1844
611 2488 2048
612 2490 2245
614 2491 2450
616 2493 2659
618 2495 2875
620 2497 3100
622 2499 3336
624 2501 3591
627 2504 3910
604 2687 193
607 2690 499
609 2692 751
611 2694 987
613 2696 1213
615 2698 1432
616 2700 1645
618 2701 1853
620 2703 2058
622 2705 2255
623 2707 2459
625 2708 2669
627 2710 2885
629 2712 3109
631 2714 3345
633 2716 3601
636 2719 3919
613 2910 203
616 2912 508
618 2914 761
620 2916 997
622 2918 1223
624 2920 1441
626 2922 1654
628 2924 1863
629 2926 2067
631 2927 2264
633 2929 2468
634 2931 2678
636 2933 2894
638 2934 3118
640 2936 3355
642 2939 3610
645 2941 3928
623 3141 212
626 3144 518
628 3146 771
630 3148 1007
632 3150 1233
634 3152 1451
636 3154 1664
637 3155 1872
639 3157 2077
641 3159 2274
642 3160 2478
644 3162 2688
646 3164 2904
648 3166 3128
650 3168 3364
652 3170 3620
655 3173 3938
634 3386 223
636 3388 528
638 3390 781
640 3392 1017
642 3394 1243
644 3396 1461
646 3398 1674
648 3400 1883
649 3401 2087
651 3403 2284
653 3405 2489
655 3407 2698
656 3408 2914
658 3410 3139
660 3412 3375
663 3415 3630
665 3417 3948
645 3651 234
647 3654 539
650 3656 792
652 3658 1028
653 3660 1254
655 3662 1473
657 3664 1686
659 3666 1894
661 3667 2098
662 3669 2295
664 3671 2500
666 3673 2709
668 3674 2925
670 3676 3150
672 3678 3386
674 3680 3641
676 3683 3960
659 3988 248
662 3991 554
664 3993 806
666 3995 1042
668 3997 1268
670 3999 1487
671 4000 1700
673 4002 1908
675 4004 2113
677 4006 2310
678 4007 2514
680 4009 2724
682 4011 2940
684 4013 3164
686 4015 3400
688 4017 3656
691 4020 3974
751 136 91
753 139 396
755 141 649
757 143 885
759 145 1111
761 147 1329
763 149 1542
765 150 1751
767 152 1955
768 154 2152
770 156 2356
772 157 2566
774 159 2782
775 161 3006
777 163 3243
780 165 3498
782 168 3816
764 459 104
767 462 410
769 464 662
771 466 899
773 468 1124
775 470 1343
777 471 1556
778 473 1764
780 475 1969
782 477 2166
784 478 2370
785 480 2580
787 482 2796
789 484 3020
791 486 3256
793 488 3512
796 491 3830
775 722 115
778 725 421
780 727 674
782 729 910
784 731 1136
786 733 1354
788 735 1567
790 736 1775
791 738 1980
793 740 2177
795 741 2381
796 743 2591
798 745 2807
800 747 3031
802 749 3267
804 751 3523
807 754 3841
786 967 126
788 969 431
791 971 684
793 973 920
794 975 1146
796 977 1364
798 979 1577
800 981 1786
802 983 1990
803 984 2187
805 986 2392
807 988 2601
809 990 2817
811 991 3042
813 993 3278
815 996 3533
817 998 3852
796 1200 136
798 1202 441
800 1205 694
802 1207 930
804 1208 1156
806 1210 1374
808 1212 1587
810 1214 1796
812 1216 2000
813 1217 2197
815 1219 2401
817 1221 2611
819 1223 2827
820 1225 3051
822 1227 3288
825 1229 3543
827 1231 3861
805 1425 145
808 1427 451
810 1430 703
812 1432 939
814 1433 1165
816 1435 1384
818 1437 1597
819 1439 1805
821 1441 2010
823 1442 2207
824 1444 2411
826 1446 2621
828 1448 2837
830 1450 3061
832 1452 3297
834 1454 3553
837 1456 3871
814 1643 154
817 1646 460
819 1648 713
821 1650 949
823 1652 1175
825 1654 1393
827 1656 1606
829 1658 1814
830 1659 2019
832 1661 2216
834 1663 2420
835 1665 2630
837 1666 2846
839 1668 3070
841 1670 3306
843 1672 3562
846 1675 3880
823 1857 163
826 1860 469
828 1862 722
830 1864 958
832 1866 1184
834 1868 1402
836 1869 1615
838 1871 1823
839 1873 2028
841 1875 2225
843 1876 2429
845 1878 2639
846 1880 2855
848 1882 3079
850 1884 3315
852 1886 3571
855 1889 3889
832 2067 172
835 2069 478
837 2071 730
839 2073 967
841 2075 1192
843 2077 1411
845 2079 1624
846 2081 1832
848 2082 2037
850 2084 2234
852 2086 2438
853 2088 2648
855 2089 2864
857 2091 3088
859 2093 3324
861 2096 3580
864 2098 3898
841 2268 181
843 2271 486
846 2273 739
848 2275 975
850 2277 1201
851 2279 1420
853 2281 1632
855 2282 1841
857 2284 2045
858 2286 2242
860 2287 2447
862 2289 2656
864 2291 2872
866 2293 3097
868 2295 3333
870 2297 3588
873 2300 3907
850 2478 190
852 2480 495
854 2482 748
856 2484 984
858 2486 1210
860 2488 1428
862 2490 1641
864 2492 1850
866 2494 2054
867 2495 2251
869 2497 2455
871 2499 2665
873 2501 2881
875 2503 3105
877 2505 3342
879 2507 3597
881 2509 3915
859 2693 199
861 2696 504
864 2698 757
866 2700 993
868 2702 1219
869 2704 1437
871 2705 1650
873 2707 1859
875 2709 2063
876 2711 2260
878 2712 2465
880 2714 2674
882 2716 2890
884 2718 3115
886 2720 3351
888 2722 3606
891 2725 3925
868 2915 208
871 2918 514
873 2920 766
875 2922 1002
877 2924 1228
879 2926 1447
881 2928 1660
882 2929 1868
884 2931 2073
886 2933 2270
888 2935 2474
889 2936 2684
891 2938 2900
893 2940 3124
895 2942 3360
897 2944 3616
900 2947 3934
878 3147 218
881 3149 523
883 3152 776
885 3154 1012
887 3155 1238
889 3157 1457
890 3159 1670
892 3161 1878
894 3163 2082
896 3164 2279
897 3166 2484
899 3168 2693
901 3170 2909
903 3172 3134
905 3174 3370
907 3176 3625
910 3178 3944
888 3391 228
891 3394 534
893 3396 786
895 3398 1023
897 3400 1248
899 3402 1467
901 3404 1680
902 3405 1888
904 3407 2093
906 3409 2290
908 3410 2494
909 3412 2704
911 3414 2920
913 3416 3144
915 3418 3380
917 3420 3636
920 3423 3954
900 3657 240
902 3660 545
904 3662 798
906 3664 1034
908 3666 1260
910 3668 1478
912 3669 1691
914 3671 1900
915 3673 2104
917 3675 2301
919 3676 2505
921 3678 2715
923 3680 2931
924 3682 3155
926 3684 3392
929 3686 3647
931 3689 3965
914 3994 254
916 3996 559
919 3998 812
921 4000 1048
923 4002 1274
924 4004 1493
926 4006 1705
928 4008 1914
930 4009 2118
931 4011 2315
933 4013 2520
935 4015 2729
937 4016 2945
939 4018 3170
941 4020 3406
943 4023 3661
946 4025 3980
990 142 96
993 144 401
995 146 654
997 148 890
999 150 1116
1000 152 1335
1002 154 1547
1004 156 1756
1006 157 1960
1007 159 2157
1009 161 2362
1011 163 2571
1013 164 2787
1015 166 3012
1017 168 3248
1019 171 3503
1022 173 3822
1004 464 110
1006 467 415
1008 469 668
1010 471 904
1012 473 1130
1014 475 1348
1016 477 1561
1018 478 1770
1019 480 1974
1021 482 2171
1023 484 2375
1025 485 2585
1026 487 2801
1028 489 3025
1030 491 3261
1033 493 3517
