public/luts/Fuji XTrans III - Pro Neg Std.3dl
#Fujifilm Fuji XTrans III - Pro Neg Std — analytically generated
0 256 512 767 1023
98 63 41
115 79 1039
128 93 1827
141 105 2599
158 122 3610
184 1130 127
201 1146 1125
214 1160 1913
227 1173 2685
244 1189 3696
252 1973 195
269 1989 1193
282 2003 1981
295 2016 2753
312 2032 3764
319 2798 262
336 2814 1260
349 2828 2048
362 2841 2819
379 2858 3831
406 3880 349
423 3896 1347
436 3910 2135
449 3922 2906
466 3939 3918
1109 106 85
1126 123 1082
1139 136 1870
1152 149 2642
1169 166 3653
1195 1173 171
1212 1190 1168
1225 1203 1956
1238 1216 2728
1255 1233 3740
1263 2016 239
1280 2033 1236
1293 2046 2024
1306 2059 2796
1323 2076 3808
1330 2841 305
1346 2858 1303
1359 2871 2091
1372 2884 2862
1389 2901 3874
1417 3923 392
1434 3940 1390
1447 3953 2178
1460 3966 2950
1477 3983 3961
1933 141 120
1949 158 1117
1963 171 1906
1976 184 2677
1993 201 3689
2019 1208 206
2036 1225 1203
2049 1238 1992
2062 1251 2763
2079 1268 3775
2087 2051 274
2104 2068 1271
2117 2081 2060
2130 2094 2831
2147 2111 3843
2153 2876 340
2170 2893 1338
2183 2906 2126
2196 2919 2898
2213 2936 3909
2241 3958 428
2257 3975 1425
2270 3988 2213
2283 4001 2985
2300 4018 3997
2739 176 154
2756 192 1152
2769 206 1940
2782 218 2712
2799 235 3723
2825 1243 240
2842 1259 1238
2855 1273 2026
2868 1285 2798
2885 1302 3809
2893 2086 308
2910 2102 1306
2923 2116 2094
2936 2128 2866
2953 2145 3877
2960 2911 375
2977 2927 1373
2990 2941 2161
3003 2954 2932
3020 2970 3944
3047 3993 462
3064 4009 1460
3077 4023 2248
3090 4035 3019
3107 4052 4031
3727 218 196
3744 235 1194
3757 248 1982
3770 261 2754
3787 278 3765
3813 1285 283
3830 1302 1280
3843 1315 2068
3856 1328 2840
3873 1345 3852
3881 2128 350
3898 2145 1348
3911 2158 2136
3924 2171 2908
3941 2188 3919
3948 2953 417
3964 2970 1415
3978 2983 2203
3990 2996 2974
4007 3013 3986
4035 4035 504
4052 4052 1502
4065 4065 2290
4078 4078 3062
4095 4095 4073
