public/luts/Fuji XTrans III - Mono+Ye.3dl
#Fujifilm Fuji XTrans III - Mono+Ye — analytically generated
0 64 128 192 256 320 384 448 512 575 639 703 767 831 895 959 1023
0 0 0
10 10 10
22 22 22
35 35 35
48 48 48
62 62 62
76 76 76
90 90 90
104 104 104
119 119 119
134 134 134
149 149 149
164 164 164
179 179 179
195 195 195
211 211 211
226 226 226
113 113 113
127 127 127
142 142 142
158 158 158
173 173 173
188 188 188
204 204 204
220 220 220
236 236 236
251 251 251
268 268 268
284 284 284
300 300 300
316 316 316
333 333 333
350 350 350
366 366 366
245 245 245
261 261 261
277 277 277
293 293 293
310 310 310
326 326 326
343 343 343
359 359 359
376 376 376
393 393 393
409 409 409
426 426 426
443 443 443
460 460 460
478 478 478
495 495 495
512 512 512
386 386 386
402 402 402
419 419 419
436 436 436
453 453 453
471 471 471
488 488 488
505 505 505
522 522 522
539 539 539
557 557 557
574 574 574
592 592 592
609 609 609
627 627 627
645 645 645
663 663 663
532 532 532
550 550 550
567 567 567
585 585 585
602 602 602
620 620 620
638 638 638
655 655 655
673 673 673
691 691 691
709 709 709
727 727 727
745 745 745
763 763 763
781 781 781
799 799 799
817 817 817
683 683 683
701 701 701
719 719 719
737 737 737
755 755 755
773 773 773
791 791 791
809 809 809
828 828 828
846 846 846
864 864 864
882 882 882
901 901 901
919 919 919
938 938 938
956 956 956
975 975 975
838 838 838
856 856 856
875 875 875
893 893 893
911 911 911
930 930 930
948 948 948
967 967 967
985 985 985
1004 1004 1004
1022 1022 1022
1041 1041 1041
1060 1060 1060
1078 1078 1078
1097 1097 1097
1116 1116 1116
1135 1135 1135
996 996 996
1015 1015 1015
1033 1033 1033
1052 1052 1052
1071 1071 1071
1089 1089 1089
1108 1108 1108
1127 1127 1127
1146 1146 1146
1165 1165 1165
1183 1183 1183
1202 1202 1202
1221 1221 1221
1240 1240 1240
1259 1259 1259
1279 1279 1279
1298 1298 1298
1157 1157 1157
1176 1176 1176
1195 1195 1195
1214 1214 1214
1233 1233 1233
1252 1252 1252
1271 1271 1271
1290 1290 1290
1309 1309 1309
1328 1328 1328
1347 1347 1347
1366 1366 1366
1385 1385 1385
1405 1405 1405
1424 1424 1424
1443 1443 1443
1463 1463 1463
1317 1317 1317
1336 1336 1336
1356 1356 1356
1375 1375 1375
1394 1394 1394
1413 1413 1413
1433 1433 1433
1452 1452 1452
1471 1471 1471
1491 1491 1491
1510 1510 1510
1529 1529 1529
1549 1549 1549
1568 1568 1568
1588 1588 1588
1608 1608 1608
1627 1627 1627
1483 1483 1483
1502 1502 1502
1521 1521 1521
1541 1541 1541
1560 1560 1560
1580 1580 1580
1599 1599 1599
1619 1619 1619
1639 1639 1639
1658 1658 1658
1678 1678 1678
1697 1697 1697
1717 1717 1717
1737 1737 1737
1756 1756 1756
1776 1776 1776
1796 1796 1796
1650 1650 1650
1669 1669 1669
1689 1689 1689
1709 1709 1709
1729 1729 1729
1748 1748 1748
1768 1768 1768
1788 1788 1788
1808 1808 1808
1827 1827 1827
1847 1847 1847
1867 1867 1867
1887 1887 1887
1907 1907 1907
1927 1927 1927
1947 1947 1947
1967 1967 1967
1819 1819 1819
1839 1839 1839
1859 1859 1859
1879 1879 1879
1898 1898 1898
1918 1918 1918
1938 1938 1938
1958 1958 1958
1978 1978 1978
1998 1998 1998
2018 2018 2018
2038 2038 2038
2058 2058 2058
2076 2076 2076
2095 2095 2095
2114 2114 2114
2133 2133 2133
1990 1990 1990
2010 2010 2010
2030 2030 2030
2050 2050 2050
2069 2069 2069
2087 2087 2087
2106 2106 2106
2125 2125 2125
2144 2144 2144
2162 2162 2162
2181 2181 2181
2200 2200 2200
2219 2219 2219
2237 2237 2237
2256 2256 2256
2275 2275 2275
2294 2294 2294
2155 2155 2155
2173 2173 2173
2192 2192 2192
2211 2211 2211
2230 2230 2230
2248 2248 2248
2267 2267 2267
2286 2286 2286
2305 2305 2305
2323 2323 2323
2342 2342 2342
2360 2360 2360
2379 2379 2379
2398 2398 2398
2416 2416 2416
2435 2435 2435
2454 2454 2454
2315 2315 2315
2334 2334 2334
2353 2353 2353
2371 2371 2371
2390 2390 2390
2409 2409 2409
2427 2427 2427
2446 2446 2446
2465 2465 2465
2483 2483 2483
2501 2501 2501
2520 2520 2520
2539 2539 2539
2557 2557 2557
2576 2576 2576
2594 2594 2594
2613 2613 2613
2475 2475 2475
2494 2494 2494
2512 2512 2512
2531 2531 2531
2550 2550 2550
2568 2568 2568
2587 2587 2587
2605 2605 2605
2624 2624 2624
2642 2642 2642
2661 2661 2661
2679 2679 2679
2698 2698 2698
2716 2716 2716
2735 2735 2735
2753 2753 2753
2771 2771 2771
58 58 58
72 72 72
86 86 86
100 100 100
115 115 115
130 130 130
145 145 145
160 160 160
175 175 175
190 190 190
206 206 206
222 222 222
238 238 238
254 254 254
270 270 270
286 286 286
302 302 302
184 184 184
200 200 200
215 215 215
231 231 231
247 247 247
263 263 263
279 279 279
296 296 296
312 312 312
328 328 328
345 345 345
361 361 361
378 378 378
395 395 395
412 412 412
429 429 429
446 446 446
321 321 321
338 338 338
355 355 355
371 371 371
388 388 388
405 405 405
422 422 422
439 439 439
456 456 456
473 473 473
490 490 490
507 507 507
524 524 524
542 542 542
559 559 559
577 577 577
594 594 594
466 466 466
483 483 483
500 500 500
517 517 517
535 535 535
552 552 552
570 570 570
587 587 587
605 605 605
622 622 622
640 640 640
658 658 658
675 675 675
693 693 693
711 711 711
729 729 729
747 747 747
615 615 615
632 632 632
650 650 650
668 668 668
686 686 686
704 704 704
722 722 722
740 740 740
758 758 758
775 775 775
794 794 794
812 812 812
830 830 830
848 848 848
867 867 867
885 885 885
903 903 903
768 768 768
786 786 786
804 804 804
822 822 822
841 841 841
859 859 859
877 877 877
896 896 896
914 914 914
932 932 932
951 951 951
969 969 969
988 988 988
1006 1006 1006
1025 1025 1025
1044 1044 1044
1062 1062 1062
925 925 925
943 943 943
962 962 962
980 980 980
999 999 999
1017 1017 1017
1036 1036 1036
1055 1055 1055
1073 1073 1073
1092 1092 1092
1111 1111 1111
1129 1129 1129
1148 1148 1148
1167 1167 1167
1186 1186 1186
1205 1205 1205
1224 1224 1224
1084 1084 1084
1103 1103 1103
1122 1122 1122
1141 1141 1141
1159 1159 1159
1178 1178 1178
1197 1197 1197
1216 1216 1216
1235 1235 1235
1254 1254 1254
1273 1273 1273
1292 1292 1292
1311 1311 1311
1330 1330 1330
1350 1350 1350
1369 1369 1369
1388 1388 1388
1246 1246 1246
1265 1265 1265
1284 1284 1284
1303 1303 1303
1323 1323 1323
1342 1342 1342
1361 1361 1361
1380 1380 1380
1399 1399 1399
1418 1418 1418
1438 1438 1438
1457 1457 1457
1477 1477 1477
1496 1496 1496
1515 1515 1515
1535 1535 1535
1554 1554 1554
1408 1408 1408
1427 1427 1427
1447 1447 1447
1466 1466 1466
1485 1485 1485
1505 1505 1505
1524 1524 1524
1544 1544 1544
1563 1563 1563
1582 1582 1582
1602 1602 1602
1622 1622 1622
1641 1641 1641
1661 1661 1661
1680 1680 1680
1700 1700 1700
1720 1720 1720
1574 1574 1574
1594 1594 1594
1613 1613 1613
1633 1633 1633
1653 1653 1653
1672 1672 1672
1692 1692 1692
1712 1712 1712
1731 1731 1731
1751 1751 1751
1771 1771 1771
1790 1790 1790
1810 1810 1810
1830 1830 1830
1850 1850 1850
1870 1870 1870
1890 1890 1890
1743 1743 1743
1762 1762 1762
1782 1782 1782
1802 1802 1802
1822 1822 1822
1842 1842 1842
1861 1861 1861
1881 1881 1881
1901 1901 1901
1921 1921 1921
1941 1941 1941
1961 1961 1961
1981 1981 1981
2001 2001 2001
2021 2021 2021
2041 2041 2041
2060 2060 2060
1913 1913 1913
1933 1933 1933
1953 1953 1953
1973 1973 1973
1993 1993 1993
2013 2013 2013
2033 2033 2033
2052 2052 2052
2071 2071 2071
2090 2090 2090
2109 2109 2109
2127 2127 2127
2146 2146 2146
2165 2165 2165
2184 2184 2184
2203 2203 2203
2221 2221 2221
2082 2082 2082
2101 2101 2101
2120 2120 2120
2138 2138 2138
2157 2157 2157
2176 2176 2176
2195 2195 2195
2214 2214 2214
2232 2232 2232
2251 2251 2251
2269 2269 2269
2288 2288 2288
2307 2307 2307
2326 2326 2326
2344 2344 2344
2363 2363 2363
2382 2382 2382
2243 2243 2243
2262 2262 2262
2280 2280 2280
2299 2299 2299
2318 2318 2318
2337 2337 2337
2355 2355 2355
2374 2374 2374
2393 2393 2393
2411 2411 2411
2430 2430 2430
2448 2448 2448
2467 2467 2467
2486 2486 2486
2504 2504 2504
2523 2523 2523
2541 2541 2541
2403 2403 2403
2422 2422 2422
2441 2441 2441
2459 2459 2459
2478 2478 2478
2496 2496 2496
2515 2515 2515
2534 2534 2534
2552 2552 2552
2571 2571 2571
2589 2589 2589
2608 2608 2608
2626 2626 2626
2645 2645 2645
2663 2663 2663
2682 2682 2682
2700 2700 2700
2563 2563 2563
2581 2581 2581
2600 2600 2600
2619 2619 2619
2637 2637 2637
2656 2656 2656
2674 2674 2674
2693 2693 2693
2711 2711 2711
2729 2729 2729
2748 2748 2748
2766 2766 2766
2785 2785 2785
2803 2803 2803
2821 2821 2821
2840 2840 2840
2858 2858 2858
125 125 125
140 140 140
155 155 155
171 171 171
186 186 186
202 202 202
218 218 218
233 233 233
249 249 249
265 265 265
281 281 281
298 298 298
314 314 314
331 331 331
347 347 347
364 364 364
381 381 381
259 259 259
275 275 275
291 291 291
307 307 307
324 324 324
340 340 340
357 357 357
374 374 374
390 390 390
407 407 407
424 424 424
441 441 441
458 458 458
475 475 475
492 492 492
510 510 510
527 527 527
400 400 400
417 417 417
434 434 434
451 451 451
468 468 468
485 485 485
502 502 502
520 520 520
537 537 537
554 554 554
572 572 572
589 589 589
607 607 607
625 625 625
642 642 642
660 660 660
678 678 678
547 547 547
565 565 565
582 582 582
600 600 600
617 617 617
635 635 635
653 653 653
671 671 671
688 688 688
706 706 706
724 724 724
742 742 742
760 760 760
778 778 778
796 796 796
814 814 814
833 833 833
699 699 699
717 717 717
735 735 735
753 753 753
771 771 771
789 789 789
807 807 807
825 825 825
843 843 843
861 861 861
880 880 880
898 898 898
916 916 916
935 935 935
953 953 953
972 972 972
990 990 990
854 854 854
872 872 872
890 890 890
909 909 909
927 927 927
946 946 946
964 964 964
983 983 983
1001 1001 1001
1020 1020 1020
1038 1038 1038
1057 1057 1057
1076 1076 1076
1095 1095 1095
1113 1113 1113
1132 1132 1132
1151 1151 1151
1012 1012 1012
1031 1031 1031
1049 1049 1049
1068 1068 1068
1087 1087 1087
1106 1106 1106
1124 1124 1124
1143 1143 1143
1162 1162 1162
1181 1181 1181
1200 1200 1200
1219 1219 1219
1238 1238 1238
1257 1257 1257
1276 1276 1276
1295 1295 1295
1314 1314 1314
1173 1173 1173
1192 1192 1192
1211 1211 1211
1230 1230 1230
1249 1249 1249
1268 1268 1268
1287 1287 1287
1306 1306 1306
1325 1325 1325
1344 1344 1344
1363 1363 1363
1383 1383 1383
1402 1402 1402
1421 1421 1421
1441 1441 1441
1460 1460 1460
1479 1479 1479
1336 1336 1336
1355 1355 1355
1375 1375 1375
1394 1394 1394
1413 1413 1413
1433 1433 1433
1452 1452 1452
1471 1471 1471
1491 1491 1491
1510 1510 1510
1529 1529 1529
1549 1549 1549
1568 1568 1568
1588 1588 1588
1607 1607 1607
1627 1627 1627
1647 1647 1647
1499 1499 1499
1519 1519 1519
1538 1538 1538
1558 1558 1558
1577 1577 1577
1597 1597 1597
1616 1616 1616
1636 1636 1636
1655 1655 1655
1675 1675 1675
1694 1694 1694
1714 1714 1714
1734 1734 1734
1754 1754 1754
1773 1773 1773
1793 1793 1793
1813 1813 1813
1667 1667 1667
1686 1686 1686
1706 1706 1706
1726 1726 1726
1745 1745 1745
1765 1765 1765
1785 1785 1785
1805 1805 1805
1825 1825 1825
1844 1844 1844
1864 1864 1864
1884 1884 1884
1904 1904 1904
1924 1924 1924
1944 1944 1944
1964 1964 1964
1984 1984 1984
1836 1836 1836
1856 1856 1856
1876 1876 1876
1896 1896 1896
1916 1916 1916
1935 1935 1935
1955 1955 1955
1975 1975 1975
1995 1995 1995
2015 2015 2015
2035 2035 2035
2055 2055 2055
2074 2074 2074
2092 2092 2092
2111 2111 2111
2130 2130 2130
2149 2149 2149
2007 2007 2007
2027 2027 2027
2047 2047 2047
2066 2066 2066
2085 2085 2085
2104 2104 2104
2122 2122 2122
2141 2141 2141
2160 2160 2160
2178 2178 2178
2197 2197 2197
2216 2216 2216
2235 2235 2235
2253 2253 2253
2272 2272 2272
2291 2291 2291
2310 2310 2310
2171 2171 2171
2189 2189 2189
2208 2208 2208
2227 2227 2227
2246 2246 2246
2264 2264 2264
2283 2283 2283
2302 2302 2302
2321 2321 2321
2339 2339 2339
2358 2358 2358
2376 2376 2376
2395 2395 2395
2414 2414 2414
2432 2432 2432
2451 2451 2451
2470 2470 2470
2331 2331 2331
2350 2350 2350
2369 2369 2369
2387 2387 2387
2406 2406 2406
2425 2425 2425
2443 2443 2443
2462 2462 2462
2480 2480 2480
2499 2499 2499
2517 2517 2517
2536 2536 2536
2555 2555 2555
2573 2573 2573
2592 2592 2592
2610 2610 2610
2629 2629 2629
2491 2491 2491
2510 2510 2510
2528 2528 2528
2547 2547 2547
2565 2565 2565
2584 2584 2584
2603 2603 2603
2621 2621 2621
2640 2640 2640
2658 2658 2658
2676 2676 2676
2695 2695 2695
2713 2713 2713
2732 2732 2732
2750 2750 2750
2769 2769 2769
2787 2787 2787
2650 2650 2650
2669 2669 2669
2687 2687 2687
2706 2706 2706
2724 2724 2724
2743 2743 2743
2761 2761 2761
2780 2780 2780
2798 2798 2798
2816 2816 2816
2835 2835 2835
2853 2853 2853
2871 2871 2871
2890 2890 2890
2908 2908 2908
2926 2926 2926
2945 2945 2945
197 197 197
213 213 213
229 229 229
245 245 245
261 261 261
277 277 277
293 293 293
310 310 310
326 326 326
342 342 342
359 359 359
376 376 376
393 393 393
409 409 409
426 426 426
443 443 443
460 460 460
336 336 336
352 352 352
369 369 369
386 386 386
402 402 402
419 419 419
436 436 436
453 453 453
471 471 471
487 487 487
505 505 505
522 522 522
539 539 539
557 557 557
574 574 574
592 592 592
