public/luts/Fuji XTrans III - Acros.3dl
#Fujifilm Fuji XTrans III - Acros — analytically generated
0 128 256 384 512 639 767 895 1023
20 20 20
55 55 55
96 96 96
141 141 141
188 188 188
237 237 237
288 288 288
340 340 340
393 393 393
245 245 245
296 296 296
348 348 348
401 401 401
455 455 455
510 510 510
566 566 566
622 622 622
680 680 680
519 519 519
575 575 575
631 631 631
689 689 689
747 747 747
805 805 805
864 864 864
924 924 924
985 985 985
814 814 814
874 874 874
934 934 934
994 994 994
1055 1055 1055
1116 1116 1116
1178 1178 1178
1240 1240 1240
1303 1303 1303
1126 1126 1126
1188 1188 1188
1250 1250 1250
1313 1313 1313
1376 1376 1376
1439 1439 1439
1503 1503 1503
1567 1567 1567
1632 1632 1632
1447 1447 1447
1511 1511 1511
1575 1575 1575
1640 1640 1640
1705 1705 1705
1769 1769 1769
1835 1835 1835
1901 1901 1901
1967 1967 1967
1780 1780 1780
1845 1845 1845
1911 1911 1911
1978 1978 1978
2044 2044 2044
2107 2107 2107
2170 2170 2170
2232 2232 2232
2295 2295 2295
2117 2117 2117
2180 2180 2180
2242 2242 2242
2305 2305 2305
2367 2367 2367
2428 2428 2428
2490 2490 2490
2551 2551 2551
2613 2613 2613
2438 2438 2438
2499 2499 2499
2561 2561 2561
2622 2622 2622
2684 2684 2684
2744 2744 2744
2805 2805 2805
2865 2865 2865
2926 2926 2926
124 124 124
170 170 170
219 219 219
269 269 269
320 320 320
372 372 372
426 426 426
481 481 481
536 536 536
381 381 381
435 435 435
489 489 489
545 545 545
601 601 601
658 658 658
716 716 716
774 774 774
833 833 833
667 667 667
725 725 725
783 783 783
842 842 842
902 902 902
962 962 962
1023 1023 1023
1084 1084 1084
1145 1145 1145
971 971 971
1032 1032 1032
1093 1093 1093
1155 1155 1155
1217 1217 1217
1279 1279 1279
1342 1342 1342
1406 1406 1406
1469 1469 1469
1289 1289 1289
1352 1352 1352
1416 1416 1416
1479 1479 1479
1544 1544 1544
1608 1608 1608
1672 1672 1672
1738 1738 1738
1803 1803 1803
1615 1615 1615
1680 1680 1680
1745 1745 1745
1811 1811 1811
1877 1877 1877
1942 1942 1942
2009 2009 2009
2074 2074 2074
2137 2137 2137
1953 1953 1953
2019 2019 2019
2084 2084 2084
2147 2147 2147
2209 2209 2209
2271 2271 2271
2333 2333 2333
2395 2395 2395
2457 2457 2457
2281 2281 2281
2343 2343 2343
2405 2405 2405
2467 2467 2467
2529 2529 2529
2590 2590 2590
2651 2651 2651
2712 2712 2712
2773 2773 2773
2599 2599 2599
2661 2661 2661
2722 2722 2722
2782 2782 2782
2843 2843 2843
2903 2903 2903
2963 2963 2963
3023 3023 3023
3083 3083 3083
250 250 250
301 301 301
353 353 353
406 406 406
460 460 460
515 515 515
571 571 571
628 628 628
685 685 685
524 524 524
580 580 580
637 637 637
694 694 694
753 753 753
811 811 811
870 870 870
930 930 930
991 991 991
820 820 820
880 880 880
940 940 940
1000 1000 1000
1061 1061 1061
1122 1122 1122
1184 1184 1184
1246 1246 1246
1309 1309 1309
1132 1132 1132
1194 1194 1194
1256 1256 1256
1319 1319 1319
1382 1382 1382
1445 1445 1445
1509 1509 1509
1574 1574 1574
1638 1638 1638
1455 1455 1455
1519 1519 1519
1584 1584 1584
1648 1648 1648
1713 1713 1713
1778 1778 1778
1844 1844 1844
1910 1910 1910
1976 1976 1976
1786 1786 1786
1852 1852 1852
1918 1918 1918
1984 1984 1984
2051 2051 2051
2114 2114 2114
2176 2176 2176
2239 2239 2239
2301 2301 2301
2123 2123 2123
2186 2186 2186
2248 2248 2248
2311 2311 2311
2373 2373 2373
2434 2434 2434
2496 2496 2496
2557 2557 2557
2619 2619 2619
2444 2444 2444
2505 2505 2505
2567 2567 2567
2628 2628 2628
2689 2689 2689
2750 2750 2750
2811 2811 2811
2871 2871 2871
2932 2932 2932
2760 2760 2760
2820 2820 2820
2881 2881 2881
2941 2941 2941
3001 3001 3001
3060 3060 3060
3120 3120 3120
3179 3179 3179
3238 3238 3238
386 386 386
440 440 440
495 495 495
550 550 550
607 607 607
664 664 664
721 721 721
780 780 780
839 839 839
673 673 673
731 731 731
789 789 789
848 848 848
908 908 908
968 968 968
1028 1028 1028
1090 1090 1090
1151 1151 1151
977 977 977
1038 1038 1038
1099 1099 1099
1161 1161 1161
1223 1223 1223
1285 1285 1285
1348 1348 1348
1412 1412 1412
1475 1475 1475
1295 1295 1295
1358 1358 1358
1422 1422 1422
1486 1486 1486
1550 1550 1550
1614 1614 1614
1679 1679 1679
1744 1744 1744
1809 1809 1809
1624 1624 1624
1689 1689 1689
1754 1754 1754
1820 1820 1820
1886 1886 1886
1951 1951 1951
2018 2018 2018
2083 2083 2083
2146 2146 2146
1959 1959 1959
2026 2026 2026
2090 2090 2090
2153 2153 2153
2215 2215 2215
2277 2277 2277
2339 2339 2339
2401 2401 2401
2463 2463 2463
2287 2287 2287
2349 2349 2349
2411 2411 2411
2473 2473 2473
2535 2535 2535
2596 2596 2596
2657 2657 2657
2718 2718 2718
2779 2779 2779
2605 2605 2605
2666 2666 2666
2727 2727 2727
2788 2788 2788
2849 2849 2849
2909 2909 2909
2969 2969 2969
3029 3029 3029
3089 3089 3089
2918 2918 2918
2979 2979 2979
3038 3038 3038
3098 3098 3098
3157 3157 3157
3216 3216 3216
3275 3275 3275
3333 3333 3333
3392 3392 3392
529 529 529
585 585 585
642 642 642
700 700 700
758 758 758
817 817 817
876 876 876
936 936 936
996 996 996
826 826 826
885 885 885
945 945 945
1006 1006 1006
1067 1067 1067
1128 1128 1128
1190 1190 1190
1252 1252 1252
1315 1315 1315
1138 1138 1138
1200 1200 1200
1262 1262 1262
1325 1325 1325
1388 1388 1388
1451 1451 1451
1515 1515 1515
1580 1580 1580
1644 1644 1644
1461 1461 1461
1525 1525 1525
1590 1590 1590
1655 1655 1655
1720 1720 1720
1785 1785 1785
1850 1850 1850
1917 1917 1917
1983 1983 1983
1795 1795 1795
1861 1861 1861
1927 1927 1927
1993 1993 1993
2060 2060 2060
2122 2122 2122
2185 2185 2185
2247 2247 2247
2309 2309 2309
2129 2129 2129
2192 2192 2192
2254 2254 2254
2317 2317 2317
2379 2379 2379
2440 2440 2440
2502 2502 2502
2563 2563 2563
2625 2625 2625
2450 2450 2450
2511 2511 2511
2573 2573 2573
2634 2634 2634
2695 2695 2695
2756 2756 2756
2817 2817 2817
2877 2877 2877
2937 2937 2937
2765 2765 2765
2826 2826 2826
2887 2887 2887
2947 2947 2947
3007 3007 3007
3066 3066 3066
3126 3126 3126
3185 3185 3185
3244 3244 3244
3076 3076 3076
3135 3135 3135
3194 3194 3194
3253 3253 3253
3312 3312 3312
3370 3370 3370
3428 3428 3428
3485 3485 3485
3543 3543 3543
677 677 677
735 735 735
794 794 794
853 853 853
912 912 912
972 972 972
1033 1033 1033
1094 1094 1094
1156 1156 1156
982 982 982
1043 1043 1043
1104 1104 1104
1166 1166 1166
1228 1228 1228
1290 1290 1290
1353 1353 1353
1417 1417 1417
1480 1480 1480
1300 1300 1300
1363 1363 1363
1427 1427 1427
1490 1490 1490
1555 1555 1555
1619 1619 1619
1684 1684 1684
1749 1749 1749
1814 1814 1814
1629 1629 1629
1694 1694 1694
1759 1759 1759
1825 1825 1825
1891 1891 1891
1956 1956 1956
2023 2023 2023
2088 2088 2088
2150 2150 2150
1967 1967 1967
2033 2033 2033
2098 2098 2098
2160 2160 2160
2223 2223 2223
2285 2285 2285
2347 2347 2347
2409 2409 2409
2470 2470 2470
2292 2292 2292
2354 2354 2354
2416 2416 2416
2478 2478 2478
2539 2539 2539
2600 2600 2600
2661 2661 2661
2723 2723 2723
2783 2783 2783
2610 2610 2610
2671 2671 2671
2732 2732 2732
2793 2793 2793
2854 2854 2854
2913 2913 2913
2974 2974 2974
3034 3034 3034
3093 3093 3093
2923 2923 2923
2983 2983 2983
3043 3043 3043
3103 3103 3103
3162 3162 3162
3221 3221 3221
3279 3279 3279
3338 3338 3338
3396 3396 3396
3230 3230 3230
3289 3289 3289
3347 3347 3347
3405 3405 3405
3463 3463 3463
3520 3520 3520
3577 3577 3577
3633 3633 3633
3689 3689 3689
830 830 830
890 890 890
950 950 950
1011 1011 1011
1072 1072 1072
1133 1133 1133
1195 1195 1195
1257 1257 1257
1320 1320 1320
1142 1142 1142
1204 1204 1204
1267 1267 1267
1330 1330 1330
1393 1393 1393
1456 1456 1456
1520 1520 1520
1585 1585 1585
1649 1649 1649
1466 1466 1466
1530 1530 1530
1595 1595 1595
1660 1660 1660
1725 1725 1725
1790 1790 1790
1855 1855 1855
1922 1922 1922
1988 1988 1988
1800 1800 1800
1866 1866 1866
1932 1932 1932
1998 1998 1998
2065 2065 2065
2127 2127 2127
2189 2189 2189
2252 2252 2252
2314 2314 2314
2137 2137 2137
2199 2199 2199
2262 2262 2262
2324 2324 2324
2386 2386 2386
2447 2447 2447
2509 2509 2509
2570 2570 2570
2632 2632 2632
2454 2454 2454
2516 2516 2516
2578 2578 2578
2639 2639 2639
2700 2700 2700
2760 2760 2760
2821 2821 2821
2882 2882 2882
2942 2942 2942
2770 2770 2770
2831 2831 2831
2891 2891 2891
2951 2951 2951
3011 3011 3011
3071 3071 3071
3130 3130 3130
3190 3190 3190
3249 3249 3249
3080 3080 3080
3140 3140 3140
3199 3199 3199
3258 3258 3258
3316 3316 3316
3374 3374 3374
3432 3432 3432
3490 3490 3490
3547 3547 3547
3383 3383 3383
3441 3441 3441
3499 3499 3499
3556 3556 3556
3612 3612 3612
3668 3668 3668
3724 3724 3724
3779 3779 3779
3833 3833 3833
988 988 988
1049 1049 1049
1110 1110 1110
1172 1172 1172
1234 1234 1234
1296 1296 1296
1359 1359 1359
1423 1423 1423
1487 1487 1487
1306 1306 1306
1369 1369 1369
1433 1433 1433
1497 1497 1497
1561 1561 1561
1625 1625 1625
1690 1690 1690
1755 1755 1755
1821 1821 1821
1635 1635 1635
1700 1700 1700
1765 1765 1765
1831 1831 1831
1897 1897 1897
1963 1963 1963
2029 2029 2029
2094 2094 2094
2156 2156 2156
1973 1973 1973
2040 2040 2040
2104 2104 2104
2166 2166 2166
2229 2229 2229
2291 2291 2291
2353 2353 2353
2415 2415 2415
2476 2476 2476
2300 2300 2300
2362 2362 2362
2424 2424 2424
2486 2486 2486
2548 2548 2548
2609 2609 2609
2670 2670 2670
2731 2731 2731
2792 2792 2792
2616 2616 2616
2677 2677 2677
2738 2738 2738
2799 2799 2799
2859 2859 2859
2919 2919 2919
2979 2979 2979
3039 3039 3039
3099 3099 3099
2929 2929 2929
2989 2989 2989
3049 3049 3049
3108 3108 3108
3168 3168 3168
3226 3226 3226
3285 3285 3285
3344 3344 3344
3402 3402 3402
3236 3236 3236
3294 3294 3294
3353 3353 3353
3411 3411 3411
3468 3468 3468
3525 3525 3525
3582 3582 3582
3639 3639 3639
3695 3695 3695
3534 3534 3534
3591 3591 3591
3647 3647 3647
3703 3703 3703
3759 3759 3759
3813 3813 3813
3867 3867 3867
3919 3919 3919
3971 3971 3971
1148 1148 1148
1210 1210 1210
1273 1273 1273
1336 1336 1336
1399 1399 1399
1462 1462 1462
1526 1526 1526
1591 1591 1591
1656 1656 1656
1472 1472 1472
1537 1537 1537
1601 1601 1601
1666 1666 1666
1731 1731 1731
1796 1796 1796
1862 1862 1862
1928 1928 1928
1994 1994 1994
1806 1806 1806
1872 1872 1872
1938 1938 1938
2005 2005 2005
2071 2071 2071
2133 2133 2133
2195 2195 2195
2258 2258 2258
2320 2320 2320
2143 2143 2143
2205 2205 2205
2268 2268 2268
2330 2330 2330
2392 2392 2392
2453 2453 2453
2515 2515 2515
2576 2576 2576
2638 2638 2638
2463 2463 2463
2524 2524 2524
2586 2586 2586
2647 2647 2647
2708 2708 2708
2769 2769 2769
2829 2829 2829
2890 2890 2890
2950 2950 2950
2776 2776 2776
2837 2837 2837
2897 2897 2897
2957 2957 2957
3017 3017 3017
3077 3077 3077
3136 3136 3136
3195 3195 3195
3254 3254 3254
3086 3086 3086
3145 3145 3145
3205 3205 3205
3263 3263 3263
3322 3322 3322
3380 3380 3380
3438 3438 3438
3495 3495 3495
3552 3552 3552
3389 3389 3389
3447 3447 3447
3504 3504 3504
3561 3561 3561
3618 3618 3618
3674 3674 3674
3729 3729 3729
3784 3784 3784
3838 3838 3838
3682 3682 3682
3738 3738 3738
3793 3793 3793
3847 3847 3847
3900 3900 3900
3952 3952 3952
4003 4003 4003
4051 4051 4051
4095 4095 4095
