public/luts/Fuji XTrans III - Pro Neg Std.3dl
#Fujifilm Fuji XTrans III - Pro Neg Std — analytically generated
0 128 256 384 512 639 767 895 1023
98 63 41
108 72 599
115 79 1039
122 86 1444
128 93 1827
134 99 2200
141 105 2599
148 113 3037
158 122 3610
146 659 89
156 668 647
163 675 1087
170 682 1492
176 689 1875
182 695 2248
189 702 2647
197 709 3085
206 719 3658
184 1130 127
194 1139 685
201 1146 1125
208 1153 1530
214 1160 1913
220 1166 2286
227 1173 2685
235 1180 3123
244 1189 3696
219 1563 162
229 1572 720
236 1579 1160
243 1586 1565
249 1593 1948
255 1599 2321
262 1606 2720
269 1613 3158
279 1622 3731
252 1973 195
262 1982 753
269 1989 1193
276 1996 1598
282 2003 1981
288 2009 2354
295 2016 2753
302 2023 3191
312 2032 3764
284 2371 227
294 2380 785
301 2388 1225
308 2394 1630
314 2401 2013
321 2407 2386
327 2414 2785
335 2421 3223
344 2431 3796
319 2798 262
328 2807 819
336 2814 1260
342 2821 1664
349 2828 2048
355 2834 2420
362 2841 2819
369 2848 3258
379 2858 3831
357 3267 300
366 3276 857
373 3284 1297
380 3290 1702
387 3297 2086
393 3303 2458
399 3310 2857
407 3317 3296
416 3327 3869
406 3880 349
415 3889 906
423 3896 1347
430 3903 1752
436 3910 2135
442 3916 2507
449 3922 2906
456 3930 3345
466 3939 3918
655 86 65
664 96 622
672 103 1063
679 110 1468
685 116 1851
691 123 2223
698 129 2622
705 137 3061
715 146 3634
703 683 113
713 692 671
720 699 1111
727 706 1516
733 712 1899
739 719 2272
746 725 2671
753 733 3109
763 742 3682
741 1154 151
751 1163 709
758 1170 1149
765 1177 1554
771 1183 1937
777 1190 2309
784 1196 2709
791 1204 3147
801 1213 3720
776 1587 186
785 1596 743
793 1603 1184
800 1610 1589
806 1616 1972
812 1623 2344
819 1629 2743
826 1637 3182
836 1646 3755
809 1997 219
819 2006 776
826 2013 1217
833 2020 1622
839 2026 2005
845 2033 2377
852 2039 2776
859 2047 3215
869 2056 3788
841 2395 251
851 2404 809
858 2412 1249
865 2418 1654
871 2425 2037
877 2431 2410
884 2438 2809
891 2445 3247
901 2455 3820
876 2822 286
885 2831 843
892 2838 1283
899 2845 1688
906 2851 2072
912 2858 2444
919 2864 2843
926 2872 3282
935 2881 3855
914 3291 323
923 3300 881
930 3307 1321
937 3314 1726
943 3321 2109
950 3327 2482
956 3333 2881
964 3341 3319
973 3350 3892
963 3903 373
972 3913 930
980 3920 1371
986 3927 1775
993 3933 2159
999 3940 2531
1006 3946 2930
1013 3954 3369
1023 3963 3942
1109 106 85
1118 115 642
1126 123 1082
1133 129 1487
1139 136 1870
1145 142 2243
1152 149 2642
1159 156 3080
1169 166 3653
1157 702 133
1166 711 690
1174 719 1130
1181 725 1535
1187 732 1918
1193 738 2291
1200 745 2690
1207 752 3129
1217 762 3702
1195 1173 171
1204 1182 728
1212 1190 1168
1219 1196 1573
1225 1203 1956
1231 1209 2329
1238 1216 2728
1245 1223 3167
1255 1233 3740
1230 1606 205
1239 1615 763
1247 1623 1203
1253 1629 1608
1260 1636 1991
1266 1642 2364
1273 1649 2763
1280 1656 3201
1290 1666 3774
1263 2016 239
1272 2025 796
1280 2033 1236
1287 2039 1641
1293 2046 2024
1299 2052 2397
1306 2059 2796
1313 2066 3234
1323 2076 3808
1295 2414 271
1305 2424 828
1312 2431 1268
1319 2438 1673
1325 2444 2057
1331 2450 2429
1338 2457 2828
1345 2464 3267
1355 2474 3840
1330 2841 305
1339 2850 862
1346 2858 1303
1353 2864 1708
1359 2871 2091
1366 2877 2463
1372 2884 2862
1380 2891 3301
1389 2901 3874
1367 3310 343
1377 3319 900
1384 3327 1341
1391 3334 1745
1397 3340 2129
1404 3346 2501
1410 3353 2900
1418 3360 3339
1427 3370 3912
1417 3923 392
1426 3932 950
1434 3940 1390
1440 3946 1795
1447 3953 2178
1453 3959 2551
1460 3966 2950
1467 3973 3388
1477 3983 3961
1531 124 103
1540 133 660
1547 141 1100
1554 147 1505
1561 154 1888
1567 160 2261
1574 167 2660
1581 174 3099
1591 184 3672
1579 720 151
1588 729 708
1596 737 1148
1602 744 1553
1609 750 1937
1615 756 2309
1622 763 2708
1629 770 3147
1639 780 3720
1617 1191 189
1626 1200 746
1633 1208 1186
1640 1214 1591
1647 1221 1975
1653 1227 2347
1660 1234 2746
1667 1241 3185
1677 1251 3758
1652 1624 224
1661 1633 781
1668 1641 1221
1675 1647 1626
1682 1654 2009
1688 1660 2382
1695 1667 2781
1702 1674 3219
1711 1684 3792
1685 2034 257
1694 2043 814
1701 2051 1254
1708 2057 1659
1715 2064 2042
1721 2070 2415
1728 2077 2814
1735 2084 3253
1745 2094 3826
1717 2432 289
1726 2442 846
1734 2449 1286
1740 2456 1691
1747 2462 2075
1753 2468 2447
1760 2475 2846
1767 2482 3285
1777 2492 3858
1751 2859 323
1761 2868 880
1768 2876 1321
1775 2882 1726
1781 2889 2109
1787 2895 2481
1794 2902 2880
1801 2909 3319
1811 2919 3892
1789 3328 361
1798 3337 918
1806 3345 1359
1813 3352 1763
1819 3358 2147
1825 3364 2519
1832 3371 2918
1839 3378 3357
1849 3388 3930
1839 3941 410
1848 3950 968
1855 3958 1408
1862 3964 1813
1868 3971 2196
1875 3977 2569
1881 3984 2968
1889 3991 3406
1898 4001 3979
1933 141 120
1942 150 677
1949 158 1117
1956 165 1522
1963 171 1906
1969 177 2278
1976 184 2677
1983 191 3116
1993 201 3689
1981 737 168
1990 747 725
1998 754 1166
2004 761 1570
2011 767 1954
2017 773 2326
2024 780 2725
2031 787 3164
2041 797 3737
2019 1208 206
2028 1217 763
2036 1225 1203
2042 1232 1608
2049 1238 1992
2055 1244 2364
2062 1251 2763
2069 1258 3202
2079 1268 3775
2054 1641 241
2063 1650 798
2070 1658 1238
2077 1665 1643
2084 1671 2027
2090 1677 2399
2097 1684 2798
2104 1691 3237
2114 1701 3810
2087 2051 274
2096 2060 831
2104 2068 1271
2110 2075 1676
2117 2081 2060
2123 2087 2432
2130 2094 2831
2137 2101 3270
2147 2111 3843
2119 2449 306
2128 2459 863
2136 2466 1304
2142 2473 1708
2149 2479 2092
2155 2486 2464
2162 2492 2863
2169 2500 3302
2179 2509 3875
2153 2876 340
2163 2886 898
2170 2893 1338
2177 2900 1743
2183 2906 2126
2189 2912 2499
2196 2919 2898
2204 2926 3336
2213 2936 3909
2191 3345 378
2200 3355 935
2208 3362 1376
2215 3369 1781
2221 3375 2164
2227 3381 2536
2234 3388 2935
2241 3395 3374
2251 3405 3947
2241 3958 428
2250 3967 985
2257 3975 1425
2264 3982 1830
2270 3988 2213
2277 3994 2586
2283 4001 2985
2291 4008 3423
2300 4018 3997
2324 158 136
2333 167 694
2340 175 1134
2347 181 1539
2353 188 1922
2360 194 2295
2366 201 2694
2374 208 3132
2383 218 3705
2372 754 185
2381 763 742
2388 771 1182
2395 777 1587
2402 784 1970
2408 790 2343
2414 797 2742
2422 804 3180
2431 814 3754
2410 1225 222
2419 1234 780
2426 1242 1220
2433 1248 1625
2440 1255 2008
2446 1261 2381
2452 1268 2780
2460 1275 3218
2469 1285 3791
2445 1658 257
2454 1667 815
2461 1675 1255
2468 1681 1660
2474 1688 2043
2481 1694 2416
2487 1701 2815
2495 1708 3253
2504 1718 3826
2478 2068 290
2487 2077 848
2494 2085 1288
2501 2091 1693
2508 2098 2076
2514 2104 2449
2520 2111 2848
2528 2118 3286
2537 2128 3859
2510 2466 323
2519 2476 880
2526 2483 1320
2533 2490 1725
2540 2496 2109
2546 2502 2481
2553 2509 2880
2560 2516 3319
2570 2526 3892
2544 2893 357
2553 2902 914
2561 2910 1355
2568 2916 1760
2574 2923 2143
2580 2929 2515
2587 2936 2914
2594 2943 3353
2604 2953 3926
2582 3362 395
2591 3371 952
2599 3379 1393
2605 3385 1797
2612 3392 2181
2618 3398 2553
2625 3405 2952
2632 3412 3391
2642 3422 3964
2631 3975 444
2641 3984 1002
2648 3992 1442
2655 3998 1847
2661 4005 2230
2668 4011 2603
2674 4018 3002
2682 4025 3440
2691 4035 4013
2739 176 154
2749 185 712
2756 192 1152
2763 199 1557
2769 206 1940
2776 212 2313
2782 218 2712
2790 226 3150
2799 235 3723
2788 772 202
2797 781 760
2804 788 1200
2811 795 1605
2817 802 1988
2824 808 2361
2830 815 2760
2838 822 3198
2847 831 3771
2825 1243 240
2835 1252 798
2842 1259 1238
2849 1266 1643
2855 1273 2026
2862 1279 2399
2868 1285 2798
2876 1293 3236
2885 1302 3809
2860 1676 275
2870 1685 833
2877 1692 1273
2884 1699 1678
2890 1706 2061
2897 1712 2434
2903 1718 2833
2911 1726 3271
2920 1735 3844
2893 2086 308
2903 2095 866
2910 2102 1306
2917 2109 1711
2923 2116 2094
2930 2122 2467
2936 2128 2866
2944 2136 3304
2953 2145 3877
2926 2484 340
2935 2493 898
2942 2501 1338
2949 2507 1743
2955 2514 2126
2962 2520 2499
2968 2527 2898
2976 2534 3336
2985 2544 3909
2960 2911 375
2969 2920 932
2977 2927 1373
2983 2934 1777
2990 2941 2161
2996 2947 2533
3003 2954 2932
3010 2961 3371
3020 2970 3944
2998 3380 413
3007 3389 970
3015 3396 1410
3021 3403 1815
3028 3410 2199
3034 3416 2571
3041 3423 2970
3048 3430 3409
3058 3440 3982
3047 3993 462
3057 4002 1019
3064 4009 1460
3071 4016 1865
3077 4023 2248
3083 4029 2620
3090 4035 3019
3097 4043 3458
3107 4052 4031
3192 195 174
3201 204 731
3208 212 1171
3215 218 1576
3222 225 1960
3228 231 2332
3235 238 2731
3242 245 3170
3252 255 3743
3240 791 222
3249 800 779
3257 808 1219
3263 815 1624
3270 821 2008
3276 827 2380
3283 834 2779
3290 841 3218
3300 851 3791
3278 1262 260
3287 1271 817
3295 1279 1257
3301 1285 1662
3308 1292 2046
3314 1298 2418
3321 1305 2817
3328 1312 3256
3338 1322 3829
3313 1695 295
3322 1704 852
3329 1712 1292
3336 1718 1697
3343 1725 2080
3349 1731 2453
3356 1738 2852
3363 1745 3291
3372 1755 3864
3346 2105 328
3355 2114 885
3362 2122 1325
3369 2128 1730
3376 2135 2114
3382 2141 2486
3389 2148 2885
3396 2155 3324
3406 2165 3897
3378 2503 360
3387 2513 917
3395 2520 1357
3401 2527 1762
3408 2533 2146
3414 2539 2518
3421 2546 2917
3428 2553 3356
3438 2563 3929
3412 2930 394
3422 2939 951
3429 2947 1392
3436 2954 1797
3442 2960 2180
3448 2966 2552
3455 2973 2951
3462 2980 3390
3472 2990 3963
3450 3399 432
3459 3408 989
3467 3416 1430
3474 3423 1835
3480 3429 2218
3486 3435 2590
3493 3442 2989
3500 3449 3428
3510 3459 4001
3500 4012 481
3509 4021 1039
3516 4029 1479
3523 4035 1884
3529 4042 2267
3536 4048 2640
3542 4055 3039
3550 4062 3477
3559 4072 4050
3727 218 196
3736 227 754
3744 235 1194
3751 241 1599
3757 248 1982
3763 254 2355
3770 261 2754
3777 268 3192
3787 278 3765
3775 814 245
3784 823 802
3792 831 1242
3799 837 1647
3805 844 2030
3811 850 2403
3818 857 2802
3825 864 3241
3835 874 3814
3813 1285 283
3822 1294 840
3830 1302 1280
3837 1308 1685
3843 1315 2068
3849 1321 2441
3856 1328 2840
3863 1335 3278
3873 1345 3852
3848 1718 317
3857 1727 875
3865 1735 1315
3872 1741 1720
3878 1748 2103
3884 1754 2476
3891 1761 2875
3898 1768 3313
3908 1778 3886
3881 2128 350
3890 2137 908
3898 2145 1348
3905 2151 1753
3911 2158 2136
3917 2164 2509
3924 2171 2908
3931 2178 3346
3941 2188 3919
3913 2526 383
3923 2536 940
3930 2543 1380
3937 2550 1785
3943 2556 2169
3949 2562 2541
3956 2569 2940
3963 2576 3379
3973 2586 3952
3948 2953 417
3957 2962 974
3964 2970 1415
3971 2976 1820
3978 2983 2203
3984 2989 2575
3990 2996 2974
3998 3003 3413
4007 3013 3986
3985 3422 455
3995 3431 1012
4002 3439 1453
4009 3446 1857
4015 3452 2241
4022 3458 2613
4028 3465 3012
4036 3472 3451
4045 3482 4024
4035 4035 504
4044 4044 1062
4052 4052 1502
4058 4058 1907
4065 4065 2290
4071 4071 2663
4078 4078 3062
4085 4085 3500
4095 4095 4073
