public/luts/Fuji XTrans III - Velvia.3dl
#Fujifilm Fuji XTrans III - Velvia — analytically generated
0 256 512 767 1023
0 0 0
0 0 1582
0 0 3763
0 0 4095
0 0 4095
0 1203 0
0 1126 1301
0 1020 3476
0 920 4095
0 853 4095
0 2945 0
0 2864 836
0 2751 2993
0 2644 4095
0 2580 4095
0 4095 0
0 4095 312
0 4095 2448
0 4095 4095
0 4095 4095
0 4095 0
0 4095 0
0 4095 1984
0 4095 3941
0 4095 4095
1298 0 0
1205 0 1444
1076 0 3622
956 0 4095
869 0 4095
833 1012 0
741 933 1150
613 824 3320
495 722 4095
418 657 4095
164 2740 0
73 2657 652
0 2540 2802
0 2431 4095
0 2365 4095
0 4095 0
0 4095 88
0 4081 2216
0 3964 4095
0 3890 4095
0 4095 0
0 4095 0
0 4095 1714
0 4095 3664
0 4095 4095
3333 0 0
3244 0 1219
3120 0 3390
3005 0 4095
2929 0 4095
2887 705 0
2798 624 897
2675 511 3056
2560 405 4095
2490 341 4095
2239 2411 0
2150 2324 338
2028 2203 2475
1915 2089 4095
1848 2020 4095
1647 3944 0
1559 3851 0
1439 3722 1829
1327 3601 3789
1254 3520 4095
1220 4095 0
1128 4095 0
1002 4095 1272
885 4095 3213
797 4095 4095
4095 0 0
4095 0 993
4095 0 3156
4095 0 4095
4095 0 4095
4095 414 0
4095 330 638
4095 213 2787
4095 103 4095
4095 38 4095
4095 2098 0
4056 2009 21
3934 1884 2146
3820 1766 4095
3749 1691 4095
3548 3613 0
3459 3518 0
3335 3386 1451
3220 3263 3403
3139 3174 4095
3094 4095 0
2999 4095 0
2867 4095 848
2745 4095 2785
2646 4095 4095
4095 0 0
4095 0 821
4095 0 2978
4095 0 4095
4095 0 4095
4095 202 0
4095 116 440
4095 0 2581
4095 0 4095
4095 0 4095
4095 1870 0
4095 1777 0
4095 1648 1891
4095 1527 3851
4095 1446 4095
4095 3365 0
4095 3267 0
4095 3132 1153
4095 3005 3098
4095 2907 4095
4095 4095 0
4095 4095 0
4095 4095 511
4095 4095 2442
4095 4095 4095
