public/luts/Fuji XTrans III - Pro Neg Hi.3dl
#Fujifilm Fuji XTrans III - Pro Neg Hi — analytically generated
0 128 256 384 512 639 767 895 1023
134 61 0
131 57 479
128 54 1013
124 50 1558
121 47 2111
117 43 2655
114 40 3197
110 36 3731
107 33 4095
118 546 0
115 542 463
111 539 997
108 535 1542
104 532 2094
100 528 2638
97 525 3180
93 521 3714
90 518 4095
100 1065 0
97 1062 445
93 1058 979
90 1055 1524
86 1051 2076
83 1048 2620
79 1044 3162
76 1041 3696
72 1037 4095
82 1598 0
78 1595 427
75 1591 960
71 1588 1505
68 1584 2058
64 1581 2602
61 1577 3144
57 1574 3678
54 1570 4095
63 2140 0
60 2137 408
56 2133 942
53 2130 1487
49 2126 2039
46 2123 2583
42 2119 3126
39 2116 3660
35 2112 4095
45 2669 0
42 2666 390
38 2662 924
35 2659 1469
31 2655 2021
27 2652 2565
24 2648 3107
20 2645 3641
17 2641 4095
27 3197 0
23 3194 372
20 3190 905
16 3187 1451
13 3183 2003
9 3180 2547
6 3176 3089
2 3173 3623
0 3169 4095
9 3716 0
6 3713 354
2 3710 888
0 3706 1433
0 3703 1985
0 3699 2529
0 3696 3071
0 3692 3605
0 3689 4095
0 4095 0
0 4095 337
0 4095 871
0 4095 1416
0 4095 1969
0 4095 2512
0 4095 3055
0 4095 3589
0 4095 4095
608 52 0
604 49 471
601 46 1005
597 42 1550
594 39 2103
590 35 2646
587 32 3189
583 28 3723
580 25 4095
591 537 0
588 534 455
584 531 988
581 527 1533
577 524 2086
574 520 2630
570 517 3172
567 513 3706
563 510 4095
573 1057 0
570 1054 437
566 1050 971
563 1047 1516
559 1043 2068
556 1039 2612
552 1036 3154
549 1032 3688
545 1029 4095
555 1590 0
552 1587 418
548 1583 952
545 1580 1497
541 1576 2050
537 1572 2594
534 1569 3136
530 1565 3670
527 1562 4095
536 2132 0
533 2129 400
529 2125 934
526 2122 1479
522 2118 2031
519 2115 2575
515 2111 3117
512 2108 3651
508 2104 4095
518 2661 0
515 2658 382
511 2654 915
508 2651 1461
504 2647 2013
501 2644 2557
497 2640 3099
494 2637 3633
490 2633 4095
500 3189 0
497 3186 363
493 3182 897
490 3179 1442
486 3175 1995
482 3171 2539
479 3168 3081
475 3164 3615
472 3161 4095
482 3708 0
479 3705 346
475 3702 879
472 3698 1425
468 3695 1977
465 3691 2521
461 3688 3063
458 3684 3597
454 3681 4095
465 4095 0
462 4095 329
459 4095 863
455 4095 1408
452 4095 1961
448 4095 2504
445 4095 3047
441 4095 3581
438 4095 4093
1135 43 0
1131 40 462
1128 37 996
1124 33 1541
1121 30 2094
1117 26 2637
1114 23 3180
1110 19 3714
1107 16 4095
1118 528 0
1115 525 445
1111 522 979
1108 518 1524
1104 515 2077
1101 511 2621
1097 508 3163
1094 504 3697
1090 501 4095
1100 1048 0
1097 1045 428
1093 1041 961
1090 1038 1507
1086 1034 2059
1083 1030 2603
1079 1027 3145
1076 1023 3679
1073 1020 4095
1082 1581 0
1079 1578 409
1075 1574 943
1072 1570 1488
1068 1567 2041
1065 1563 2585
1061 1560 3127
1058 1556 3661
1054 1553 4095
1063 2123 0
1060 2120 391
1057 2116 924
1053 2113 1470
1049 2109 2022
1046 2105 2566
1042 2102 3108
1039 2098 3642
1036 2095 4095
1045 2652 0
1042 2649 372
1038 2645 906
1035 2642 1451
1031 2638 2004
1028 2635 2548
1024 2631 3090
1021 2628 3624
1017 2624 4095
1027 3180 0
1024 3176 354
1020 3173 888
1017 3169 1433
1013 3166 1986
1010 3162 2530
1006 3159 3072
1003 3155 3606
999 3152 4095
1009 3699 0
1006 3696 336
1002 3693 870
999 3689 1415
995 3685 1968
992 3682 2512
988 3678 3054
985 3675 3588
981 3672 4095
993 4095 0
989 4095 320
986 4095 854
982 4095 1399
979 4095 1952
975 4095 2495
972 4095 3038
968 4095 3572
965 4095 4084
1684 34 0
1681 31 453
1678 27 986
1674 24 1532
1670 20 2084
1667 17 2628
1663 13 3170
1660 10 3704
1657 6 4095
1668 519 0
1664 516 436
1661 512 970
1657 509 1515
1654 505 2068
1650 502 2611
1647 498 3154
1643 495 3688
1640 491 4095
1650 1038 0
1647 1035 418
1643 1032 952
1640 1028 1497
1636 1024 2050
1632 1021 2593
1629 1017 3136
1625 1014 3670
1622 1011 4095
1631 1571 0
1628 1568 400
1625 1565 934
1621 1561 1479
1618 1557 2031
1614 1554 2575
1611 1550 3117
1607 1547 3652
1604 1544 4095
1613 2113 0
1610 2110 381
1606 2107 915
1603 2103 1460
1599 2100 2013
1595 2096 2556
1592 2092 3099
1588 2089 3633
1585 2086 4095
1595 2642 0
1591 2639 363
1588 2636 897
1584 2632 1442
1581 2629 1995
1577 2625 2538
1574 2622 3081
1570 2618 3615
1567 2615 4095
1576 3170 0
1573 3167 345
1570 3164 879
1566 3160 1424
1563 3156 1976
1559 3153 2520
1556 3149 3063
1552 3146 3597
1549 3143 4095
1559 3690 0
1555 3687 327
1552 3683 861
1548 3680 1406
1545 3676 1959
1541 3672 2502
1538 3669 3045
1534 3666 3579
1531 3662 4091
1542 4095 0
1539 4095 311
1536 4095 844
1532 4095 1390
1528 4095 1942
1525 4095 2486
1521 4095 3028
1518 4095 3562
1515 4095 4075
2249 24 0
2246 21 443
2242 18 977
2239 14 1522
2235 10 2074
2232 7 2618
2228 3 3161
2225 0 3695
2221 0 4095
2232 509 0
2229 506 426
2226 503 960
2222 499 1505
2218 495 2058
2215 492 2601
2211 488 3144
2208 485 3678
2205 482 4095
2214 1028 0
2211 1025 408
2208 1022 942
2204 1018 1487
2201 1015 2040
2197 1011 2584
2194 1008 3126
2190 1004 3660
2187 1001 4095
2196 1561 0
2193 1558 390
2189 1555 924
2186 1551 1469
2182 1548 2022
2179 1544 2565
2175 1541 3108
2172 1537 3642
2168 1534 4095
2177 2104 0
2174 2100 371
2171 2097 905
2167 2093 1450
2164 2090 2003
2160 2086 2547
2157 2083 3089
2153 2079 3623
2150 2076 4095
2159 2633 0
2156 2629 353
2153 2626 887
2149 2622 1432
2145 2619 1985
2142 2615 2529
2138 2612 3071
2135 2608 3605
2132 2605 4095
2141 3160 0
2138 3157 335
2134 3154 869
2131 3150 1414
2127 3147 1967
2124 3143 2510
2120 3140 3053
2117 3136 3587
2113 3133 4095
2123 3680 0
2120 3677 317
2117 3673 851
2113 3670 1396
2109 3666 1949
2106 3663 2493
2102 3659 3035
2099 3656 3569
2096 3652 4081
2107 4095 0
2104 4095 301
2100 4095 835
2097 4095 1380
2093 4095 1932
2090 4095 2476
2086 4095 3019
2083 4095 3553
2079 4095 4065
2796 15 0
2793 12 434
2789 8 967
2786 5 1512
2782 1 2065
2778 0 2609
2775 0 3151
2772 0 3685
2768 0 4095
2779 500 0
2776 497 417
2772 493 951
2769 490 1496
2765 486 2048
2762 483 2592
2758 479 3135
2755 476 3669
2752 472 4095
2761 1019 0
2758 1016 399
2755 1012 933
2751 1009 1478
2748 1005 2031
2744 1002 2574
2740 998 3117
2737 995 3651
2734 991 4095
2743 1552 0
2740 1549 381
2736 1545 915
2733 1542 1460
2729 1538 2012
2726 1535 2556
2722 1531 3098
2719 1528 3632
2715 1524 4095
2724 2094 0
2721 2091 362
2718 2088 896
2714 2084 1441
2711 2080 1994
2707 2077 2537
2704 2073 3080
2700 2070 3614
2697 2067 4095
2706 2623 0
2703 2620 344
2700 2617 878
2696 2613 1423
2692 2609 1975
2689 2606 2519
2685 2602 3062
2682 2599 3596
2679 2596 4095
2688 3151 0
2685 3148 326
2681 3144 860
2678 3141 1405
2674 3137 1957
2671 3134 2501
2667 3130 3043
2664 3127 3577
2660 3123 4090
2670 3671 0
2667 3667 308
2664 3664 842
2660 3660 1387
2656 3657 1939
2653 3653 2483
2649 3650 3026
2646 3646 3560
2643 3643 4072
2654 4095 0
2651 4095 291
2647 4095 825
2644 4095 1370
2640 4095 1923
2636 4095 2467
2633 4095 3009
2629 4095 3543
2626 4095 4056
3338 5 0
3335 2 424
3331 0 958
3328 0 1503
3324 0 2056
3320 0 2599
3317 0 3142
3313 0 3676
3310 0 4095
3321 490 0
3318 487 408
3314 484 941
3311 480 1486
3307 477 2039
3304 473 2583
3300 470 3125
3297 466 3659
3293 463 4095
3303 1010 0
3300 1007 390
3297 1003 924
3293 1000 1469
3289 996 2021
3286 992 2565
3282 989 3107
3279 985 3641
3276 982 4095
3285 1543 0
3282 1540 371
3278 1536 905
3275 1533 1450
3271 1529 2003
3268 1525 2547
3264 1522 3089
3261 1518 3623
3257 1515 4095
3266 2085 0
3263 2082 353
3260 2078 887
3256 2075 1432
3253 2071 1984
3249 2068 2528
3245 2064 3070
3242 2061 3604
3239 2057 4095
3248 2614 0
3245 2611 335
3241 2607 868
3238 2604 1414
3234 2600 1966
3231 2597 2510
3227 2593 3052
3224 2590 3586
3221 2586 4095
3230 3142 0
3227 3139 316
3223 3135 850
3220 3132 1395
3216 3128 1948
3213 3124 2492
3209 3121 3034
3206 3117 3568
3202 3114 4081
3212 3661 0
3209 3658 299
3205 3655 832
3202 3651 1378
3198 3648 1930
3195 3644 2474
3191 3641 3016
3188 3637 3550
3185 3634 4063
3196 4095 0
3193 4095 282
3189 4095 816
3186 4095 1361
3182 4095 1914
3178 4095 2457
3175 4095 3000
3171 4095 3534
3168 4095 4046
3866 0 0
3863 0 415
3859 0 949
3856 0 1494
3852 0 2047
3848 0 2590
3845 0 3133
3841 0 3667
3838 0 4095
3849 481 0
3846 478 398
3842 475 932
3839 471 1477
3835 468 2030
3832 464 2574
3828 461 3116
3825 457 3650
3821 454 4095
3831 1001 0
3828 997 381
3825 994 914
3821 990 1460
3817 987 2012
3814 983 2556
3810 980 3098
3807 976 3632
3804 973 4095
3813 1534 0
3810 1530 362
3806 1527 896
3803 1523 1441
3799 1520 1994
3796 1516 2537
3792 1513 3080
3789 1509 3614
3785 1506 4095
3794 2076 0
3791 2073 344
3788 2069 877
3784 2066 1423
3781 2062 1975
3777 2058 2519
3773 2055 3061
3770 2051 3595
3767 2048 4095
3776 2605 0
3773 2602 325
3769 2598 859
3766 2595 1404
3762 2591 1957
3759 2587 2501
3755 2584 3043
3752 2580 3577
3749 2577 4090
3758 3133 0
3755 3129 307
3751 3126 841
3748 3122 1386
3744 3119 1939
3741 3115 2483
3737 3112 3025
3734 3108 3559
3730 3105 4071
3740 3652 0
3737 3649 289
3733 3646 823
3730 3642 1368
3726 3638 1921
3723 3635 2465
3719 3631 3007
3716 3628 3541
3713 3625 4054
3724 4095 0
3721 4095 273
3717 4095 807
3714 4095 1352
3710 4095 1905
3706 4095 2448
3703 4095 2991
3699 4095 3525
3696 4095 4037
4095 0 0
4095 0 408
4095 0 942
4095 0 1487
4095 0 2040
4095 0 2583
4095 0 3126
4095 0 3660
4095 0 4095
4095 475 0
4095 471 392
4095 468 925
4095 464 1471
4095 461 2023
4095 457 2567
4095 454 3109
4095 450 3643
4095 447 4095
4095 994 0
4095 991 374
4095 987 908
4095 984 1453
4095 980 2005
4095 976 2549
4095 973 3091
4095 969 3625
4095 966 4095
4095 1527 0
4095 1524 355
4095 1520 889
4095 1517 1434
4095 1513 1987
4095 1509 2531
4095 1506 3073
4095 1502 3607
4095 1499 4095
4095 2069 0
4095 2066 337
4095 2062 871
4095 2059 1416
4095 2055 1968
4095 2052 2512
4095 2048 3054
4095 2045 3588
4095 2041 4095
4095 2598 0
4095 2595 319
4095 2591 852
4095 2588 1398
4095 2584 1950
4095 2581 2494
4095 2577 3036
4095 2574 3570
4095 2570 4083
4095 3126 0
4095 3123 300
4095 3119 834
4095 3116 1379
4095 3112 1932
4095 3108 2476
4095 3105 3018
4095 3101 3552
4095 3098 4065
4095 3645 0
4095 3642 283
4095 3639 816
4095 3635 1362
4095 3632 1914
4095 3628 2458
4095 3625 3000
4095 3621 3534
4095 3618 4047
4095 4095 0
4095 4095 266
4095 4095 800
4095 4095 1345
4095 4095 1898
4095 4095 2441
4095 4095 2984
4095 4095 3518
4095 4095 4030
