public/luts/Fuji XTrans III - Mono+R.3dl
#Fujifilm Fuji XTrans III - Mono+R — analytically generated
0 128 256 384 512 639 767 895 1023
0 0 0
22 22 22
49 49 49
78 78 78
109 109 109
142 142 142
175 175 175
209 209 209
244 244 244
150 150 150
184 184 184
218 218 218
254 254 254
289 289 289
326 326 326
363 363 363
401 401 401
439 439 439
335 335 335
373 373 373
411 411 411
449 449 449
488 488 488
527 527 527
566 566 566
606 606 606
647 647 647
537 537 537
576 576 576
617 617 617
657 657 657
698 698 698
739 739 739
780 780 780
822 822 822
864 864 864
749 749 749
791 791 791
833 833 833
875 875 875
917 917 917
960 960 960
1003 1003 1003
1046 1046 1046
1089 1089 1089
969 969 969
1012 1012 1012
1055 1055 1055
1099 1099 1099
1143 1143 1143
1186 1186 1186
1230 1230 1230
1275 1275 1275
1319 1319 1319
1198 1198 1198
1242 1242 1242
1286 1286 1286
1331 1331 1331
1376 1376 1376
1421 1421 1421
1466 1466 1466
1511 1511 1511
1557 1557 1557
1432 1432 1432
1478 1478 1478
1523 1523 1523
1569 1569 1569
1615 1615 1615
1661 1661 1661
1707 1707 1707
1753 1753 1753
1800 1800 1800
1673 1673 1673
1719 1719 1719
1765 1765 1765
1812 1812 1812
1859 1859 1859
1906 1906 1906
1953 1953 1953
2000 2000 2000
2048 2048 2048
184 184 184
218 218 218
254 254 254
289 289 289
326 326 326
363 363 363
401 401 401
439 439 439
478 478 478
373 373 373
411 411 411
449 449 449
488 488 488
527 527 527
566 566 566
606 606 606
647 647 647
687 687 687
576 576 576
617 617 617
657 657 657
698 698 698
739 739 739
780 780 780
822 822 822
864 864 864
906 906 906
791 791 791
833 833 833
875 875 875
917 917 917
960 960 960
1003 1003 1003
1046 1046 1046
1089 1089 1089
1133 1133 1133
1014 1014 1014
1057 1057 1057
1101 1101 1101
1144 1144 1144
1188 1188 1188
1232 1232 1232
1277 1277 1277
1321 1321 1321
1366 1366 1366
1242 1242 1242
1286 1286 1286
1331 1331 1331
1376 1376 1376
1421 1421 1421
1466 1466 1466
1511 1511 1511
1557 1557 1557
1603 1603 1603
1478 1478 1478
1523 1523 1523
1569 1569 1569
1615 1615 1615
1661 1661 1661
1707 1707 1707
1753 1753 1753
1800 1800 1800
1847 1847 1847
1719 1719 1719
1765 1765 1765
1812 1812 1812
1859 1859 1859
1906 1906 1906
1953 1953 1953
2000 2000 2000
2048 2048 2048
2092 2092 2092
1965 1965 1965
2012 2012 2012
2059 2059 2059
2103 2103 2103
2147 2147 2147
2191 2191 2191
2235 2235 2235
2279 2279 2279
2323 2323 2323
411 411 411
449 449 449
488 488 488
527 527 527
566 566 566
606 606 606
647 647 647
687 687 687
728 728 728
617 617 617
657 657 657
698 698 698
739 739 739
780 780 780
822 822 822
864 864 864
906 906 906
949 949 949
833 833 833
875 875 875
917 917 917
960 960 960
1003 1003 1003
1046 1046 1046
1089 1089 1089
1133 1133 1133
1177 1177 1177
1057 1057 1057
1101 1101 1101
1144 1144 1144
1188 1188 1188
1233 1233 1233
1277 1277 1277
1321 1321 1321
1366 1366 1366
1411 1411 1411
1288 1288 1288
1333 1333 1333
1378 1378 1378
1423 1423 1423
1468 1468 1468
1513 1513 1513
1559 1559 1559
1605 1605 1605
1651 1651 1651
1523 1523 1523
1569 1569 1569
1615 1615 1615
1661 1661 1661
1707 1707 1707
1753 1753 1753
1800 1800 1800
1847 1847 1847
1894 1894 1894
1765 1765 1765
1812 1812 1812
1859 1859 1859
1906 1906 1906
1953 1953 1953
2000 2000 2000
2048 2048 2048
2092 2092 2092
2136 2136 2136
2012 2012 2012
2059 2059 2059
2103 2103 2103
2147 2147 2147
2191 2191 2191
2235 2235 2235
2279 2279 2279
2323 2323 2323
2366 2366 2366
2246 2246 2246
2290 2290 2290
2334 2334 2334
2378 2378 2378
2421 2421 2421
2465 2465 2465
2508 2508 2508
2552 2552 2552
2595 2595 2595
657 657 657
698 698 698
739 739 739
780 780 780
822 822 822
864 864 864
906 906 906
949 949 949
992 992 992
875 875 875
917 917 917
960 960 960
1003 1003 1003
1046 1046 1046
1089 1089 1089
1133 1133 1133
1177 1177 1177
1221 1221 1221
1101 1101 1101
1144 1144 1144
1188 1188 1188
1233 1233 1233
1277 1277 1277
1321 1321 1321
1366 1366 1366
1411 1411 1411
1457 1457 1457
1333 1333 1333
1378 1378 1378
1423 1423 1423
1468 1468 1468
1514 1514 1514
1559 1559 1559
1605 1605 1605
1651 1651 1651
1697 1697 1697
1571 1571 1571
1617 1617 1617
1663 1663 1663
1709 1709 1709
1756 1756 1756
1802 1802 1802
1849 1849 1849
1896 1896 1896
1943 1943 1943
1812 1812 1812
1859 1859 1859
1906 1906 1906
1953 1953 1953
2000 2000 2000
2048 2048 2048
2092 2092 2092
2136 2136 2136
2180 2180 2180
2059 2059 2059
2103 2103 2103
2147 2147 2147
2191 2191 2191
2235 2235 2235
2279 2279 2279
2323 2323 2323
2366 2366 2366
2410 2410 2410
2290 2290 2290
2334 2334 2334
2378 2378 2378
2421 2421 2421
2465 2465 2465
2508 2508 2508
2552 2552 2552
2595 2595 2595
2638 2638 2638
2519 2519 2519
2563 2563 2563
2606 2606 2606
2649 2649 2649
2692 2692 2692
2735 2735 2735
2778 2778 2778
2821 2821 2821
2863 2863 2863
917 917 917
960 960 960
1003 1003 1003
1046 1046 1046
1090 1090 1090
1133 1133 1133
1177 1177 1177
1221 1221 1221
1266 1266 1266
1144 1144 1144
1188 1188 1188
1233 1233 1233
1277 1277 1277
1322 1322 1322
1366 1366 1366
1411 1411 1411
1457 1457 1457
1502 1502 1502
1378 1378 1378
1423 1423 1423
1468 1468 1468
1514 1514 1514
1559 1559 1559
1605 1605 1605
1651 1651 1651
1697 1697 1697
1744 1744 1744
1617 1617 1617
1663 1663 1663
1709 1709 1709
1756 1756 1756
1802 1802 1802
1849 1849 1849
1896 1896 1896
1943 1943 1943
1990 1990 1990
1861 1861 1861
1908 1908 1908
1955 1955 1955
2002 2002 2002
2050 2050 2050
2094 2094 2094
2138 2138 2138
2182 2182 2182
2226 2226 2226
2103 2103 2103
2147 2147 2147
2191 2191 2191
2235 2235 2235
2279 2279 2279
2323 2323 2323
2366 2366 2366
2410 2410 2410
2454 2454 2454
2334 2334 2334
2378 2378 2378
2421 2421 2421
2465 2465 2465
2508 2508 2508
2552 2552 2552
2595 2595 2595
2638 2638 2638
2681 2681 2681
2563 2563 2563
2606 2606 2606
2649 2649 2649
2692 2692 2692
2735 2735 2735
2778 2778 2778
2821 2821 2821
2863 2863 2863
2906 2906 2906
2789 2789 2789
2832 2832 2832
2874 2874 2874
2917 2917 2917
2959 2959 2959
3001 3001 3001
3043 3043 3043
3086 3086 3086
3127 3127 3127
1186 1186 1186
1230 1230 1230
1275 1275 1275
1319 1319 1319
1364 1364 1364
1409 1409 1409
1454 1454 1454
1500 1500 1500
1545 1545 1545
1421 1421 1421
1466 1466 1466
1511 1511 1511
1557 1557 1557
1603 1603 1603
1649 1649 1649
1695 1695 1695
1741 1741 1741
1788 1788 1788
1661 1661 1661
1707 1707 1707
1753 1753 1753
1800 1800 1800
1847 1847 1847
1893 1893 1893
1941 1941 1941
1988 1988 1988
2035 2035 2035
1906 1906 1906
1953 1953 1953
2000 2000 2000
2048 2048 2048
2092 2092 2092
2136 2136 2136
2180 2180 2180
2224 2224 2224
2268 2268 2268
2147 2147 2147
2191 2191 2191
2235 2235 2235
2279 2279 2279
2323 2323 2323
2366 2366 2366
2410 2410 2410
2453 2453 2453
2497 2497 2497
2376 2376 2376
2419 2419 2419
2463 2463 2463
2506 2506 2506
2550 2550 2550
2593 2593 2593
2636 2636 2636
2679 2679 2679
2722 2722 2722
2604 2604 2604
2647 2647 2647
2690 2690 2690
2733 2733 2733
2776 2776 2776
2819 2819 2819
2861 2861 2861
2904 2904 2904
2946 2946 2946
2830 2830 2830
2872 2872 2872
2915 2915 2915
2957 2957 2957
3000 3000 3000
3041 3041 3041
3084 3084 3084
3125 3125 3125
3167 3167 3167
3052 3052 3052
3094 3094 3094
3136 3136 3136
3178 3178 3178
3220 3220 3220
3261 3261 3261
3302 3302 3302
3343 3343 3343
3384 3384 3384
1466 1466 1466
1511 1511 1511
1557 1557 1557
1603 1603 1603
1649 1649 1649
1695 1695 1695
1741 1741 1741
1788 1788 1788
1835 1835 1835
1707 1707 1707
1753 1753 1753
1800 1800 1800
1847 1847 1847
1894 1894 1894
1941 1941 1941
1988 1988 1988
2035 2035 2035
2080 2080 2080
1953 1953 1953
2000 2000 2000
2048 2048 2048
2092 2092 2092
2136 2136 2136
2180 2180 2180
2224 2224 2224
2268 2268 2268
2311 2311 2311
2191 2191 2191
2235 2235 2235
2279 2279 2279
2323 2323 2323
2366 2366 2366
2410 2410 2410
2453 2453 2453
2497 2497 2497
2540 2540 2540
2421 2421 2421
2465 2465 2465
2508 2508 2508
2552 2552 2552
2595 2595 2595
2638 2638 2638
2681 2681 2681
2724 2724 2724
2767 2767 2767
2647 2647 2647
2690 2690 2690
2733 2733 2733
2776 2776 2776
2819 2819 2819
2861 2861 2861
2904 2904 2904
2946 2946 2946
2989 2989 2989
2872 2872 2872
2915 2915 2915
2957 2957 2957
3000 3000 3000
3042 3042 3042
3084 3084 3084
3125 3125 3125
3167 3167 3167
3209 3209 3209
3094 3094 3094
3136 3136 3136
3178 3178 3178
3220 3220 3220
3261 3261 3261
3302 3302 3302
3343 3343 3343
3384 3384 3384
3425 3425 3425
3313 3313 3313
3354 3354 3354
3395 3395 3395
3436 3436 3436
3476 3476 3476
3516 3516 3516
3557 3557 3557
3597 3597 3597
3636 3636 3636
1753 1753 1753
1800 1800 1800
1847 1847 1847
1894 1894 1894
1941 1941 1941
1988 1988 1988
2035 2035 2035
2080 2080 2080
2125 2125 2125
2000 2000 2000
2048 2048 2048
2092 2092 2092
2136 2136 2136
2180 2180 2180
2224 2224 2224
2268 2268 2268
2311 2311 2311
2355 2355 2355
2235 2235 2235
2279 2279 2279
2323 2323 2323
2366 2366 2366
2410 2410 2410
2453 2453 2453
2497 2497 2497
2540 2540 2540
2584 2584 2584
2465 2465 2465
2508 2508 2508
2552 2552 2552
2595 2595 2595
2638 2638 2638
2681 2681 2681
2724 2724 2724
2767 2767 2767
2810 2810 2810
2692 2692 2692
2735 2735 2735
2778 2778 2778
2821 2821 2821
2863 2863 2863
2906 2906 2906
2948 2948 2948
2990 2990 2990
3033 3033 3033
2915 2915 2915
2957 2957 2957
3000 3000 3000
3042 3042 3042
3084 3084 3084
3125 3125 3125
3167 3167 3167
3209 3209 3209
3250 3250 3250
3136 3136 3136
3178 3178 3178
3220 3220 3220
3261 3261 3261
3303 3303 3303
3343 3343 3343
3384 3384 3384
3425 3425 3425
3466 3466 3466
3354 3354 3354
3395 3395 3395
3436 3436 3436
3476 3476 3476
3517 3517 3517
3557 3557 3557
3597 3597 3597
3636 3636 3636
3676 3676 3676
3567 3567 3567
3607 3607 3607
3647 3647 3647
3686 3686 3686
3725 3725 3725
3764 3764 3764
3802 3802 3802
3840 3840 3840
3878 3878 3878
2048 2048 2048
2092 2092 2092
2136 2136 2136
2180 2180 2180
2224 2224 2224
2268 2268 2268
2311 2311 2311
2355 2355 2355
2399 2399 2399
2279 2279 2279
2323 2323 2323
2366 2366 2366
2410 2410 2410
2454 2454 2454
2497 2497 2497
2540 2540 2540
2584 2584 2584
2627 2627 2627
2508 2508 2508
2552 2552 2552
2595 2595 2595
2638 2638 2638
2681 2681 2681
2724 2724 2724
2767 2767 2767
2810 2810 2810
2852 2852 2852
2735 2735 2735
2778 2778 2778
2821 2821 2821
2863 2863 2863
2906 2906 2906
2948 2948 2948
2990 2990 2990
3033 3033 3033
3075 3075 3075
2959 2959 2959
3001 3001 3001
3043 3043 3043
3086 3086 3086
3127 3127 3127
3169 3169 3169
3211 3211 3211
3252 3252 3252
3294 3294 3294
3178 3178 3178
3220 3220 3220
3261 3261 3261
3303 3303 3303
3344 3344 3344
3384 3384 3384
3425 3425 3425
3466 3466 3466
3506 3506 3506
3395 3395 3395
3436 3436 3436
3476 3476 3476
3517 3517 3517
3557 3557 3557
3597 3597 3597
3636 3636 3636
3676 3676 3676
3715 3715 3715
3607 3607 3607
3647 3647 3647
3686 3686 3686
3725 3725 3725
3764 3764 3764
3802 3802 3802
3840 3840 3840
3878 3878 3878
3915 3915 3915
3812 3812 3812
3850 3850 3850
3888 3888 3888
3925 3925 3925
3961 3961 3961
3997 3997 3997
4032 4032 4032
4065 4065 4065
4095 4095 4095
