public/luts/Fuji XTrans III - Provia.3dl
#Fujifilm Fuji XTrans III - Provia — analytically generated
0 64 128 192 256 320 384 448 512 575 639 703 767 831 895 959 1023
53 0 0
51 0 212
47 0 484
44 0 764
40 0 1050
37 0 1340
33 0 1634
29 0 1930
26 0 2230
22 0 2522
18 0 2816
15 0 3108
11 0 3397
8 0 3683
4 0 3963
1 0 4095
0 0 4095
38 226 0
35 223 197
32 220 468
29 216 748
25 213 1034
21 209 1325
18 206 1618
14 202 1915
10 198 2214
7 195 2506
3 191 2801
0 187 3093
0 184 3382
0 180 3667
0 177 3948
0 174 4095
0 170 4095
21 480 0
18 477 180
15 474 451
12 470 731
8 467 1017
4 463 1307
1 459 1601
0 456 1898
0 452 2197
0 448 2489
0 445 2784
0 441 3076
0 438 3365
0 434 3650
0 431 3931
0 427 4095
0 424 4095
3 744 0
1 741 162
0 738 434
0 735 714
0 731 1000
0 727 1290
0 724 1583
0 720 1880
0 716 2179
0 713 2471
0 709 2766
0 706 3058
0 702 3347
0 699 3633
0 695 3913
0 692 4095
0 689 4095
0 1016 0
0 1013 144
0 1010 415
0 1006 695
0 1003 981
0 999 1272
0 996 1565
0 992 1862
0 988 2161
0 985 2453
0 981 2748
0 977 3040
0 974 3329
0 970 3614
0 967 3895
0 963 4095
0 960 4095
0 1293 0
0 1291 125
0 1287 397
0 1284 677
0 1280 963
0 1277 1253
0 1273 1547
0 1269 1843
0 1266 2143
0 1262 2435
0 1258 2729
0 1255 3021
0 1251 3310
0 1248 3596
0 1244 3877
0 1241 4095
0 1238 4095
0 1575 0
0 1572 106
0 1569 378
0 1565 658
0 1562 944
0 1558 1234
0 1555 1528
0 1551 1824
0 1547 2124
0 1544 2416
0 1540 2710
0 1537 3002
0 1533 3291
0 1529 3577
0 1526 3858
0 1523 4095
0 1519 4095
0 1861 0
0 1858 87
0 1855 359
0 1851 639
0 1848 925
0 1844 1215
0 1840 1509
0 1837 1805
0 1833 2105
0 1829 2397
0 1826 2691
0 1822 2983
0 1819 3272
0 1815 3558
0 1812 3838
0 1808 4095
0 1805 4095
0 2149 0
0 2147 68
0 2143 339
0 2140 619
0 2136 905
0 2133 1195
0 2129 1489
0 2126 1786
0 2122 2085
0 2118 2377
0 2115 2672
0 2111 2964
0 2107 3253
0 2104 3538
0 2100 3819
0 2097 4093
0 2094 4095
0 2429 0
0 2426 49
0 2423 321
0 2419 601
0 2416 886
0 2412 1177
0 2409 1470
0 2405 1767
0 2401 2066
0 2398 2358
0 2394 2653
0 2390 2945
0 2387 3234
0 2383 3520
0 2380 3800
0 2376 4074
0 2373 4095
0 2710 0
0 2708 30
0 2704 302
0 2701 582
0 2697 868
0 2694 1158
0 2690 1452
0 2687 1748
0 2683 2047
0 2679 2339
0 2676 2634
0 2672 2926
0 2668 3215
0 2665 3501
0 2661 3781
0 2658 4055
0 2655 4095
0 2989 0
0 2986 11
0 2983 283
0 2980 563
0 2976 849
0 2972 1139
0 2969 1433
0 2965 1730
0 2961 2029
0 2958 2321
0 2954 2615
0 2951 2907
0 2947 3197
0 2944 3482
0 2940 3763
0 2937 4036
0 2933 4095
0 3264 0
0 3262 0
0 3258 264
0 3255 545
0 3251 830
0 3248 1121
0 3244 1414
0 3241 1711
0 3237 2010
0 3233 2302
0 3230 2597
0 3226 2889
0 3222 3178
0 3219 3464
0 3215 3744
0 3212 4018
0 3209 4095
0 3536 0
0 3533 0
0 3530 246
0 3526 526
0 3523 812
0 3519 1102
0 3515 1396
0 3512 1693
0 3508 1992
0 3504 2284
0 3501 2579
0 3497 2871
0 3494 3160
0 3490 3445
0 3487 3726
0 3483 4000
0 3480 4095
0 3801 0
0 3799 0
0 3795 228
0 3792 508
0 3788 794
0 3785 1085
0 3781 1378
0 3777 1675
0 3774 1974
0 3770 2266
0 3766 2561
0 3763 2853
0 3759 3142
0 3756 3428
0 3752 3708
0 3749 3982
0 3746 4095
0 4059 0
0 4056 0
0 4053 211
0 4049 491
0 4046 777
0 4042 1067
0 4039 1361
0 4035 1658
0 4031 1957
0 4028 2249
0 4024 2544
0 4020 2836
0 4017 3125
0 4013 3410
0 4010 3691
0 4006 3964
0 4003 4095
0 4095 0
0 4095 0
0 4095 195
0 4095 475
0 4095 761
0 4095 1051
0 4095 1345
0 4095 1642
0 4095 1941
0 4095 2233
0 4095 2528
0 4095 2820
0 4095 3109
0 4095 3394
0 4095 3675
0 4095 3948
0 4095 4095
279 0 0
276 0 205
273 0 476
269 0 756
266 0 1042
262 0 1332
259 0 1626
255 0 1923
251 0 2222
248 0 2514
244 0 2809
240 0 3101
237 0 3390
233 0 3675
230 0 3956
226 0 4095
223 0 4095
264 218 0
261 216 189
258 212 461
254 209 741
251 205 1027
247 202 1317
243 198 1611
240 195 1908
236 191 2207
232 187 2499
229 184 2793
225 180 3085
222 176 3374
218 173 3660
215 169 3941
211 166 4095
208 163 4095
247 472 0
244 469 172
241 466 444
237 463 724
234 459 1010
230 456 1300
226 452 1594
223 448 1890
219 445 2190
215 441 2482
212 437 2776
208 434 3068
205 430 3357
201 427 3643
198 423 3924
194 420 4095
191 417 4095
229 737 0
226 734 155
223 731 426
219 727 706
216 724 992
212 720 1282
209 716 1576
205 713 1873
201 709 2172
198 705 2464
194 702 2759
190 698 3051
187 695 3340
183 691 3625
180 688 3906
176 684 4095
173 681 4095
211 1008 0
208 1006 136
205 1002 408
201 999 688
198 995 974
194 992 1264
190 988 1558
187 984 1854
183 981 2154
179 977 2446
176 974 2740
172 970 3032
169 966 3321
165 963 3607
162 959 3888
158 956 4095
155 953 4095
192 1286 0
189 1283 118
186 1280 389
183 1276 669
179 1273 955
175 1269 1245
172 1265 1539
168 1262 1836
164 1258 2135
161 1254 2427
157 1251 2722
154 1247 3014
150 1244 3303
146 1240 3588
143 1237 3869
140 1233 4095
136 1230 4095
173 1567 0
170 1565 99
167 1561 370
164 1558 650
160 1554 936
156 1551 1227
153 1547 1520
149 1544 1817
145 1540 2116
142 1536 2408
138 1533 2703
135 1529 2995
131 1525 3284
128 1522 3569
124 1518 3850
121 1515 4095
117 1512 4095
154 1853 0
151 1850 80
148 1847 351
144 1844 631
141 1840 917
137 1837 1207
134 1833 1501
130 1829 1798
126 1826 2097
123 1822 2389
119 1818 2684
115 1815 2976
112 1811 3265
108 1808 3550
105 1804 3831
101 1801 4095
98 1798 4095
135 2142 0
132 2139 60
129 2136 332
125 2133 612
122 2129 898
118 2125 1188
114 2122 1482
111 2118 1778
107 2114 2078
103 2111 2370
100 2107 2664
96 2104 2956
92 2100 3245
89 2096 3531
85 2093 3812
82 2090 4085
79 2086 4095
116 2421 0
113 2419 42
110 2415 313
106 2412 593
103 2408 879
99 2405 1169
96 2401 1463
92 2398 1760
88 2394 2059
85 2390 2351
81 2387 2645
77 2383 2937
74 2379 3227
70 2376 3512
67 2372 3793
63 2369 4066
60 2366 4095
97 2703 0
94 2700 23
91 2697 294
87 2693 574
84 2690 860
80 2686 1150
77 2683 1444
73 2679 1741
69 2675 2040
66 2672 2332
62 2668 2627
58 2664 2919
55 2661 3208
51 2657 3493
48 2654 3774
44 2651 4047
41 2647 4095
78 2982 0
76 2979 4
72 2976 275
69 2972 556
65 2969 841
62 2965 1132
58 2961 1425
54 2958 1722
51 2954 2021
47 2950 2313
43 2947 2608
40 2943 2900
36 2940 3189
33 2936 3475
29 2933 3755
26 2929 4029
23 2926 4095
60 3257 0
57 3254 0
54 3251 257
50 3247 537
47 3244 823
43 3240 1113
39 3237 1407
36 3233 1704
32 3229 2003
28 3226 2295
25 3222 2589
21 3218 2881
18 3215 3171
14 3211 3456
11 3208 3737
7 3205 4010
4 3201 4095
41 3528 0
39 3525 0
35 3522 239
32 3519 519
28 3515 805
25 3512 1095
21 3508 1389
18 3504 1685
14 3501 1985
10 3497 2277
7 3493 2571
3 3490 2863
0 3486 3152
0 3483 3438
0 3479 3719
0 3476 3992
0 3473 4095
24 3794 0
21 3791 0
18 3788 221
14 3784 501
11 3781 787
7 3777 1077
3 3774 1371
0 3770 1668
0 3766 1967
0 3763 2259
0 3759 2553
0 3755 2845
0 3752 3135
0 3748 3420
0 3745 3701
0 3741 3974
0 3738 4095
6 4051 0
4 4049 0
0 4045 204
0 4042 484
0 4038 770
0 4035 1060
0 4031 1354
0 4027 1650
0 4024 1950
0 4020 2242
0 4017 2536
0 4013 2828
0 4009 3117
0 4006 3403
0 4002 3683
0 3999 3957
0 3996 4095
0 4095 0
0 4095 0
0 4095 188
0 4095 468
0 4095 754
0 4095 1044
0 4095 1338
0 4095 1634
0 4095 1934
0 4095 2226
0 4095 2520
0 4095 2812
0 4095 3101
0 4095 3387
0 4095 3668
0 4095 3941
0 4095 4095
537 0 0
534 0 196
531 0 468
527 0 748
524 0 1034
520 0 1324
517 0 1618
513 0 1914
509 0 2214
506 0 2505
502 0 2800
498 0 3092
495 0 3381
491 0 3667
488 0 3947
484 0 4095
481 0 4095
522 210 0
519 207 181
516 204 452
512 200 732
509 197 1018
505 193 1309
501 190 1602
498 186 1899
494 182 2198
490 179 2490
487 175 2785
483 171 3077
480 168 3366
476 164 3651
473 161 3932
469 158 4095
466 154 4095
505 464 0
502 461 164
499 458 435
495 454 715
492 451 1001
488 447 1291
484 443 1585
481 440 1882
477 436 2181
473 432 2473
470 429 2768
466 425 3060
463 422 3349
459 418 3634
456 415 3915
452 411 4095
449 408 4095
487 728 0
484 725 146
481 722 418
477 719 698
474 715 984
470 711 1274
467 708 1567
463 704 1864
459 700 2163
456 697 2455
452 693 2750
448 690 3042
445 686 3331
441 683 3617
438 679 3897
434 676 4095
431 672 4095
469 1000 0
466 997 128
463 994 399
459 990 679
456 987 965
452 983 1255
448 980 1549
445 976 1846
441 972 2145
437 969 2437
434 965 2732
430 961 3024
427 958 3313
423 954 3598
420 951 3879
416 947 4095
413 944 4095
450 1277 0
447 1274 109
444 1271 381
441 1268 661
437 1264 947
433 1261 1237
430 1257 1531
426 1253 1827
422 1250 2127
419 1246 2419
415 1242 2713
412 1239 3005
408 1235 3294
404 1232 3580
401 1228 3861
398 1225 4095
394 1222 4095
431 1559 0
428 1556 90
425 1553 362
422 1549 642
418 1546 928
414 1542 1218
411 1539 1512
407 1535 1808
403 1531 2108
400 1528 2400
396 1524 2694
393 1521 2986
389 1517 3275
386 1513 3561
382 1510 3842
379 1507 4095
375 1503 4095
412 1845 0
409 1842 71
406 1839 343
402 1835 623
399 1832 909
395 1828 1199
392 1824 1493
388 1821 1789
384 1817 2089
381 1813 2381
377 1810 2675
373 1806 2967
370 1803 3256
366 1799 3542
363 1796 3822
359 1792 4095
356 1789 4095
393 2133 0
390 2131 52
387 2127 323
383 2124 603
380 2120 889
376 2117 1179
372 2113 1473
369 2110 1770
365 2106 2069
361 2102 2361
358 2099 2656
354 2095 2948
350 2091 3237
347 2088 3522
343 2084 3803
340 2081 4077
337 2078 4095
374 2413 0
371 2410 33
368 2407 304
364 2403 585
361 2400 870
357 2396 1161
354 2393 1454
350 2389 1751
346 2385 2050
343 2382 2342
339 2378 2637
335 2374 2929
332 2371 3218
328 2367 3504
325 2364 3784
321 2360 4058
318 2357 4095
355 2694 0
352 2692 14
349 2688 286
345 2685 566
342 2681 852
338 2678 1142
335 2674 1436
331 2670 1732
327 2667 2031
324 2663 2323
320 2660 2618
316 2656 2910
313 2652 3199
309 2649 3485
306 2645 3765
302 2642 4039
299 2639 4095
336 2973 0
334 2970 0
330 2967 267
327 2964 547
323 2960 833
320 2956 1123
316 2953 1417
312 2949 1714
309 2945 2013
305 2942 2305
301 2938 2599
298 2935 2891
294 2931 3181
291 2928 3466
287 2924 3747
284 2921 4020
281 2917 4095
318 3248 0
315 3246 0
312 3242 248
308 3239 529
305 3235 814
301 3232 1105
297 3228 1398
294 3225 1695
290 3221 1994
286 3217 2286
283 3214 2581
279 3210 2873
276 3206 3162
272 3203 3448
269 3199 3728
265 3196 4002
262 3193 4095
299 3520 0
297 3517 0
293 3514 230
290 3510 510
286 3507 796
283 3503 1086
279 3499 1380
276 3496 1677
272 3492 1976
268 3488 2268
265 3485 2563
261 3481 2855
257 3478 3144
254 3474 3429
250 3471 3710
247 3467 3984
244 3464 4095
282 3785 0
279 3783 0
276 3779 212
272 3776 492
269 3772 778
265 3769 1069
261 3765 1362
258 3761 1659
254 3758 1958
250 3754 2250
247 3750 2545
243 3747 2837
240 3743 3126
236 3740 3412
233 3736 3692
229 3733 3966
226 3730 4095
264 4043 0
262 4040 0
258 4037 195
255 4033 475
251 4030 761
248 4026 1051
244 4023 1345
240 4019 1642
237 4015 1941
233 4012 2233
230 4008 2527
226 4004 2820
222 4001 3109
219 3997 3394
215 3994 3675
212 3990 3948
209 3987 4095
248 4095 0
246 4095 0
242 4095 179
239 4095 459
235 4095 745
232 4095 1035
228 4095 1329
225 4095 1626
221 4095 1925
217 4095 2217
214 4095 2512
210 4095 2804
206 4095 3093
203 4095 3378
199 4095 3659
196 4095 3932
193 4095 4095
809 0 0
806 0 187
803 0 459
799 0 739
796 0 1025
792 0 1315
788 0 1609
785 0 1905
781 0 2205
778 0 2496
774 0 2791
770 0 3083
767 0 3372
763 0 3658
760 0 3938
756 0 4095
753 0 4095
793 201 0
791 198 172
787 195 443
784 191 723
780 188 1009
777 184 1300
773 181 1593
770 177 1890
766 173 2189
762 170 2481
759 166 2776
755 162 3068
751 159 3357
748 155 3642
744 152 3923
741 149 4095
