public/luts/Fuji XTrans III - Velvia.3dl
#Fujifilm Fuji XTrans III - Velvia — analytically generated
0 64 128 192 256 320 384 448 512 575 639 703 767 831 895 959 1023
0 0 0
0 0 280
0 0 665
0 0 1104
0 0 1582
0 0 2091
0 0 2627
0 0 3185
0 0 3763
0 0 4095
0 0 4095
0 0 4095
0 0 4095
0 0 4095
0 0 4095
0 0 4095
0 0 4095
0 199 0
0 185 234
0 167 620
0 146 1059
0 123 1537
0 98 2046
0 73 2581
0 46 3139
0 18 3717
0 0 4095
0 0 4095
0 0 4095
0 0 4095
0 0 4095
0 0 4095
0 0 4095
0 0 4095
0 489 0
0 476 168
0 457 553
0 436 992
0 413 1470
0 389 1979
0 363 2513
0 336 3071
0 308 3649
0 283 4095
0 258 4095
0 234 4095
0 210 4095
0 187 4095
0 164 4095
0 143 4095
0 140 4095
0 828 0
0 815 89
0 796 474
0 775 913
0 752 1390
0 727 1899
0 701 2433
0 674 2991
0 646 3568
0 621 4081
0 596 4095
0 571 4095
0 547 4095
0 524 4095
0 501 4095
0 480 4095
0 479 4095
0 1203 0
0 1190 0
0 1171 385
0 1150 824
0 1126 1301
0 1102 1809
0 1075 2343
0 1048 2899
0 1020 3476
0 994 3988
0 969 4095
0 944 4095
0 920 4095
0 896 4095
0 874 4095
0 852 4095
0 853 4095
0 1607 0
0 1593 0
0 1574 287
0 1553 725
0 1529 1201
0 1504 1708
0 1478 2241
0 1450 2797
0 1421 3373
0 1396 3885
0 1370 4095
0 1345 4095
0 1320 4095
0 1296 4095
0 1273 4095
0 1253 4095
0 1255 4095
0 2034 0
0 2020 0
0 2001 178
0 1979 615
0 1955 1091
0 1930 1597
0 1903 2129
0 1875 2684
0 1846 3259
0 1820 3770
0 1794 4095
0 1768 4095
0 1743 4095
0 1719 4095
0 1696 4095
0 1677 4095
0 1679 4095
0 2481 0
0 2467 0
0 2448 59
0 2425 495
0 2401 969
0 2376 1475
0 2348 2006
0 2320 2560
0 2290 3133
0 2264 3642
0 2237 4095
0 2211 4095
0 2186 4095
0 2161 4095
0 2137 4095
0 2121 4095
0 2122 4095
0 2945 0
0 2931 0
0 2911 0
0 2888 362
0 2864 836
0 2838 1340
0 2810 1870
0 2781 2422
0 2751 2993
0 2724 3502
0 2697 4009
0 2670 4095
0 2644 4095
0 2619 4095
0 2594 4095
0 2579 4095
0 2580 4095
0 3351 0
0 3336 0
0 3316 0
0 3293 239
0 3268 712
0 3242 1215
0 3213 1743
0 3184 2294
0 3153 2864
0 3126 3371
0 3098 3877
0 3071 4095
0 3045 4095
0 3019 4095
0 2994 4095
0 2979 4095
0 2980 4095
0 3752 0
0 3737 0
0 3717 0
0 3693 111
0 3668 582
0 3641 1083
0 3612 1610
0 3582 2160
0 3551 2729
0 3523 3234
0 3495 3739
0 3467 4095
0 3440 4095
0 3414 4095
0 3389 4095
0 3374 4095
0 3374 4095
0 4095 0
0 4095 0
0 4095 0
0 4081 0
0 4055 448
0 4027 949
0 3998 1474
0 3968 2022
0 3936 2589
0 3907 3094
0 3879 3598
0 3851 4091
0 3823 4095
0 3796 4095
0 3771 4095
0 3755 4095
0 3755 4095
0 4095 0
0 4095 0
0 4095 0
0 4095 0
0 4095 312
0 4095 811
0 4095 1336
0 4095 1882
0 4095 2448
0 4095 2951
0 4095 3453
0 4095 3945
0 4095 4095
0 4095 4095
0 4095 4095
0 4095 4095
0 4095 4095
0 4095 0
0 4095 0
0 4095 0
0 4095 0
0 4095 175
0 4095 673
0 4095 1196
0 4095 1741
0 4095 2306
0 4095 2808
0 4095 3309
0 4095 3799
0 4095 4095
0 4095 4095
0 4095 4095
0 4095 4095
0 4095 4095
0 4095 0
0 4095 0
0 4095 0
0 4095 0
0 4095 40
0 4095 536
0 4095 1058
0 4095 1602
0 4095 2165
0 4095 2666
0 4095 3165
0 4095 3655
0 4095 4095
0 4095 4095
0 4095 4095
0 4095 4095
0 4095 4095
0 4095 0
0 4095 0
0 4095 0
0 4095 0
0 4095 0
0 4095 405
0 4095 925
0 4095 1468
0 4095 2030
0 4095 2530
0 4095 3028
0 4095 3517
0 4095 3994
0 4095 4095
0 4095 4095
0 4095 4095
0 4095 4095
0 4095 0
0 4095 0
0 4095 0
0 4095 0
0 4095 0
0 4095 364
0 4095 883
0 4095 1424
0 4095 1984
0 4095 2482
0 4095 2979
0 4095 3466
0 4095 3941
0 4095 4095
0 4095 4095
0 4095 4095
0 4095 4095
199 0 0
182 0 259
159 0 644
132 0 1083
103 0 1561
72 0 2070
40 0 2606
6 0 3164
0 0 3741
0 0 4095
0 0 4095
0 0 4095
0 0 4095
0 0 4095
0 0 4095
0 0 4095
0 0 4095
120 170 0
103 157 213
80 138 599
53 117 1038
24 94 1516
0 70 2025
0 44 2560
0 17 3117
0 0 3695
0 0 4095
0 0 4095
0 0 4095
0 0 4095
0 0 4095
0 0 4095
0 0 4095
0 0 4095
5 460 0
0 447 146
0 428 532
0 407 971
0 384 1448
0 360 1957
0 334 2492
0 307 3049
0 279 3627
0 254 4095
0 229 4095
0 204 4095
0 180 4095
0 157 4095
0 135 4095
0 114 4095
0 111 4095
0 799 0
0 786 67
0 767 453
0 746 891
0 723 1369
0 698 1877
0 672 2411
0 645 2968
0 617 3545
0 592 4058
0 567 4095
0 542 4095
0 518 4095
0 494 4095
0 472 4095
0 450 4095
0 450 4095
0 1174 0
0 1160 0
0 1142 363
0 1120 801
0 1097 1278
0 1072 1786
0 1046 2320
0 1018 2876
0 990 3452
0 965 3965
0 939 4095
0 914 4095
0 890 4095
0 866 4095
0 843 4095
0 822 4095
0 824 4095
0 1577 0
0 1563 0
0 1544 264
0 1523 701
0 1499 1177
0 1474 1685
0 1448 2218
0 1420 2773
0 1391 3349
0 1365 3860
0 1340 4095
0 1314 4095
0 1290 4095
0 1266 4095
0 1242 4095
0 1223 4095
0 1225 4095
0 2004 0
0 1990 0
0 1971 154
0 1949 591
0 1925 1066
0 1900 1572
0 1873 2104
0 1844 2659
0 1815 3233
0 1789 3744
0 1763 4095
0 1737 4095
0 1712 4095
0 1688 4095
0 1664 4095
0 1646 4095
0 1648 4095
0 2451 0
0 2436 0
0 2417 33
0 2395 469
0 2370 944
0 2345 1449
0 2317 1980
0 2289 2533
0 2259 3106
0 2232 3615
0 2206 4095
0 2180 4095
0 2154 4095
0 2129 4095
0 2105 4095
0 2089 4095
0 2090 4095
0 2914 0
0 2900 0
0 2880 0
0 2857 335
0 2832 808
0 2806 1312
0 2778 1842
0 2749 2394
0 2719 2965
0 2692 3473
0 2664 3980
0 2638 4095
0 2612 4095
0 2586 4095
0 2562 4095
0 2546 4095
0 2547 4095
0 3319 0
0 3305 0
0 3284 0
0 3261 211
0 3236 683
0 3209 1185
0 3181 1714
0 3151 2264
0 3120 2834
0 3093 3341
0 3065 3847
0 3038 4095
0 3012 4095
0 2986 4095
0 2961 4095
0 2946 4095
0 2946 4095
0 3720 0
0 3705 0
0 3684 0
0 3661 80
0 3635 551
0 3608 1053
0 3579 1579
0 3549 2128
0 3517 2697
0 3489 3202
0 3461 3707
0 3434 4095
0 3406 4095
0 3380 4095
0 3355 4095
0 3340 4095
0 3340 4095
0 4095 0
0 4093 0
0 4072 0
0 4048 0
0 4022 416
0 3994 916
0 3965 1442
0 3934 1989
0 3902 2556
0 3873 3060
0 3845 3564
0 3817 4057
0 3789 4095
0 3762 4095
0 3736 4095
0 3721 4095
0 3720 4095
0 4095 0
0 4095 0
0 4095 0
0 4095 0
0 4095 279
0 4095 778
0 4095 1302
0 4095 1848
0 4095 2413
0 4095 2916
0 4095 3418
0 4095 3910
0 4095 4095
0 4095 4095
0 4095 4095
0 4087 4095
0 4087 4095
0 4095 0
0 4095 0
0 4095 0
0 4095 0
0 4095 140
0 4095 638
0 4095 1161
0 4095 1706
0 4095 2269
0 4095 2771
0 4095 3272
0 4095 3762
0 4095 4095
0 4095 4095
0 4095 4095
0 4095 4095
0 4095 4095
0 4095 0
0 4095 0
0 4095 0
0 4095 0
0 4095 3
0 4095 499
0 4095 1021
0 4095 1565
0 4095 2127
0 4095 2628
0 4095 3127
0 4095 3617
0 4095 4094
0 4095 4095
0 4095 4095
0 4095 4095
0 4095 4095
0 4095 0
0 4095 0
0 4095 0
0 4095 0
0 4095 0
0 4095 367
0 4095 887
0 4095 1430
0 4095 1991
0 4095 2491
0 4095 2989
0 4095 3478
0 4095 3954
0 4095 4095
0 4095 4095
0 4095 4095
0 4095 4095
0 4095 0
0 4095 0
0 4095 0
0 4095 0
0 4095 0
0 4095 324
0 4095 843
0 4095 1384
0 4095 1944
0 4095 2441
0 4095 2938
0 4095 3425
0 4095 3900
0 4095 4095
0 4095 4095
0 4095 4095
0 4095 4095
508 0 0
491 0 226
468 0 612
441 0 1051
413 0 1529
382 0 2038
350 0 2573
316 0 3131
281 0 3708
250 0 4095
219 0 4095
189 0 4095
160 0 4095
131 0 4095
104 0 4095
78 0 4095
68 0 4095
430 126 0
413 112 181
390 94 566
363 72 1005
334 49 1483
304 25 1992
272 0 2526
238 0 3084
203 0 3662
172 0 4095
142 0 4095
111 0 4095
82 0 4095
53 0 4095
26 0 4095
0 0 4095
0 0 4095
315 416 0
299 402 113
275 384 499
249 362 937
220 339 1415
190 315 1923
158 289 2458
124 262 3015
89 233 3593
59 208 4095
28 183 4095
0 159 4095
0 135 4095
0 111 4095
0 89 4095
0 68 4095
0 66 4095
182 754 0
165 741 34
142 722 419
116 701 857
87 678 1334
57 653 1842
25 627 2377
0 599 2933
0 571 3510
0 546 4023
0 521 4095
0 496 4095
0 471 4095
0 448 4095
0 425 4095
0 404 4095
0 404 4095
35 1129 0
18 1115 0
0 1096 328
0 1075 766
0 1051 1243
0 1026 1750
0 1000 2284
0 972 2840
0 944 3416
0 918 3928
0 893 4095
0 868 4095
0 843 4095
0 819 4095
0 796 4095
0 775 4095
0 777 4095
0 1531 0
0 1517 0
0 1498 227
0 1477 665
0 1453 1141
0 1428 1648
0 1401 2180
0 1373 2736
0 1344 3310
0 1318 3822
0 1292 4095
0 1267 4095
0 1242 4095
0 1218 4095
0 1195 4095
0 1175 4095
0 1177 4095
0 1957 0
0 1943 0
0 1924 116
0 1902 553
0 1878 1028
0 1852 1534
0 1825 2065
0 1797 2619
0 1767 3193
0 1741 3704
0 1715 4095
0 1689 4095
0 1664 4095
0 1639 4095
0 1615 4095
0 1598 4095
0 1600 4095
0 2403 0
0 2389 0
0 2369 0
0 2347 429
0 2322 903
0 2296 1408
0 2269 1938
0 2240 2491
0 2210 3063
0 2183 3572
0 2157 4081
0 2130 4095
0 2105 4095
0 2079 4095
0 2055 4095
0 2039 4095
0 2041 4095
0 2865 0
0 2851 0
0 2831 0
0 2808 292
0 2783 765
0 2757 1269
0 2729 1798
0 2699 2349
0 2669 2920
0 2642 3428
0 2614 3934
0 2587 4095
0 2561 4095
0 2536 4095
0 2511 4095
0 2496 4095
0 2497 4095
0 3270 0
0 3255 0
0 3235 0
0 3211 166
0 3186 637
0 3159 1139
0 3131 1667
0 3101 2217
0 3070 2787
0 3042 3293
0 3014 3798
0 2987 4095
0 2960 4095
0 2934 4095
0 2909 4095
0 2894 4095
0 2894 4095
0 3669 0
0 3654 0
0 3634 0
0 3610 33
0 3584 503
0 3557 1004
0 3528 1531
0 3497 2079
0 3466 2647
0 3437 3152
0 3409 3656
0 3381 4095
0 3354 4095
0 3327 4095
0 3302 4095
0 3287 4095
0 3287 4095
0 4057 0
0 4041 0
0 4020 0
0 3996 0
0 3970 366
0 3942 866
0 3912 1391
0 3881 1938
0 3849 2504
0 3821 3008
0 3792 3511
0 3763 4003
0 3736 4095
0 3709 4095
0 3683 4095
0 3667 4095
0 3666 4095
0 4095 0
0 4095 0
0 4095 0
0 4095 0
0 4095 226
0 4095 725
0 4095 1248
0 4095 1794
0 4095 2359
0 4095 2861
0 4095 3363
0 4095 3854
0 4095 4095
0 4076 4095
0 4049 4095
0 4032 4095
0 4032 4095
0 4095 0
0 4095 0
0 4095 0
0 4095 0
0 4095 86
0 4095 583
0 4095 1105
0 4095 1649
0 4095 2213
0 4095 2714
0 4095 3214
0 4095 3704
0 4095 4095
0 4095 4095
0 4095 4095
0 4095 4095
0 4095 4095
0 4095 0
0 4095 0
0 4095 0
0 4095 0
0 4095 0
0 4095 442
0 4095 963
0 4095 1506
0 4095 2069
0 4095 2569
0 4095 3068
0 4095 3557
0 4095 4034
0 4095 4095
0 4095 4095
0 4095 4095
0 4095 4095
0 4095 0
0 4095 0
0 4095 0
0 4095 0
0 4095 0
0 4095 308
0 4095 828
0 4095 1370
0 4095 1931
0 4095 2430
0 4095 2928
0 4095 3416
0 4095 3892
0 4095 4095
0 4095 4095
0 4095 4095
0 4095 4095
0 4095 0
0 4095 0
0 4095 0
0 4095 0
0 4095 0
0 4095 262
0 4095 781
0 4095 1321
0 4095 1880
0 4095 2377
0 4095 2874
0 4095 3360
0 4095 3834
0 4095 4095
0 4095 4095
0 4095 4095
0 4095 4095
879 0 0
862 0 187
839 0 573
813 0 1012
785 0 1489
754 0 1998
722 0 2533
689 0 3091
654 0 3668
624 0 4095
593 0 4095
563 0 4095
534 0 4095
505 0 4095
478 0 4095
453 0 4095
445 0 4095
802 72 0
785 58 141
762 40 527
736 19 965
707 0 1443
677 0 1951
645 0 2486
611 0 3044
577 0 3621
546 0 4095
516 0 4095
486 0 4095
457 0 4095
428 0 4095
401 0 4095
376 0 4095
