public/luts/Fuji XTrans III - Pro Neg Hi.3dl
#Fujifilm Fuji XTrans III - Pro Neg Hi — analytically generated
0 256 512 767 1023
134 61 0
128 54 1013
121 47 2111
114 40 3197
107 33 4095
100 1065 0
93 1058 979
86 1051 2076
79 1044 3162
72 1037 4095
63 2140 0
56 2133 942
49 2126 2039
42 2119 3126
35 2112 4095
27 3197 0
20 3190 905
13 3183 2003
6 3176 3089
0 3169 4095
0 4095 0
0 4095 871
0 4095 1969
0 4095 3055
0 4095 4095
1135 43 0
1128 37 996
1121 30 2094
1114 23 3180
1107 16 4095
1100 1048 0
1093 1041 961
1086 1034 2059
1079 1027 3145
1073 1020 4095
1063 2123 0
1057 2116 924
1049 2109 2022
1042 2102 3108
1036 2095 4095
1027 3180 0
1020 3173 888
1013 3166 1986
1006 3159 3072
999 3152 4095
993 4095 0
986 4095 854
979 4095 1952
972 4095 3038
965 4095 4084
2249 24 0
2242 18 977
2235 10 2074
2228 3 3161
2221 0 4095
2214 1028 0
2208 1022 942
2201 1015 2040
2194 1008 3126
2187 1001 4095
2177 2104 0
2171 2097 905
2164 2090 2003
2157 2083 3089
2150 2076 4095
2141 3160 0
2134 3154 869
2127 3147 1967
2120 3140 3053
2113 3133 4095
2107 4095 0
2100 4095 835
2093 4095 1932
2086 4095 3019
2079 4095 4065
3338 5 0
3331 0 958
3324 0 2056
3317 0 3142
3310 0 4095
3303 1010 0
3297 1003 924
3289 996 2021
3282 989 3107
3276 982 4095
3266 2085 0
3260 2078 887
3253 2071 1984
3245 2064 3070
3239 2057 4095
3230 3142 0
3223 3135 850
3216 3128 1948
3209 3121 3034
3202 3114 4081
3196 4095 0
3189 4095 816
3182 4095 1914
3175 4095 3000
3168 4095 4046
4095 0 0
4095 0 942
4095 0 2040
4095 0 3126
4095 0 4095
4095 994 0
4095 987 908
4095 980 2005
4095 973 3091
4095 966 4095
4095 2069 0
4095 2062 871
4095 2055 1968
4095 2048 3054
4095 2041 4095
4095 3126 0
4095 3119 834
4095 3112 1932
4095 3105 3018
4095 3098 4065
4095 4095 0
4095 4095 800
4095 4095 1898
4095 4095 2984
4095 4095 4030
