public/luts/Fuji XTrans III - Pro Neg Hi.3dl
#Fujifilm Fuji XTrans III - Pro Neg Hi — analytically generated
0 64 128 192 256 320 384 448 512 575 639 703 767 831 895 959 1023
134 61 0
133 59 220
131 57 479
130 56 744
128 54 1013
126 52 1285
124 50 1558
122 49 1834
121 47 2111
119 45 2381
117 43 2655
115 42 2927
114 40 3197
112 38 3465
110 36 3731
108 35 3993
107 33 4095
126 295 0
125 293 212
123 292 471
121 290 736
120 288 1005
118 286 1277
116 285 1550
114 283 1826
113 281 2103
111 279 2373
109 278 2647
107 276 2919
106 274 3189
104 272 3457
102 271 3723
100 269 3984
99 267 4095
118 546 0
116 544 203
115 542 463
113 541 728
111 539 997
109 537 1268
108 535 1542
106 534 1817
104 532 2094
102 530 2364
100 528 2638
99 527 2910
97 525 3180
95 523 3449
93 521 3714
92 520 3976
90 518 4095
109 803 0
107 802 194
106 800 454
104 798 719
102 796 988
100 795 1259
99 793 1533
97 791 1808
95 789 2085
93 788 2356
92 786 2629
90 784 2901
88 782 3171
86 781 3440
85 779 3705
83 777 3967
81 775 4095
100 1065 0
98 1063 185
97 1062 445
95 1060 710
93 1058 979
92 1057 1250
90 1055 1524
88 1053 1799
86 1051 2076
84 1049 2347
83 1048 2620
81 1046 2892
79 1044 3162
77 1042 3431
76 1041 3696
74 1039 3958
72 1037 4095
91 1330 0
89 1329 176
88 1327 436
86 1325 701
84 1323 970
82 1322 1241
81 1320 1515
79 1318 1790
77 1316 2067
75 1315 2338
73 1313 2611
72 1311 2883
70 1309 3153
68 1307 3422
66 1306 3687
65 1304 3949
63 1302 4095
82 1598 0
80 1596 167
78 1595 427
77 1593 692
75 1591 960
73 1589 1232
71 1588 1505
70 1586 1781
68 1584 2058
66 1582 2328
64 1581 2602
63 1579 2874
61 1577 3144
59 1575 3413
57 1574 3678
56 1572 3940
54 1570 4095
72 1868 0
71 1866 158
69 1865 417
67 1863 682
66 1861 951
64 1860 1223
62 1858 1496
60 1856 1772
59 1854 2049
57 1852 2319
55 1851 2592
53 1849 2864
51 1847 3135
50 1845 3403
48 1844 3669
46 1842 3930
45 1840 4095
63 2140 0
61 2138 148
60 2137 408
58 2135 673
56 2133 942
55 2132 1213
53 2130 1487
51 2128 1762
49 2126 2039
47 2124 2310
46 2123 2583
44 2121 2855
42 2119 3126
40 2117 3394
39 2116 3660
37 2114 3921
35 2112 4095
54 2403 0
52 2401 139
51 2400 399
49 2398 664
47 2396 933
46 2395 1204
44 2393 1478
42 2391 1753
40 2389 2030
38 2387 2301
37 2386 2574
35 2384 2846
33 2382 3117
31 2380 3385
30 2379 3651
28 2377 3912
26 2375 4095
45 2669 0
43 2668 130
42 2666 390
40 2664 655
38 2662 924
36 2661 1195
35 2659 1469
33 2657 1744
31 2655 2021
29 2654 2291
27 2652 2565
26 2650 2837
24 2648 3107
22 2646 3376
20 2645 3641
19 2643 3903
17 2641 4095
36 2934 0
34 2932 121
33 2931 381
31 2929 646
29 2927 914
27 2925 1186
25 2924 1460
24 2922 1735
22 2920 2012
20 2918 2282
18 2916 2556
17 2915 2828
15 2913 3098
13 2911 3367
11 2909 3632
10 2908 3894
8 2906 4095
27 3197 0
25 3195 112
23 3194 372
22 3192 637
20 3190 905
18 3188 1177
16 3187 1451
15 3185 1726
13 3183 2003
11 3181 2273
9 3180 2547
8 3178 2819
6 3176 3089
4 3174 3358
2 3173 3623
1 3171 3885
0 3169 4095
18 3458 0
16 3457 103
14 3455 363
13 3453 628
11 3451 896
9 3450 1168
7 3448 1442
6 3446 1717
4 3444 1994
2 3442 2264
0 3441 2538
0 3439 2810
0 3437 3080
0 3435 3349
0 3434 3614
0 3432 3876
0 3430 4095
9 3716 0
7 3715 94
6 3713 354
4 3712 619
2 3710 888
0 3708 1159
0 3706 1433
0 3705 1708
0 3703 1985
0 3701 2256
0 3699 2529
0 3697 2801
0 3696 3071
0 3694 3340
0 3692 3605
0 3690 3867
0 3689 4095
0 3971 0
0 3969 85
0 3968 345
0 3966 610
0 3964 879
0 3963 1150
0 3961 1424
0 3959 1699
0 3957 1976
0 3955 2247
0 3954 2520
0 3952 2792
0 3950 3063
0 3948 3331
0 3947 3597
0 3945 3858
0 3943 4095
0 4095 0
0 4095 78
0 4095 337
0 4095 602
0 4095 871
0 4095 1143
0 4095 1416
0 4095 1692
0 4095 1969
0 4095 2239
0 4095 2512
0 4095 2785
0 4095 3055
0 4095 3323
0 4095 3589
0 4095 3850
0 4095 4095
358 57 0
357 55 216
355 54 475
353 52 741
352 50 1009
350 48 1281
348 47 1554
346 45 1830
344 43 2107
343 41 2377
341 39 2651
339 38 2923
337 36 3193
336 34 3462
334 32 3727
332 31 3989
331 29 4095
350 291 0
349 290 208
347 288 467
345 286 733
344 284 1001
342 283 1273
340 281 1546
338 279 1822
336 277 2099
335 276 2369
333 274 2643
331 272 2915
329 270 3185
328 268 3453
326 267 3719
324 265 3981
323 263 4095
342 542 0
340 540 199
338 539 459
337 537 724
335 535 993
333 533 1264
331 532 1538
330 530 1813
328 528 2090
326 526 2361
324 525 2634
322 523 2906
321 521 3176
319 519 3445
317 518 3710
316 516 3972
314 514 4095
333 799 0
331 798 190
330 796 450
328 794 715
326 793 984
324 791 1255
323 789 1529
321 787 1804
319 785 2081
317 784 2352
315 782 2625
314 780 2897
312 778 3168
310 777 3436
308 775 3702
307 773 3963
305 772 4095
324 1061 0
322 1060 181
321 1058 441
319 1056 706
317 1054 975
315 1053 1246
314 1051 1520
312 1049 1795
310 1047 2072
308 1046 2343
306 1044 2616
305 1042 2888
303 1040 3159
301 1038 3427
299 1037 3693
298 1035 3954
296 1033 4095
315 1326 0
313 1325 172
311 1323 432
310 1321 697
308 1320 966
306 1318 1237
304 1316 1511
303 1314 1786
301 1312 2063
299 1311 2334
297 1309 2607
296 1307 2879
294 1305 3150
292 1304 3418
290 1302 3684
289 1300 3945
287 1299 4095
305 1594 0
304 1593 163
302 1591 423
300 1589 688
299 1587 956
297 1586 1228
295 1584 1502
293 1582 1777
292 1580 2054
290 1579 2324
288 1577 2598
286 1575 2870
285 1573 3140
283 1571 3409
281 1570 3674
279 1568 3936
278 1566 4095
296 1864 0
295 1863 154
293 1861 413
291 1859 678
289 1857 947
288 1856 1219
286 1854 1492
284 1852 1768
282 1850 2045
281 1849 2315
279 1847 2589
277 1845 2861
275 1843 3131
274 1842 3399
272 1840 3665
270 1838 3927
268 1837 4095
287 2136 0
285 2135 144
284 2133 404
282 2131 669
280 2129 938
278 2128 1209
277 2126 1483
275 2124 1758
273 2122 2036
271 2121 2306
269 2119 2579
268 2117 2851
266 2115 3122
264 2114 3390
262 2112 3656
261 2110 3917
259 2108 4095
278 2399 0
276 2398 135
275 2396 395
273 2394 660
271 2392 929
269 2391 1200
268 2389 1474
266 2387 1749
264 2385 2026
262 2384 2297
260 2382 2570
259 2380 2842
257 2378 3113
255 2377 3381
253 2375 3647
252 2373 3908
250 2372 4095
269 2665 0
267 2664 126
265 2662 386
264 2660 651
262 2659 920
260 2657 1191
258 2655 1465
257 2653 1740
255 2651 2017
253 2650 2288
251 2648 2561
250 2646 2833
248 2644 3104
246 2643 3372
244 2641 3638
243 2639 3899
241 2638 4095
259 2930 0
258 2928 117
256 2927 377
255 2925 642
253 2923 911
251 2921 1182
249 2920 1456
248 2918 1731
246 2916 2008
244 2914 2279
242 2913 2552
240 2911 2824
239 2909 3094
237 2907 3363
235 2906 3628
233 2904 3890
232 2902 4095
250 3193 0
249 3192 108
247 3190 368
246 3188 633
244 3186 902
242 3185 1173
240 3183 1447
238 3181 1722
237 3179 1999
235 3177 2270
233 3176 2543
231 3174 2815
230 3172 3085
228 3170 3354
226 3169 3619
224 3167 3881
223 3165 4095
241 3454 0
240 3453 99
238 3451 359
237 3449 624
235 3447 893
233 3446 1164
231 3444 1438
229 3442 1713
228 3440 1990
226 3439 2261
224 3437 2534
222 3435 2806
221 3433 3076
219 3432 3345
217 3430 3610
215 3428 3872
214 3427 4095
233 3713 0
231 3711 90
229 3709 350
228 3708 615
226 3706 884
224 3704 1155
222 3702 1429
221 3701 1704
219 3699 1981
217 3697 2252
215 3695 2525
214 3694 2797
212 3692 3068
210 3690 3336
208 3688 3602
207 3687 3863
205 3685 4095
224 3967 0
222 3966 81
221 3964 341
219 3962 606
217 3960 875
215 3959 1146
214 3957 1420
212 3955 1696
210 3953 1973
208 3952 2243
207 3950 2516
205 3948 2788
203 3946 3059
201 3945 3327
200 3943 3593
198 3941 3854
196 3939 4095
216 4095 0
215 4095 74
213 4095 333
211 4095 599
210 4095 867
208 4095 1139
206 4095 1412
204 4095 1688
202 4095 1965
201 4095 2235
199 4095 2509
197 4095 2781
195 4095 3051
194 4095 3319
192 4095 3585
190 4095 3847
189 4095 4095
608 52 0
606 51 212
604 49 471
603 48 736
601 46 1005
599 44 1276
597 42 1550
596 41 1826
594 39 2103
592 37 2373
590 35 2646
588 33 2918
587 32 3189
585 30 3457
583 28 3723
582 26 3984
580 25 4095
599 287 0
598 285 204
596 284 463
595 282 728
593 280 997
591 278 1268
589 277 1542
588 275 1818
586 273 2095
584 271 2365
582 269 2638
580 268 2910
579 266 3181
577 264 3449
575 262 3715
574 261 3976
572 259 4095
591 537 0
589 536 195
588 534 455
586 533 720
584 531 988
582 529 1260
581 527 1533
579 526 1809
577 524 2086
575 522 2356
574 520 2630
572 518 2902
570 517 3172
568 515 3441
567 513 3706
565 512 3968
563 510 4095
582 795 0
581 793 186
579 792 446
577 790 711
575 788 980
574 787 1251
572 785 1525
570 783 1800
568 781 2077
567 779 2347
565 778 2621
563 776 2893
561 774 3163
559 772 3432
558 771 3697
556 769 3959
554 767 4095
573 1057 0
572 1055 177
570 1054 437
568 1052 702
566 1050 971
565 1048 1242
563 1047 1516
561 1045 1791
559 1043 2068
558 1041 2338
556 1039 2612
554 1038 2884
552 1036 3154
550 1034 3423
549 1032 3688
547 1031 3950
545 1029 4095
564 1322 0
562 1320 168
561 1319 428
559 1317 693
557 1315 961
556 1314 1233
554 1312 1507
552 1310 1782
550 1308 2059
548 1306 2329
547 1305 2603
545 1303 2875
543 1301 3145
541 1299 3414
540 1298 3679
538 1296 3941
536 1294 4095
555 1590 0
553 1588 159
552 1587 418
550 1585 683
548 1583 952
546 1581 1224
545 1580 1497
543 1578 1773
541 1576 2050
539 1574 2320
537 1572 2594
536 1571 2866
534 1569 3136
532 1567 3404
530 1565 3670
529 1564 3932
527 1562 4095
545 1860 0
544 1858 149
542 1857 409
541 1855 674
539 1853 943
537 1851 1214
535 1850 1488
533 1848 1764
532 1846 2041
530 1844 2311
528 1843 2584
526 1841 2856
525 1839 3127
523 1837 3395
521 1836 3661
519 1834 3922
518 1832 4095
536 2132 0
535 2130 140
533 2129 400
531 2127 665
529 2125 934
528 2123 1205
526 2122 1479
524 2120 1754
522 2118 2031
521 2116 2302
519 2115 2575
517 2113 2847
515 2111 3117
514 2109 3386
512 2108 3651
510 2106 3913
508 2104 4095
527 2395 0
526 2393 131
524 2392 391
522 2390 656
520 2388 925
519 2386 1196
517 2385 1470
515 2383 1745
513 2381 2022
512 2379 2292
510 2378 2566
508 2376 2838
506 2374 3108
504 2372 3377
503 2371 3642
501 2369 3904
499 2367 4095
518 2661 0
516 2659 122
515 2658 382
513 2656 647
511 2654 915
510 2652 1187
508 2651 1461
506 2649 1736
504 2647 2013
502 2645 2283
501 2644 2557
499 2642 2829
497 2640 3099
495 2638 3368
494 2637 3633
492 2635 3895
490 2633 4095
509 2926 0
507 2924 113
506 2922 372
504 2921 638
502 2919 906
500 2917 1178
499 2915 1451
497 2914 1727
495 2912 2004
493 2910 2274
492 2908 2548
490 2907 2820
488 2905 3090
486 2903 3358
485 2901 3624
483 2900 3886
481 2898 4095
500 3189 0
498 3187 104
497 3186 363
495 3184 629
493 3182 897
491 3180 1169
490 3179 1442
488 3177 1718
486 3175 1995
484 3173 2265
482 3171 2539
481 3170 2811
479 3168 3081
477 3166 3349
475 3164 3615
474 3163 3877
472 3161 4095
491 3450 0
489 3448 95
488 3447 354
486 3445 620
484 3443 888
482 3441 1160
481 3440 1433
479 3438 1709
477 3436 1986
475 3434 2256
473 3433 2530
472 3431 2802
470 3429 3072
468 3427 3340
467 3426 3606
465 3424 3868
463 3422 4095
482 3708 0
480 3707 86
479 3705 346
477 3703 611
475 3702 879
474 3700 1151
472 3698 1425
470 3696 1700
468 3695 1977
466 3693 2247
465 3691 2521
463 3689 2793
461 3688 3063
459 3686 3332
458 3684 3597
456 3682 3859
454 3681 4095
473 3963 0
472 3961 77
470 3960 337
468 3958 602
467 3956 871
465 3954 1142
463 3953 1416
461 3951 1691
459 3949 1968
458 3947 2239
456 3945 2512
454 3944 2784
452 3942 3054
451 3940 3323
449 3938 3588
447 3937 3850
446 3935 4095
465 4095 0
464 4095 70
462 4095 329
461 4095 594
459 4095 863
457 4095 1134
455 4095 1408
454 4095 1684
452 4095 1961
450 4095 2231
448 4095 2504
446 4095 2776
445 4095 3047
443 4095 3315
441 4095 3581
440 4095 3842
438 4095 4093
867 48 0
866 47 207
864 45 467
863 43 732
861 41 1001
859 40 1272
857 38 1546
856 36 1821
854 34 2098
852 32 2369
850 31 2642
848 29 2914
847 27 3184
845 25 3453
843 24 3718
842 22 3980
840 20 4095
859 282 0
858 281 199
856 279 459
855 277 724
853 276 993
851 274 1264
849 272 1538
847 270 1813
846 268 2090
844 267 2360
842 265 2634
840 263 2906
839 261 3176
837 260 3445
835 258 3710
833 256 3972
