public/luts/Fuji XTrans III - Sepia.3dl
#Fujifilm Fuji XTrans III - Sepia — analytically generated
0 128 256 384 512 639 767 895 1023
164 110 15
215 153 46
270 200 80
327 249 116
385 299 151
443 349 188
503 400 225
563 451 262
624 503 299
453 357 193
513 408 230
573 459 268
634 511 305
695 564 343
757 616 381
819 669 420
881 723 458
944 776 497
766 625 387
828 678 426
891 731 464
954 785 503
1017 839 542
1080 893 581
1143 947 620
1207 1001 660
1271 1056 699
1090 901 587
1153 955 627
1217 1010 666
1281 1065 706
1346 1120 745
1410 1175 785
1475 1230 825
1539 1285 865
1605 1341 905
1420 1183 791
1485 1239 831
1550 1294 871
1615 1350 912
1680 1405 952
1745 1461 992
1810 1517 1033
1876 1573 1073
1942 1629 1114
1753 1467 997
1818 1523 1037
1884 1580 1078
1950 1636 1119
2016 1692 1160
2081 1748 1200
2148 1805 1241
2214 1862 1282
2281 1919 1323
2092 1757 1207
2158 1814 1248
2225 1871 1289
2291 1928 1330
2358 1985 1371
2422 2039 1411
2486 2094 1450
2550 2149 1490
2614 2204 1530
2432 2048 1417
2496 2103 1457
2560 2158 1496
2624 2212 1536
2688 2267 1575
2752 2321 1615
2816 2376 1654
2880 2431 1694
2944 2485 1733
2762 2330 1621
2826 2385 1660
2890 2439 1700
2954 2494 1739
3018 2548 1779
3081 2602 1818
3145 2657 1857
3208 2711 1897
3272 2766 1936
305 231 102
363 280 138
422 330 174
481 381 211
541 432 248
601 484 285
662 536 323
724 588 361
786 641 399
611 492 291
672 544 329
734 597 367
796 650 405
858 703 444
920 756 482
983 810 521
1046 864 560
1110 918 600
930 765 488
993 818 527
1056 873 567
1120 927 606
1184 981 645
1247 1036 684
1311 1090 724
1376 1145 764
1440 1201 804
1257 1044 691
1322 1099 730
1386 1154 770
1451 1209 810
1515 1265 850
1580 1320 890
1645 1376 930
1710 1431 971
1776 1487 1011
1590 1329 896
1655 1384 937
1721 1440 977
1786 1496 1018
1852 1552 1058
1917 1608 1099
1983 1664 1139
2049 1721 1180
2115 1778 1221
1925 1615 1103
1991 1671 1144
2057 1728 1185
2123 1784 1226
2190 1841 1267
2256 1897 1308
2322 1954 1349
2388 2011 1390
2452 2065 1429
2266 1906 1314
2333 1963 1355
2398 2019 1396
2462 2074 1436
2527 2129 1475
2590 2183 1515
2654 2238 1554
2718 2293 1594
2782 2347 1633
2600 2192 1521
2664 2247 1561
2728 2301 1600
2792 2356 1640
2856 2411 1679
2920 2465 1718
2983 2519 1758
3047 2574 1797
3111 2628 1837
2930 2473 1725
2994 2528 1764
3057 2582 1803
3121 2637 1843
3185 2691 1882
3248 2745 1921
3311 2799 1961
3375 2854 2000
3438 2908 2039
459 362 197
518 413 234
579 464 271
640 517 309
701 569 347
763 621 385
825 675 423
887 728 462
950 782 501
772 630 391
835 683 429
897 736 468
960 790 507
1023 844 546
1086 898 585
1150 952 624
1213 1007 664
1278 1062 703
1096 906 591
1160 961 630
1224 1015 670
1288 1070 710
1352 1125 749
1416 1180 789
1481 1235 829
1546 1291 869
1611 1346 909
1426 1189 795
1491 1244 835
1556 1299 875
1621 1355 916
1686 1411 956
1751 1466 996
1817 1522 1037
1883 1578 1077
1948 1635 1118
1762 1475 1002
1827 1531 1043
1893 1587 1084
1959 1644 1124
2025 1700 1165
2090 1756 1206
2157 1813 1247
2223 1870 1288
2290 1926 1329
2098 1763 1211
2164 1819 1252
2231 1876 1293
2297 1933 1334
2364 1990 1375
2428 2045 1415
2492 2100 1454
2556 2154 1494
2621 2209 1533
2438 2053 1421
2502 2108 1460
2567 2163 1500
2631 2218 1540
2695 2272 1579
2758 2327 1619
2822 2381 1658
2886 2436 1698
2950 2491 1737
2768 2335 1625
2832 2390 1664
2896 2445 1704
2960 2499 1743
3024 2554 1783
3087 2608 1822
3151 2662 1861
3214 2717 1901
3278 2771 1940
3097 2616 1828
3161 2671 1867
3224 2725 1907
3288 2779 1946
3351 2834 1985
3414 2888 2024
3478 2942 2063
3541 2996 2103
3604 3050 2142
617 497 295
678 549 333
740 602 371
802 655 409
864 708 448
926 761 486
989 815 525
1053 869 564
1116 924 603
936 770 492
999 824 531
1063 878 570
1126 932 610
1190 987 649
1253 1041 688
1318 1096 728
1382 1151 768
1447 1206 808
1263 1049 695
1328 1104 734
1392 1159 774
1457 1215 814
1522 1270 854
1586 1325 894
1651 1381 934
1717 1437 975
1782 1493 1015
1596 1334 900
1662 1390 941
1727 1446 981
1793 1502 1022
1858 1558 1062
1924 1614 1103
1990 1670 1143
2056 1726 1184
2122 1783 1225
1934 1622 1109
2000 1679 1150
2066 1735 1191
2132 1792 1232
2199 1849 1273
2265 1905 1313
2331 1962 1355
2397 2018 1395
2461 2073 1435
2272 1912 1318
2339 1969 1359
2404 2024 1400
2469 2079 1440
2533 2134 1479
2596 2188 1519
2660 2243 1558
2724 2298 1598
2788 2353 1637
2606 2197 1525
2670 2252 1564
2735 2307 1604
2798 2361 1643
2862 2416 1683
2926 2470 1722
2990 2525 1762
3053 2579 1801
3117 2634 1840
2936 2479 1728
3000 2533 1768
3063 2588 1807
3127 2642 1847
3191 2696 1886
3254 2750 1925
3318 2805 1964
3381 2859 2004
3444 2913 2043
3264 2759 1931
3327 2813 1970
3391 2868 2010
3454 2922 2049
3518 2976 2088
3581 3029 2127
3644 3083 2166
3707 3137 2205
3770 3191 2244
778 635 395
841 688 433
903 742 472
966 795 511
1029 849 550
1092 903 589
1156 957 628
1220 1012 667
1284 1067 707
1102 912 595
1166 966 634
1230 1021 674
1294 1075 713
1358 1130 753
1422 1185 793
1487 1241 833
1552 1296 873
1617 1352 913
1432 1194 799
1497 1249 839
1562 1305 879
1627 1360 919
1693 1416 960
1758 1472 1000
1823 1528 1041
1889 1584 1081
1955 1640 1122
1768 1480 1006
1833 1537 1047
1899 1593 1088
1965 1649 1128
2031 1706 1169
2097 1762 1210
2163 1818 1251
2230 1875 1292
2296 1932 1333
2107 1771 1216
2174 1827 1257
2240 1884 1298
2307 1941 1339
2373 1998 1381
2437 2052 1420
2501 2107 1460
2565 2162 1499
2629 2217 1539
2444 2059 1425
2509 2113 1464
2573 2168 1504
2637 2223 1543
2701 2278 1583
2764 2332 1622
2828 2387 1662
2892 2441 1701
2956 2496 1741
2774 2341 1629
2838 2395 1668
2902 2450 1708
2966 2504 1747
3030 2559 1786
3093 2613 1826
3157 2667 1865
3220 2722 1904
3284 2776 1944
3103 2622 1832
3167 2676 1871
3230 2730 1910
3294 2785 1950
3358 2839 1989
3421 2893 2028
3484 2947 2067
3547 3001 2106
3610 3055 2145
3430 2901 2034
3494 2955 2073
3557 3010 2112
3620 3064 2152
3684 3117 2191
3746 3171 2229
3809 3225 2268
3872 3278 2307
3935 3332 2346
941 774 495
1004 828 534
1067 882 573
1131 936 613
1195 991 652
1258 1045 691
1323 1100 731
1387 1155 771
1452 1210 811
1268 1054 698
1333 1109 737
1397 1164 777
1462 1219 817
1527 1274 857
1591 1329 897
1656 1385 937
1722 1441 978
1787 1497 1018
1601 1338 903
1667 1394 944
1732 1450 984
1798 1506 1025
1863 1562 1065
1929 1618 1106
1995 1674 1146
2061 1731 1187
2127 1787 1228
1939 1627 1112
2005 1683 1153
2071 1740 1194
2137 1796 1235
2204 1853 1276
2270 1909 1317
2336 1966 1358
2402 2022 1398
2466 2077 1438
2280 1918 1323
2347 1975 1364
2412 2031 1404
2476 2086 1444
2540 2140 1484
2604 2195 1523
2668 2250 1563
2732 2304 1602
2796 2359 1642
2611 2201 1528
2675 2256 1567
2739 2311 1607
2803 2365 1646
2867 2420 1686
2931 2474 1725
2994 2529 1765
3058 2583 1804
3122 2638 1843
2941 2483 1731
3005 2537 1771
3068 2592 1810
3132 2646 1850
3196 2701 1889
3259 2755 1928
3322 2809 1967
3386 2863 2007
3449 2917 2046
3269 2763 1934
3332 2817 1973
3396 2872 2013
3459 2926 2052
3523 2980 2091
3585 3034 2130
3648 3088 2169
3712 3142 2208
3775 3195 2247
3595 3042 2136
3658 3096 2175
3721 3150 2214
3784 3204 2253
3847 3258 2292
3910 3311 2330
3972 3364 2369
4035 3418 2408
4095 3471 2446
1107 916 598
1171 970 637
1235 1025 677
1299 1080 716
1363 1135 756
1427 1189 796
1492 1245 836
1557 1300 876
1622 1356 916
1437 1198 802
1502 1253 842
1567 1309 882
1632 1365 923
1698 1420 963
1763 1476 1003
1828 1532 1044
1894 1588 1084
1960 1645 1125
1773 1485 1009
1838 1541 1050
1904 1597 1091
1970 1653 1131
2036 1710 1172
2102 1766 1213
2168 1823 1254
2235 1879 1295
2301 1936 1336
2112 1775 1219
2179 1832 1260
2245 1888 1301
2312 1945 1343
2378 2002 1384
2442 2056 1423
2506 2111 1463
2570 2166 1502
2634 2221 1542
2452 2065 1429
2516 2120 1469
2580 2175 1508
2644 2229 1548
2708 2284 1588
2772 2338 1627
2836 2393 1666
2900 2448 1706
2963 2502 1745
2779 2345 1632
2843 2399 1671
2907 2454 1711
2971 2509 1750
3035 2563 1789
3098 2617 1829
3162 2672 1868
3225 2726 1907
3289 2780 1947
3108 2626 1835
3172 2680 1874
3235 2734 1913
3299 2789 1953
3362 2843 1992
3425 2897 2031
3489 2951 2070
3552 3005 2109
3615 3059 2148
3435 2905 2037
3499 2960 2076
3562 3014 2115
3625 3068 2154
3688 3122 2194
3751 3175 2232
3814 3229 2271
3877 3283 2310
3939 3336 2349
3761 3183 2238
3824 3237 2277
3887 3291 2316
3949 3345 2355
4012 3398 2394
4074 3451 2432
4095 3504 2470
4095 3557 2509
4095 3610 2547
1275 1059 701
1339 1114 741
1403 1169 781
1468 1224 821
1533 1280 861
1597 1335 901
1663 1391 941
1728 1446 982
1794 1502 1022
1608 1344 907
1673 1399 948
1738 1455 988
1804 1511 1029
1870 1567 1069
1935 1623 1110
2001 1680 1150
2067 1736 1191
2133 1793 1232
1945 1632 1116
2011 1688 1157
2077 1745 1198
2144 1802 1239
2210 1858 1280
2276 1915 1321
2343 1972 1362
2408 2028 1402
2472 2082 1442
2287 1924 1327
2353 1981 1368
2418 2036 1408
2482 2091 1448
2546 2146 1488
2610 2200 1527
2674 2255 1567
2738 2310 1606
2802 2364 1646
2620 2209 1533
2684 2263 1573
2748 2318 1612
2812 2373 1652
2876 2427 1691
2939 2482 1731
3003 2536 1770
3067 2591 1809
3131 2645 1849
2947 2488 1735
3011 2543 1775
3074 2597 1814
3138 2651 1853
3202 2706 1893
3265 2760 1932
3328 2814 1971
3392 2868 2010
3455 2923 2050
3275 2768 1938
3338 2823 1977
3402 2877 2016
3465 2931 2056
3529 2985 2095
3591 3039 2134
3655 3093 2173
3718 3147 2212
3781 3201 2251
3601 3047 2140
3664 3101 2179
3728 3155 2218
3791 3209 2257
3853 3263 2296
3916 3316 2334
3978 3370 2373
4041 3423 2412
4095 3476 2450
3926 3324 2340
3988 3378 2379
4051 3431 2418
4095 3485 2456
4095 3538 2495
4095 3590 2533
4095 3643 2571
4095 3696 2609
4095 3748 2647
1444 1203 806
1508 1259 846
1573 1314 886
1639 1370 926
1704 1426 967
1769 1481 1007
1834 1537 1048
1900 1594 1088
1966 1650 1129
1779 1490 1013
1845 1546 1054
1911 1602 1095
1977 1659 1135
2043 1715 1176
2108 1771 1217
2175 1828 1258
2241 1885 1299
2308 1942 1340
2119 1780 1223
2185 1837 1264
2252 1894 1305
2318 1951 1346
2384 2007 1387
2448 2062 1427
2512 2117 1466
2576 2171 1506
2640 2226 1546
2458 2070 1433
2522 2125 1473
2586 2180 1512
2650 2235 1552
2714 2289 1592
2778 2344 1631
2842 2398 1670
2906 2453 1710
2970 2507 1749
2788 2352 1637
2852 2407 1676
2916 2461 1716
2980 2516 1755
3043 2571 1795
3107 2625 1834
3170 2679 1873
3234 2733 1913
3298 2788 1952
3114 2631 1839
3178 2685 1878
3241 2740 1917
3305 2794 1957
3369 2848 1996
3431 2902 2035
3495 2956 2074
3558 3010 2113
3621 3064 2152
3441 2911 2041
3505 2965 2080
3568 3019 2119
3631 3073 2158
3694 3127 2197
3757 3180 2236
3820 3234 2275
3883 3288 2314
3945 3341 2352
3767 3189 2242
3830 3242 2281
3893 3296 2320
3955 3350 2359
4018 3403 2397
4080 3456 2436
4095 3509 2474
4095 3563 2512
4095 3615 2551
4090 3465 2442
4095 3518 2480
4095 3571 2519
4095 3624 2557
4095 3676 2595
4095 3728 2632
4095 3780 2670
4095 3832 2707
4095 3882 2744
