public/luts/Fuji XTrans III - Mono.3dl
#Fujifilm Fuji XTrans III - Mono — analytically generated
0 256 512 767 1023
0 0 0
83 83 83
180 180 180
283 283 283
391 391 391
519 519 519
634 634 634
750 750 750
868 868 868
988 988 988
1129 1129 1129
1252 1252 1252
1377 1377 1377
1502 1502 1502
1630 1630 1630
1775 1775 1775
1904 1904 1904
2034 2034 2034
2158 2158 2158
2282 2282 2282
2423 2423 2423
2545 2545 2545
2667 2667 2667
2787 2787 2787
2908 2908 2908
244 244 244
350 350 350
460 460 460
573 573 573
688 688 688
824 824 824
943 943 943
1064 1064 1064
1187 1187 1187
1311 1311 1311
1455 1455 1455
1582 1582 1582
1710 1710 1710
1838 1838 1838
1968 1968 1968
2112 2112 2112
2236 2236 2236
2359 2359 2359
2481 2481 2481
2602 2602 2602
2742 2742 2742
2863 2863 2863
2983 2983 2983
3102 3102 3102
3220 3220 3220
530 530 530
645 645 645
761 761 761
879 879 879
1000 1000 1000
1141 1141 1141
1264 1264 1264
1389 1389 1389
1515 1515 1515
1642 1642 1642
1790 1790 1790
1919 1919 1919
2050 2050 2050
2173 2173 2173
2296 2296 2296
2435 2435 2435
2557 2557 2557
2679 2679 2679
2799 2799 2799
2919 2919 2919
3057 3057 3057
3176 3176 3176
3294 3294 3294
3410 3410 3410
3526 3526 3526
834 834 834
953 953 953
1075 1075 1075
1197 1197 1197
1321 1321 1321
1466 1466 1466
1593 1593 1593
1721 1721 1721
1849 1849 1849
1979 1979 1979
2125 2125 2125
2249 2249 2249
2372 2372 2372
2493 2493 2493
2615 2615 2615
2753 2753 2753
2873 2873 2873
2993 2993 2993
3112 3112 3112
3230 3230 3230
3366 3366 3366
3482 3482 3482
3597 3597 3597
3710 3710 3710
3822 3822 3822
1151 1151 1151
1275 1275 1275
1400 1400 1400
1526 1526 1526
1653 1653 1653
1801 1801 1801
1931 1931 1931
2060 2060 2060
2183 2183 2183
2307 2307 2307
2448 2448 2448
2570 2570 2570
2691 2691 2691
2812 2812 2812
2932 2932 2932
3068 3068 3068
3186 3186 3186
3304 3304 3304
3420 3420 3420
3536 3536 3536
3668 3668 3668
3780 3780 3780
3890 3890 3890
3997 3997 3997
4095 4095 4095
