public/luts/Fuji XTrans III - Acros.3dl
#Fujifilm Fuji XTrans III - Acros — analytically generated
0 64 128 192 256 320 384 448 512 575 639 703 767 831 895 959 1023
20 20 20
36 36 36
55 55 55
75 75 75
96 96 96
118 118 118
141 141 141
164 164 164
188 188 188
212 212 212
237 237 237
262 262 262
288 288 288
313 313 313
340 340 340
366 366 366
393 393 393
122 122 122
145 145 145
168 168 168
192 192 192
216 216 216
241 241 241
266 266 266
292 292 292
318 318 318
343 343 343
370 370 370
397 397 397
424 424 424
451 451 451
478 478 478
506 506 506
534 534 534
245 245 245
270 270 270
296 296 296
322 322 322
348 348 348
374 374 374
401 401 401
428 428 428
455 455 455
482 482 482
510 510 510
538 538 538
566 566 566
594 594 594
622 622 622
651 651 651
680 680 680
378 378 378
405 405 405
432 432 432
459 459 459
487 487 487
514 514 514
542 542 542
570 570 570
599 599 599
627 627 627
655 655 655
684 684 684
713 713 713
742 742 742
771 771 771
801 801 801
830 830 830
519 519 519
546 546 546
575 575 575
603 603 603
631 631 631
660 660 660
689 689 689
718 718 718
747 747 747
776 776 776
805 805 805
835 835 835
864 864 864
894 894 894
924 924 924
954 954 954
985 985 985
664 664 664
693 693 693
722 722 722
751 751 751
781 781 781
810 810 810
840 840 840
869 869 869
899 899 899
929 929 929
959 959 959
989 989 989
1020 1020 1020
1050 1050 1050
1081 1081 1081
1111 1111 1111
1142 1142 1142
814 814 814
844 844 844
874 874 874
904 904 904
934 934 934
964 964 964
994 994 994
1025 1025 1025
1055 1055 1055
1085 1085 1085
1116 1116 1116
1147 1147 1147
1178 1178 1178
1209 1209 1209
1240 1240 1240
1272 1272 1272
1303 1303 1303
968 968 968
999 999 999
1029 1029 1029
1060 1060 1060
1090 1090 1090
1121 1121 1121
1152 1152 1152
1183 1183 1183
1214 1214 1214
1245 1245 1245
1276 1276 1276
1308 1308 1308
1339 1339 1339
1371 1371 1371
1403 1403 1403
1434 1434 1434
1466 1466 1466
1126 1126 1126
1157 1157 1157
1188 1188 1188
1219 1219 1219
1250 1250 1250
1281 1281 1281
1313 1313 1313
1344 1344 1344
1376 1376 1376
1407 1407 1407
1439 1439 1439
1471 1471 1471
1503 1503 1503
1535 1535 1535
1567 1567 1567
1600 1600 1600
1632 1632 1632
1284 1284 1284
1315 1315 1315
1347 1347 1347
1378 1378 1378
1410 1410 1410
1442 1442 1442
1474 1474 1474
1506 1506 1506
1538 1538 1538
1570 1570 1570
1602 1602 1602
1634 1634 1634
1667 1667 1667
1699 1699 1699
1732 1732 1732
1765 1765 1765
1797 1797 1797
1447 1447 1447
1478 1478 1478
1511 1511 1511
1543 1543 1543
1575 1575 1575
1607 1607 1607
1640 1640 1640
1672 1672 1672
1705 1705 1705
1737 1737 1737
1769 1769 1769
1802 1802 1802
1835 1835 1835
1868 1868 1868
1901 1901 1901
1934 1934 1934
1967 1967 1967
1612 1612 1612
1644 1644 1644
1677 1677 1677
1709 1709 1709
1742 1742 1742
1775 1775 1775
1808 1808 1808
1841 1841 1841
1873 1873 1873
1906 1906 1906
1939 1939 1939
1972 1972 1972
2006 2006 2006
2039 2039 2039
2071 2071 2071
2103 2103 2103
2134 2134 2134
1780 1780 1780
1813 1813 1813
1845 1845 1845
1878 1878 1878
1911 1911 1911
1945 1945 1945
1978 1978 1978
2011 2011 2011
2044 2044 2044
2076 2076 2076
2107 2107 2107
2139 2139 2139
2170 2170 2170
2201 2201 2201
2232 2232 2232
2264 2264 2264
2295 2295 2295
1950 1950 1950
1983 1983 1983
2016 2016 2016
2049 2049 2049
2081 2081 2081
2113 2113 2113
2144 2144 2144
2175 2175 2175
2206 2206 2206
2237 2237 2237
2268 2268 2268
2299 2299 2299
2330 2330 2330
2362 2362 2362
2392 2392 2392
2423 2423 2423
2454 2454 2454
2117 2117 2117
2149 2149 2149
2180 2180 2180
2211 2211 2211
2242 2242 2242
2273 2273 2273
2305 2305 2305
2336 2336 2336
2367 2367 2367
2397 2397 2397
2428 2428 2428
2459 2459 2459
2490 2490 2490
2521 2521 2521
2551 2551 2551
2582 2582 2582
2613 2613 2613
2278 2278 2278
2309 2309 2309
2340 2340 2340
2371 2371 2371
2402 2402 2402
2433 2433 2433
2464 2464 2464
2495 2495 2495
2526 2526 2526
2556 2556 2556
2587 2587 2587
2617 2617 2617
2648 2648 2648
2679 2679 2679
2709 2709 2709
2740 2740 2740
2770 2770 2770
2438 2438 2438
2469 2469 2469
2499 2499 2499
2530 2530 2530
2561 2561 2561
2592 2592 2592
2622 2622 2622
2653 2653 2653
2684 2684 2684
2714 2714 2714
2744 2744 2744
2775 2775 2775
2805 2805 2805
2835 2835 2835
2865 2865 2865
2896 2896 2896
2926 2926 2926
67 67 67
88 88 88
110 110 110
132 132 132
156 156 156
179 179 179
203 203 203
228 228 228
253 253 253
278 278 278
304 304 304
330 330 330
356 356 356
383 383 383
409 409 409
436 436 436
464 464 464
183 183 183
207 207 207
232 232 232
257 257 257
282 282 282
308 308 308
334 334 334
360 360 360
387 387 387
413 413 413
440 440 440
468 468 468
495 495 495
523 523 523
551 551 551
579 579 579
607 607 607
312 312 312
338 338 338
364 364 364
391 391 391
418 418 418
445 445 445
472 472 472
500 500 500
528 528 528
555 555 555
583 583 583
612 612 612
640 640 640
669 669 669
698 698 698
727 727 727
756 756 756
449 449 449
476 476 476
504 504 504
532 532 532
560 560 560
588 588 588
616 616 616
645 645 645
674 674 674
702 702 702
731 731 731
760 760 760
790 790 790
819 819 819
849 849 849
879 879 879
908 908 908
592 592 592
621 621 621
649 649 649
678 678 678
707 707 707
736 736 736
765 765 765
794 794 794
824 824 824
853 853 853
883 883 883
913 913 913
943 943 943
973 973 973
1004 1004 1004
1034 1034 1034
1065 1065 1065
740 740 740
769 769 769
799 799 799
828 828 828
858 858 858
888 888 888
918 918 918
948 948 948
978 978 978
1008 1008 1008
1039 1039 1039
1069 1069 1069
1100 1100 1100
1131 1131 1131
1162 1162 1162
1193 1193 1193
1224 1224 1224
892 892 892
922 922 922
953 953 953
983 983 983
1013 1013 1013
1044 1044 1044
1074 1074 1074
1105 1105 1105
1136 1136 1136
1166 1166 1166
1197 1197 1197
1228 1228 1228
1260 1260 1260
1291 1291 1291
1323 1323 1323
1354 1354 1354
1386 1386 1386
1048 1048 1048
1079 1079 1079
1110 1110 1110
1140 1140 1140
1171 1171 1171
1202 1202 1202
1234 1234 1234
1265 1265 1265
1296 1296 1296
1327 1327 1327
1359 1359 1359
1391 1391 1391
1422 1422 1422
1454 1454 1454
1486 1486 1486
1518 1518 1518
1550 1550 1550
1207 1207 1207
1238 1238 1238
1270 1270 1270
1301 1301 1301
1332 1332 1332
1364 1364 1364
1396 1396 1396
1428 1428 1428
1459 1459 1459
1491 1491 1491
1523 1523 1523
1555 1555 1555
1587 1587 1587
1620 1620 1620
1652 1652 1652
1685 1685 1685
1717 1717 1717
1366 1366 1366
1398 1398 1398
1430 1430 1430
1462 1462 1462
1494 1494 1494
1526 1526 1526
1558 1558 1558
1590 1590 1590
1622 1622 1622
1654 1654 1654
1687 1687 1687
1720 1720 1720
1752 1752 1752
1785 1785 1785
1818 1818 1818
1851 1851 1851
1884 1884 1884
1531 1531 1531
1563 1563 1563
1595 1595 1595
1627 1627 1627
1660 1660 1660
1692 1692 1692
1725 1725 1725
1758 1758 1758
1790 1790 1790
1823 1823 1823
1856 1856 1856
1889 1889 1889
1922 1922 1922
1955 1955 1955
1988 1988 1988
2021 2021 2021
2055 2055 2055
1697 1697 1697
1730 1730 1730
1762 1762 1762
1795 1795 1795
1828 1828 1828
1861 1861 1861
1894 1894 1894
1927 1927 1927
1960 1960 1960
1993 1993 1993
2026 2026 2026
2060 2060 2060
2091 2091 2091
2122 2122 2122
2154 2154 2154
2185 2185 2185
2216 2216 2216
1866 1866 1866
1899 1899 1899
1932 1932 1932
1965 1965 1965
1999 1999 1999
2032 2032 2032
2065 2065 2065
2096 2096 2096
2127 2127 2127
2158 2158 2158
2190 2190 2190
2221 2221 2221
2252 2252 2252
2283 2283 2283
2314 2314 2314
2345 2345 2345
2376 2376 2376
2037 2037 2037
2069 2069 2069
2101 2101 2101
2132 2132 2132
2163 2163 2163
2195 2195 2195
2226 2226 2226
2257 2257 2257
2288 2288 2288
2319 2319 2319
2350 2350 2350
2381 2381 2381
2412 2412 2412
2443 2443 2443
2474 2474 2474
2504 2504 2504
2535 2535 2535
2199 2199 2199
2231 2231 2231
2262 2262 2262
2293 2293 2293
2324 2324 2324
2355 2355 2355
2386 2386 2386
2417 2417 2417
2448 2448 2448
2478 2478 2478
2509 2509 2509
2540 2540 2540
2571 2571 2571
2601 2601 2601
2632 2632 2632
2662 2662 2662
2693 2693 2693
2360 2360 2360
2391 2391 2391
2421 2421 2421
2452 2452 2452
2483 2483 2483
2514 2514 2514
2545 2545 2545
2576 2576 2576
2606 2606 2606
2636 2636 2636
2667 2667 2667
2698 2698 2698
2728 2728 2728
2759 2759 2759
2789 2789 2789
2819 2819 2819
2850 2850 2850
2519 2519 2519
2549 2549 2549
2580 2580 2580
2611 2611 2611
2641 2641 2641
2672 2672 2672
2703 2703 2703
2733 2733 2733
2764 2764 2764
2793 2793 2793
2824 2824 2824
2854 2854 2854
2884 2884 2884
2914 2914 2914
2945 2945 2945
2975 2975 2975
3005 3005 3005
124 124 124
147 147 147
170 170 170
194 194 194
219 219 219
244 244 244
269 269 269
294 294 294
320 320 320
346 346 346
372 372 372
399 399 399
426 426 426
453 453 453
481 481 481
508 508 508
536 536 536
247 247 247
273 273 273
298 298 298
324 324 324
350 350 350
377 377 377
404 404 404
431 431 431
458 458 458
485 485 485
512 512 512
540 540 540
568 568 568
597 597 597
625 625 625
654 654 654
682 682 682
381 381 381
408 408 408
435 435 435
462 462 462
489 489 489
517 517 517
545 545 545
573 573 573
601 601 601
629 629 629
658 658 658
687 687 687
716 716 716
745 745 745
774 774 774
804 804 804
833 833 833
521 521 521
549 549 549
577 577 577
606 606 606
634 634 634
663 663 663
692 692 692
721 721 721
750 750 750
779 779 779
808 808 808
838 838 838
867 867 867
897 897 897
927 927 927
957 957 957
988 988 988
667 667 667
696 696 696
725 725 725
754 754 754
783 783 783
813 813 813
842 842 842
872 872 872
902 902 902
932 932 932
962 962 962
992 992 992
1023 1023 1023
1053 1053 1053
1084 1084 1084
1114 1114 1114
1145 1145 1145
817 817 817
847 847 847
877 877 877
907 907 907
937 937 937
967 967 967
997 997 997
1028 1028 1028
1058 1058 1058
1088 1088 1088
1119 1119 1119
1150 1150 1150
1181 1181 1181
1212 1212 1212
1243 1243 1243
1275 1275 1275
1306 1306 1306
971 971 971
1002 1002 1002
1032 1032 1032
1063 1063 1063
1093 1093 1093
1124 1124 1124
1155 1155 1155
1186 1186 1186
1217 1217 1217
1248 1248 1248
1279 1279 1279
1311 1311 1311
1342 1342 1342
1374 1374 1374
1406 1406 1406
1437 1437 1437
1469 1469 1469
1129 1129 1129
1160 1160 1160
1191 1191 1191
1222 1222 1222
1253 1253 1253
1284 1284 1284
1316 1316 1316
1347 1347 1347
1379 1379 1379
1410 1410 1410
1442 1442 1442
1474 1474 1474
1506 1506 1506
1538 1538 1538
1570 1570 1570
1603 1603 1603
1635 1635 1635
1289 1289 1289
1321 1321 1321
1352 1352 1352
1384 1384 1384
1416 1416 1416
1447 1447 1447
1479 1479 1479
1511 1511 1511
1544 1544 1544
1575 1575 1575
1608 1608 1608
1640 1640 1640
1672 1672 1672
1705 1705 1705
1738 1738 1738
1770 1770 1770
1803 1803 1803
1450 1450 1450
1482 1482 1482
1514 1514 1514
1546 1546 1546
1578 1578 1578
1610 1610 1610
1643 1643 1643
1675 1675 1675
1708 1708 1708
1740 1740 1740
1773 1773 1773
1805 1805 1805
1838 1838 1838
1871 1871 1871
1904 1904 1904
1937 1937 1937
1971 1971 1971
1615 1615 1615
1648 1648 1648
1680 1680 1680
1713 1713 1713
1745 1745 1745
1778 1778 1778
1811 1811 1811
1844 1844 1844
1877 1877 1877
1909 1909 1909
1942 1942 1942
1976 1976 1976
2009 2009 2009
2042 2042 2042
2074 2074 2074
2106 2106 2106
2137 2137 2137
1783 1783 1783
1816 1816 1816
1849 1849 1849
1882 1882 1882
1915 1915 1915
1948 1948 1948
1981 1981 1981
2014 2014 2014
2048 2048 2048
2079 2079 2079
2111 2111 2111
2142 2142 2142
2173 2173 2173
2204 2204 2204
2235 2235 2235
2267 2267 2267
2298 2298 2298
1953 1953 1953
1986 1986 1986
2019 2019 2019
2053 2053 2053
2084 2084 2084
2116 2116 2116
2147 2147 2147
2178 2178 2178
2209 2209 2209
2240 2240 2240
2271 2271 2271
2302 2302 2302
2333 2333 2333
2364 2364 2364
2395 2395 2395
2426 2426 2426
2457 2457 2457
2120 2120 2120
2152 2152 2152
2183 2183 2183
2214 2214 2214
2245 2245 2245
2276 2276 2276
2308 2308 2308
2339 2339 2339
2370 2370 2370
2400 2400 2400
2431 2431 2431
2462 2462 2462
2493 2493 2493
2524 2524 2524
2554 2554 2554
2585 2585 2585
2616 2616 2616
2281 2281 2281
2312 2312 2312
2343 2343 2343
2374 2374 2374
2405 2405 2405
2436 2436 2436
2467 2467 2467
2498 2498 2498
2529 2529 2529
2559 2559 2559
2590 2590 2590
2620 2620 2620
2651 2651 2651
2682 2682 2682
2712 2712 2712
2743 2743 2743
2773 2773 2773
2441 2441 2441
2472 2472 2472
2502 2502 2502
2533 2533 2533
2564 2564 2564
2595 2595 2595
2625 2625 2625
2656 2656 2656
2687 2687 2687
2717 2717 2717
2747 2747 2747
2777 2777 2777
2808 2808 2808
2838 2838 2838
2868 2868 2868
2899 2899 2899
2929 2929 2929
2599 2599 2599
2630 2630 2630
2661 2661 2661
2691 2691 2691
2722 2722 2722
2752 2752 2752
2782 2782 2782
2813 2813 2813
2843 2843 2843
2873 2873 2873
2903 2903 2903
2933 2933 2933
2963 2963 2963
2993 2993 2993
3023 3023 3023
3053 3053 3053
3083 3083 3083
185 185 185
209 209 209
234 234 234
259 259 259
285 285 285
310 310 310
337 337 337
363 363 363
389 389 389
416 416 416
443 443 443
470 470 470
498 498 498
526 526 526
554 554 554
582 582 582
610 610 610
314 314 314
340 340 340
367 367 367
393 393 393
420 420 420
448 448 448
475 475 475
502 502 502
530 530 530
558 558 558
586 586 586
614 614 614
643 643 643
672 672 672
701 701 701
730 730 730
