public/luts/Fuji XTrans III - Mono+Ye.3dl
#Fujifilm Fuji XTrans III - Mono+Ye — analytically generated
0 256 512 767 1023
0 0 0
48 48 48
104 104 104
164 164 164
226 226 226
532 532 532
602 602 602
673 673 673
745 745 745
817 817 817
1157 1157 1157
1233 1233 1233
1309 1309 1309
1385 1385 1385
1463 1463 1463
1819 1819 1819
1898 1898 1898
1978 1978 1978
2058 2058 2058
2133 2133 2133
2475 2475 2475
2550 2550 2550
2624 2624 2624
2698 2698 2698
2771 2771 2771
272 272 272
338 338 338
405 405 405
473 473 473
542 542 542
869 869 869
943 943 943
1017 1017 1017
1092 1092 1092
1167 1167 1167
1518 1518 1518
1596 1596 1596
1675 1675 1675
1753 1753 1753
1833 1833 1833
2187 2187 2187
2262 2262 2262
2337 2337 2337
2411 2411 2411
2486 2486 2486
2824 2824 2824
2898 2898 2898
2971 2971 2971
3044 3044 3044
3117 3117 3117
592 592 592
663 663 663
735 735 735
807 807 807
880 880 880
1222 1222 1222
1298 1298 1298
1375 1375 1375
1452 1452 1452
1529 1529 1529
1890 1890 1890
1970 1970 1970
2050 2050 2050
2125 2125 2125
2200 2200 2200
2539 2539 2539
2613 2613 2613
2687 2687 2687
2761 2761 2761
2835 2835 2835
3169 3169 3169
3241 3241 3241
3313 3313 3313
3385 3385 3385
3456 3456 3456
931 931 931
1005 1005 1005
1080 1080 1080
1155 1155 1155
1231 1231 1231
1584 1584 1584
1662 1662 1662
1741 1741 1741
1820 1820 1820
1899 1899 1899
2252 2252 2252
2327 2327 2327
2402 2402 2402
2476 2476 2476
2550 2550 2550
2886 2886 2886
2959 2959 2959
3033 3033 3033
3105 3105 3105
3178 3178 3178
3506 3506 3506
3577 3577 3577
3647 3647 3647
3717 3717 3717
3786 3786 3786
1286 1286 1286
1362 1362 1362
1439 1439 1439
1517 1517 1517
1595 1595 1595
1957 1957 1957
2037 2037 2037
2113 2113 2113
2188 2188 2188
2263 2263 2263
2604 2604 2604
2678 2678 2678
2752 2752 2752
2825 2825 2825
2899 2899 2899
3230 3230 3230
3302 3302 3302
3374 3374 3374
3445 3445 3445
3516 3516 3516
3835 3835 3835
3903 3903 3903
3970 3970 3970
4034 4034 4034
4095 4095 4095
