public/luts/Fuji XTrans III - Mono+R.3dl
#Fujifilm Fuji XTrans III - Mono+R — analytically generated
0 256 512 767 1023
0 0 0
49 49 49
109 109 109
175 175 175
244 244 244
335 335 335
411 411 411
488 488 488
566 566 566
647 647 647
749 749 749
833 833 833
917 917 917
1003 1003 1003
1089 1089 1089
1198 1198 1198
1286 1286 1286
1376 1376 1376
1466 1466 1466
1557 1557 1557
1673 1673 1673
1765 1765 1765
1859 1859 1859
1953 1953 1953
2048 2048 2048
411 411 411
488 488 488
566 566 566
647 647 647
728 728 728
833 833 833
917 917 917
1003 1003 1003
1089 1089 1089
1177 1177 1177
1288 1288 1288
1378 1378 1378
1468 1468 1468
1559 1559 1559
1651 1651 1651
1765 1765 1765
1859 1859 1859
1953 1953 1953
2048 2048 2048
2136 2136 2136
2246 2246 2246
2334 2334 2334
2421 2421 2421
2508 2508 2508
2595 2595 2595
917 917 917
1003 1003 1003
1090 1090 1090
1177 1177 1177
1266 1266 1266
1378 1378 1378
1468 1468 1468
1559 1559 1559
1651 1651 1651
1744 1744 1744
1861 1861 1861
1955 1955 1955
2050 2050 2050
2138 2138 2138
2226 2226 2226
2334 2334 2334
2421 2421 2421
2508 2508 2508
2595 2595 2595
2681 2681 2681
2789 2789 2789
2874 2874 2874
2959 2959 2959
3043 3043 3043
3127 3127 3127
1466 1466 1466
1557 1557 1557
1649 1649 1649
1741 1741 1741
1835 1835 1835
1953 1953 1953
2048 2048 2048
2136 2136 2136
2224 2224 2224
2311 2311 2311
2421 2421 2421
2508 2508 2508
2595 2595 2595
2681 2681 2681
2767 2767 2767
2872 2872 2872
2957 2957 2957
3042 3042 3042
3125 3125 3125
3209 3209 3209
3313 3313 3313
3395 3395 3395
3476 3476 3476
3557 3557 3557
3636 3636 3636
2048 2048 2048
2136 2136 2136
2224 2224 2224
2311 2311 2311
2399 2399 2399
2508 2508 2508
2595 2595 2595
2681 2681 2681
2767 2767 2767
2852 2852 2852
2959 2959 2959
3043 3043 3043
3127 3127 3127
3211 3211 3211
3294 3294 3294
3395 3395 3395
3476 3476 3476
3557 3557 3557
3636 3636 3636
3715 3715 3715
3812 3812 3812
3888 3888 3888
3961 3961 3961
4032 4032 4032
4095 4095 4095
