public/luts/Fuji XTrans III - Mono.3dl
#Fujifilm Fuji XTrans III - Mono — analytically generated
0 128 256 384 512 639 767 895 1023
0 0 0
38 38 38
83 83 83
130 130 130
180 180 180
231 231 231
283 283 283
337 337 337
391 391 391
239 239 239
291 291 291
345 345 345
400 400 400
455 455 455
510 510 510
567 567 567
624 624 624
682 682 682
519 519 519
576 576 576
634 634 634
691 691 691
750 750 750
808 808 808
868 868 868
928 928 928
988 988 988
818 818 818
877 877 877
937 937 937
998 998 998
1058 1058 1058
1119 1119 1119
1181 1181 1181
1242 1242 1242
1305 1305 1305
1129 1129 1129
1190 1190 1190
1252 1252 1252
1314 1314 1314
1377 1377 1377
1439 1439 1439
1502 1502 1502
1566 1566 1566
1630 1630 1630
1447 1447 1447
1510 1510 1510
1573 1573 1573
1637 1637 1637
1701 1701 1701
1765 1765 1765
1829 1829 1829
1894 1894 1894
1959 1959 1959
1775 1775 1775
1839 1839 1839
1904 1904 1904
1969 1969 1969
2034 2034 2034
2097 2097 2097
2158 2158 2158
2220 2220 2220
2282 2282 2282
2106 2106 2106
2168 2168 2168
2230 2230 2230
2291 2291 2291
2353 2353 2353
2413 2413 2413
2475 2475 2475
2536 2536 2536
2597 2597 2597
2423 2423 2423
2484 2484 2484
2545 2545 2545
2606 2606 2606
2667 2667 2667
2727 2727 2727
2787 2787 2787
2848 2848 2848
2908 2908 2908
112 112 112
161 161 161
212 212 212
264 264 264
317 317 317
370 370 370
425 425 425
481 481 481
537 537 537
379 379 379
434 434 434
490 490 490
546 546 546
603 603 603
660 660 660
719 719 719
777 777 777
837 837 837
670 670 670
728 728 728
787 787 787
846 846 846
906 906 906
965 965 965
1026 1026 1026
1087 1087 1087
1148 1148 1148
975 975 975
1035 1035 1035
1096 1096 1096
1158 1158 1158
1220 1220 1220
1281 1281 1281
1343 1343 1343
1406 1406 1406
1469 1469 1469
1291 1291 1291
1353 1353 1353
1416 1416 1416
1479 1479 1479
1542 1542 1542
1605 1605 1605
1669 1669 1669
1733 1733 1733
1798 1798 1798
1613 1613 1613
1677 1677 1677
1741 1741 1741
1805 1805 1805
1870 1870 1870
1934 1934 1934
2000 2000 2000
2064 2064 2064
2126 2126 2126
1945 1945 1945
2010 2010 2010
2074 2074 2074
2136 2136 2136
2197 2197 2197
2258 2258 2258
2320 2320 2320
2381 2381 2381
2442 2442 2442
2268 2268 2268
2329 2329 2329
2391 2391 2391
2452 2452 2452
2513 2513 2513
2574 2574 2574
2634 2634 2634
2695 2695 2695
2756 2756 2756
2583 2583 2583
2644 2644 2644
2705 2705 2705
2765 2765 2765
2825 2825 2825
2885 2885 2885
2945 2945 2945
3005 3005 3005
3065 3065 3065
244 244 244
297 297 297
350 350 350
405 405 405
460 460 460
516 516 516
573 573 573
630 630 630
688 688 688
525 525 525
582 582 582
639 639 639
697 697 697
756 756 756
814 814 814
874 874 874
934 934 934
994 994 994
824 824 824
883 883 883
943 943 943
1003 1003 1003
1064 1064 1064
1125 1125 1125
1187 1187 1187
1248 1248 1248
1311 1311 1311
1135 1135 1135
1196 1196 1196
1258 1258 1258
1320 1320 1320
1383 1383 1383
1445 1445 1445
1509 1509 1509
1572 1572 1572
1636 1636 1636
1455 1455 1455
1518 1518 1518
1582 1582 1582
1646 1646 1646
1710 1710 1710
1774 1774 1774
1838 1838 1838
1903 1903 1903
1968 1968 1968
1781 1781 1781
1846 1846 1846
1910 1910 1910
1976 1976 1976
2041 2041 2041
2103 2103 2103
2164 2164 2164
2226 2226 2226
2288 2288 2288
2112 2112 2112
2174 2174 2174
2236 2236 2236
2297 2297 2297
2359 2359 2359
2419 2419 2419
2481 2481 2481
2542 2542 2542
2602 2602 2602
2429 2429 2429
2490 2490 2490
2551 2551 2551
2612 2612 2612
2673 2673 2673
2733 2733 2733
2793 2793 2793
2853 2853 2853
2914 2914 2914
2742 2742 2742
2803 2803 2803
2863 2863 2863
2923 2923 2923
2983 2983 2983
3042 3042 3042
3102 3102 3102
3161 3161 3161
3220 3220 3220
384 384 384
439 439 439
495 495 495
552 552 552
609 609 609
666 666 666
724 724 724
783 783 783
842 842 842
675 675 675
733 733 733
792 792 792
852 852 852
911 911 911
971 971 971
1032 1032 1032
1093 1093 1093
1154 1154 1154
981 981 981
1041 1041 1041
1102 1102 1102
1164 1164 1164
1225 1225 1225
1287 1287 1287
1349 1349 1349
1412 1412 1412
1475 1475 1475
1297 1297 1297
1359 1359 1359
1422 1422 1422
1485 1485 1485
1548 1548 1548
1612 1612 1612
1676 1676 1676
1740 1740 1740
1804 1804 1804
1622 1622 1622
1686 1686 1686
1750 1750 1750
1814 1814 1814
1879 1879 1879
1943 1943 1943
2009 2009 2009
2072 2072 2072
2134 2134 2134
1951 1951 1951
2016 2016 2016
2080 2080 2080
2142 2142 2142
2203 2203 2203
2264 2264 2264
2326 2326 2326
2387 2387 2387
2448 2448 2448
2274 2274 2274
2335 2335 2335
2397 2397 2397
2458 2458 2458
2519 2519 2519
2579 2579 2579
2640 2640 2640
2701 2701 2701
2761 2761 2761
2589 2589 2589
2650 2650 2650
2710 2710 2710
2771 2771 2771
2831 2831 2831
2891 2891 2891
2951 2951 2951
3011 3011 3011
3070 3070 3070
2900 2900 2900
2960 2960 2960
3020 3020 3020
3080 3080 3080
3139 3139 3139
3198 3198 3198
3257 3257 3257
3316 3316 3316
3374 3374 3374
530 530 530
587 587 587
645 645 645
703 703 703
761 761 761
820 820 820
879 879 879
939 939 939
1000 1000 1000
829 829 829
889 889 889
949 949 949
1009 1009 1009
1070 1070 1070
1131 1131 1131
1192 1192 1192
1254 1254 1254
1317 1317 1317
1141 1141 1141
1202 1202 1202
1264 1264 1264
1326 1326 1326
1389 1389 1389
1451 1451 1451
1515 1515 1515
1578 1578 1578
1642 1642 1642
1461 1461 1461
1525 1525 1525
1588 1588 1588
1652 1652 1652
1716 1716 1716
1780 1780 1780
1844 1844 1844
1909 1909 1909
1974 1974 1974
1790 1790 1790
1854 1854 1854
1919 1919 1919
1984 1984 1984
2050 2050 2050
2111 2111 2111
2173 2173 2173
2234 2234 2234
2296 2296 2296
2118 2118 2118
2180 2180 2180
2242 2242 2242
2303 2303 2303
2364 2364 2364
2425 2425 2425
2486 2486 2486
2547 2547 2547
2608 2608 2608
2435 2435 2435
2496 2496 2496
2557 2557 2557
2618 2618 2618
2679 2679 2679
2739 2739 2739
2799 2799 2799
2859 2859 2859
2919 2919 2919
2748 2748 2748
2809 2809 2809
2869 2869 2869
2929 2929 2929
2989 2989 2989
3048 3048 3048
3107 3107 3107
3167 3167 3167
3226 3226 3226
3057 3057 3057
3117 3117 3117
3176 3176 3176
3235 3235 3235
3294 3294 3294
3352 3352 3352
3410 3410 3410
3468 3468 3468
3526 3526 3526
680 680 680
738 738 738
797 797 797
856 856 856
916 916 916
976 976 976
1036 1036 1036
1097 1097 1097
1159 1159 1159
985 985 985
1046 1046 1046
1107 1107 1107
1168 1168 1168
1230 1230 1230
1292 1292 1292
1354 1354 1354
1417 1417 1417
1480 1480 1480
1302 1302 1302
1364 1364 1364
1427 1427 1427
1490 1490 1490
1553 1553 1553
1616 1616 1616
1680 1680 1680
1745 1745 1745
1809 1809 1809
1626 1626 1626
1690 1690 1690
1755 1755 1755
1819 1819 1819
1884 1884 1884
1948 1948 1948
2013 2013 2013
2077 2077 2077
2139 2139 2139
1959 1959 1959
2024 2024 2024
2087 2087 2087
2149 2149 2149
2210 2210 2210
2271 2271 2271
2333 2333 2333
2394 2394 2394
2455 2455 2455
2279 2279 2279
2340 2340 2340
2401 2401 2401
2463 2463 2463
2524 2524 2524
2584 2584 2584
2645 2645 2645
2706 2706 2706
2766 2766 2766
2594 2594 2594
2654 2654 2654
2715 2715 2715
2776 2776 2776
2836 2836 2836
2895 2895 2895
2955 2955 2955
3015 3015 3015
3075 3075 3075
2905 2905 2905
2965 2965 2965
3025 3025 3025
3084 3084 3084
3144 3144 3144
3202 3202 3202
3261 3261 3261
3320 3320 3320
3379 3379 3379
3212 3212 3212
3271 3271 3271
3329 3329 3329
3388 3388 3388
3446 3446 3446
3503 3503 3503
3561 3561 3561
3618 3618 3618
3675 3675 3675
834 834 834
893 893 893
953 953 953
1014 1014 1014
1075 1075 1075
1136 1136 1136
1197 1197 1197
1259 1259 1259
1321 1321 1321
1145 1145 1145
1207 1207 1207
1269 1269 1269
1331 1331 1331
1394 1394 1394
1456 1456 1456
1519 1519 1519
1583 1583 1583
1647 1647 1647
1466 1466 1466
1529 1529 1529
1593 1593 1593
1657 1657 1657
1721 1721 1721
1785 1785 1785
1849 1849 1849
1914 1914 1914
1979 1979 1979
1795 1795 1795
1859 1859 1859
1924 1924 1924
1989 1989 1989
2054 2054 2054
2116 2116 2116
2177 2177 2177
2239 2239 2239
2301 2301 2301
2125 2125 2125
2187 2187 2187
2249 2249 2249
2310 2310 2310
2372 2372 2372
2432 2432 2432
2493 2493 2493
2554 2554 2554
2615 2615 2615
2440 2440 2440
2501 2501 2501
2562 2562 2562
2622 2622 2622
2683 2683 2683
2743 2743 2743
2804 2804 2804
2864 2864 2864
2924 2924 2924
2753 2753 2753
2813 2813 2813
2873 2873 2873
2933 2933 2933
2993 2993 2993
3052 3052 3052
3112 3112 3112
3171 3171 3171
3230 3230 3230
3062 3062 3062
3121 3121 3121
3181 3181 3181
3240 3240 3240
3298 3298 3298
3356 3356 3356
3415 3415 3415
3473 3473 3473
3531 3531 3531
3366 3366 3366
3424 3424 3424
3482 3482 3482
3540 3540 3540
3597 3597 3597
3653 3653 3653
3710 3710 3710
3766 3766 3766
3822 3822 3822
991 991 991
1052 1052 1052
1113 1113 1113
1174 1174 1174
1236 1236 1236
1298 1298 1298
1360 1360 1360
1423 1423 1423
1486 1486 1486
1308 1308 1308
1370 1370 1370
1433 1433 1433
1496 1496 1496
1559 1559 1559
1623 1623 1623
1687 1687 1687
1751 1751 1751
1815 1815 1815
1633 1633 1633
1697 1697 1697
1761 1761 1761
1825 1825 1825
1890 1890 1890
1955 1955 1955
2020 2020 2020
2083 2083 2083
2145 2145 2145
1965 1965 1965
2030 2030 2030
2093 2093 2093
2155 2155 2155
2216 2216 2216
2277 2277 2277
2339 2339 2339
2400 2400 2400
2461 2461 2461
2287 2287 2287
2348 2348 2348
2410 2410 2410
2471 2471 2471
2532 2532 2532
2592 2592 2592
2653 2653 2653
2714 2714 2714
2774 2774 2774
2600 2600 2600
2660 2660 2660
2721 2721 2721
2781 2781 2781
2842 2842 2842
2901 2901 2901
2961 2961 2961
3021 3021 3021
3081 3081 3081
2911 2911 2911
2971 2971 2971
3030 3030 3030
3090 3090 3090
3149 3149 3149
3208 3208 3208
3267 3267 3267
3326 3326 3326
3384 3384 3384
3217 3217 3217
3276 3276 3276
3335 3335 3335
3393 3393 3393
3451 3451 3451
3509 3509 3509
3566 3566 3566
3623 3623 3623
3680 3680 3680
3518 3518 3518
3575 3575 3575
3632 3632 3632
3689 3689 3689
3745 3745 3745
3801 3801 3801
3856 3856 3856
3910 3910 3910
3964 3964 3964
1151 1151 1151
1213 1213 1213
1275 1275 1275
1337 1337 1337
1400 1400 1400
1462 1462 1462
1526 1526 1526
1589 1589 1589
1653 1653 1653
1472 1472 1472
1536 1536 1536
1599 1599 1599
1663 1663 1663
1727 1727 1727
1791 1791 1791
1855 1855 1855
1920 1920 1920
1985 1985 1985
1801 1801 1801
1866 1866 1866
1931 1931 1931
1996 1996 1996
2060 2060 2060
2122 2122 2122
2183 2183 2183
2245 2245 2245
2307 2307 2307
2131 2131 2131
2193 2193 2193
2255 2255 2255
2316 2316 2316
2378 2378 2378
2438 2438 2438
2499 2499 2499
2560 2560 2560
2621 2621 2621
2448 2448 2448
2509 2509 2509
2570 2570 2570
2631 2631 2631
2691 2691 2691
2751 2751 2751
2812 2812 2812
2872 2872 2872
2932 2932 2932
2759 2759 2759
2819 2819 2819
2879 2879 2879
2939 2939 2939
2999 2999 2999
3058 3058 3058
3118 3118 3118
3177 3177 3177
3236 3236 3236
3068 3068 3068
3127 3127 3127
3186 3186 3186
3245 3245 3245
3304 3304 3304
3362 3362 3362
3420 3420 3420
3478 3478 3478
3536 3536 3536
3371 3371 3371
3430 3430 3430
3487 3487 3487
3545 3545 3545
3602 3602 3602
3659 3659 3659
3715 3715 3715
3771 3771 3771
3827 3827 3827
3668 3668 3668
3724 3724 3724
3780 3780 3780
3836 3836 3836
3890 3890 3890
3944 3944 3944
3997 3997 3997
4048 4048 4048
4095 4095 4095
